; HEADER_BLOCK_START
; generated by OrcaSlicer 2.1.1 on 2024-09-06 at 18:19:36
; total layer number: 60
; filament_density: 1.27
; filament_diameter: 1.75
; max_z_height: 12.00
; HEADER_BLOCK_END

; THUMBNAIL_BLOCK_START

;
; THUMBNAIL_BLOCK_END

; THUMBNAIL_BLOCK_START

;
; THUMBNAIL_BLOCK_END

; external perimeters extrusion width = 0.42mm
; perimeters extrusion width = 0.45mm
; infill extrusion width = 0.45mm
; solid infill extrusion width = 0.42mm
; top infill extrusion width = 0.42mm
; first layer extrusion width = 0.50mm

; external perimeters extrusion width = 0.42mm
; perimeters extrusion width = 0.45mm
; infill extrusion width = 0.45mm
; solid infill extrusion width = 0.42mm
; top infill extrusion width = 0.42mm
; first layer extrusion width = 0.50mm

; EXECUTABLE_BLOCK_START
EXCLUDE_OBJECT_DEFINE NAME=BRIO_male-male_long.stl_id_0_copy_0 CENTER=109.532,62.9132 POLYGON=[[59.5637,62.2947],[59.8277,61.0877],[60.3437,59.9647],[61.0877,58.9777],[76.4577,42.9127],[142.607,42.9127],[157.977,58.9777],[158.721,59.9637],[159.237,61.0867],[159.501,62.2947],[159.501,63.5307],[159.237,64.7377],[158.721,65.8607],[157.977,66.8477],[142.607,82.9127],[79.6067,82.9137],[76.4577,82.9137],[61.0877,66.8477],[60.3437,65.8617],[59.8277,64.7387],[59.5637,63.5307],[59.5637,62.2947]]
EXCLUDE_OBJECT_DEFINE NAME=BRIO_female-female_short.stl_id_1_copy_0 CENTER=108.127,117.373 POLYGON=[[78.5275,97.3734],[137.727,97.3734],[137.727,137.373],[78.5275,137.373],[78.5275,97.3734]]
M73 P0 R54
M106 S0
M106 P2 S0
;TYPE:Custom
M140 S0
M104 S0 
START_PRINT EXTRUDER_TEMP=250 BED_TEMP=70
G90
G21
M83 ; use relative distances for extrusion
; filament start gcode
M106 S0
M106 P2 S0
;LAYER_CHANGE
;Z:0.2
;HEIGHT:0.2
;BEFORE_LAYER_CHANGE
;0.2
G92 E0

G1 E-.6 F2400
;_SET_FAN_SPEED_CHANGING_LAYER
SET_VELOCITY_LIMIT ACCEL=500 ACCEL_TO_DECEL=250
SET_VELOCITY_LIMIT SQUARE_CORNER_VELOCITY=9
EXCLUDE_OBJECT_START NAME=BRIO_male-male_long.stl_id_0_copy_0
G1 Z.2 F30000
G1 X142.282 Y64.123
G1 Z.2
G1 E.6 F2400
;TYPE:Inner wall
;WIDTH:0.499999
G1 F3600
G1 X142.082 Y64.155 E.0073
G1 X141.812 Y64.283 E.01079
G1 X141.529 Y64.545 E.01391
G1 X141.354 Y64.872 E.0134
G1 X141.293 Y65.241 E.01352
G1 X141.293 Y81.599 E.5906
G1 X77.772 Y81.6 E2.29348
G1 X77.772 Y65.241 E.59063
G1 X77.721 Y64.905 E.01226
G1 X77.535 Y64.545 E.01465
G1 X77.252 Y64.283 E.01391
G1 X76.983 Y64.155 E.01079
G1 X76.629 Y64.099 E.01292
G1 X70.363 Y64.099 E.22626
G1 X70.068 Y64.137 E.01074
G1 X69.648 Y64.349 E.01698
G1 X69.393 Y64.636 E.01385
G1 X68.763 Y65.646 E.04297
G1 X68.1 Y66.328 E.03435
G1 X67.305 Y66.851 E.03435
G1 X66.416 Y67.193 E.03439
G1 X65.477 Y67.337 E.03433
G1 X64.527 Y67.276 E.03435
G1 X63.612 Y67.014 E.03437
G1 X62.774 Y66.563 E.03437
G1 X62.051 Y65.943 E.03438
G1 X61.478 Y65.184 E.03434
G1 X61.081 Y64.319 E.03435
G1 X60.878 Y63.389 E.03439
G1 X60.878 Y62.437 E.03437
G1 X61.081 Y61.507 E.03435
G1 X61.479 Y60.642 E.03437
G1 X62.051 Y59.882 E.03437
G1 X62.774 Y59.262 E.03437
G1 X63.612 Y58.811 E.03437
G1 X64.527 Y58.549 E.03435
G1 X65.476 Y58.489 E.03435
G1 X66.416 Y58.633 E.03435
G1 X67.305 Y58.975 E.03439
G1 X68.1 Y59.499 E.03435
G1 X68.764 Y60.18 E.03436
G1 X69.392 Y61.187 E.04286
G1 X69.648 Y61.476 E.01393
G1 X70.068 Y61.688 E.01698
G1 X70.363 Y61.727 E.01074
G1 X76.629 Y61.727 E.22626
G1 X76.983 Y61.671 E.01292
G1 X77.252 Y61.542 E.01079
G1 X77.535 Y61.281 E.01391
G1 X77.71 Y60.954 E.0134
G1 X77.772 Y60.584 E.01352
G1 X77.772 Y44.227 E.5906
G1 X141.293 Y44.227 E2.29348
G1 X141.293 Y60.584 E.5906
G1 X141.343 Y60.92 E.01226
G1 X141.529 Y61.281 E.01465
G1 X141.812 Y61.542 E.01391
G1 X142.082 Y61.671 E.01079
G1 X142.435 Y61.727 E.01292
G1 X148.702 Y61.727 E.22626
G1 X148.997 Y61.688 E.01074
G1 X149.416 Y61.476 E.01698
G1 X149.671 Y61.189 E.01385
G1 X150.301 Y60.179 E.04297
G1 X150.965 Y59.498 E.03435
G1 X151.759 Y58.974 E.03435
G1 X152.648 Y58.632 E.03439
G1 X153.588 Y58.488 E.03433
G1 X154.537 Y58.549 E.03435
G1 X155.453 Y58.811 E.03437
G1 X156.291 Y59.262 E.03437
G1 X157.013 Y59.883 E.03438
G1 X157.586 Y60.642 E.03434
G1 X157.983 Y61.506 E.03435
G1 X158.187 Y62.437 E.03439
G1 X158.187 Y63.389 E.03437
G1 X157.983 Y64.318 E.03435
G1 X157.586 Y65.183 E.03437
G1 X157.013 Y65.943 E.03437
G1 X156.291 Y66.563 E.03437
G1 X155.453 Y67.014 E.03437
G1 X154.538 Y67.276 E.03435
G1 X153.588 Y67.336 E.03435
G1 X152.648 Y67.192 E.03435
G1 X151.759 Y66.85 E.03439
G1 X150.965 Y66.327 E.03435
G1 X150.301 Y65.645 E.03436
G1 X149.672 Y64.638 E.04286
G1 X149.416 Y64.349 E.01392
G1 X148.997 Y64.137 E.01698
G1 X148.702 Y64.099 E.01074
G1 X142.435 Y64.099 E.22626
G1 X142.321 Y64.117 E.00417
G1 X142.358 Y64.568 F30000
G1 F3600
G1 X142.223 Y64.589 E.00494
G1 X141.956 Y64.751 E.01126
G1 X141.807 Y64.966 E.00944
G1 X141.75 Y65.241 E.01017
G1 X141.75 Y82.056 E.6071
G1 X77.315 Y82.057 E2.32648
G1 X77.315 Y65.241 E.60714
G1 X77.278 Y65.02 E.00811
G1 X77.108 Y64.751 E.01149
G1 X76.841 Y64.589 E.01125
G1 X76.629 Y64.556 E.00775
G1 X70.232 Y64.556 E.23099
G1 X69.934 Y64.706 E.01204
G1 X69.781 Y64.878 E.00831
G1 X69.125 Y65.93 E.04474
G1 X68.393 Y66.682 E.03792
G1 X67.515 Y67.26 E.03792
G1 X66.534 Y67.638 E.03795
G1 X65.497 Y67.796 E.0379
G1 X64.449 Y67.729 E.03792
G1 X63.439 Y67.44 E.03794
G1 X62.514 Y66.942 E.03793
G1 X61.716 Y66.258 E.03794
G1 X61.084 Y65.42 E.03791
G1 X60.645 Y64.465 E.03792
G1 X60.421 Y63.438 E.03796
G1 X60.421 Y62.387 E.03794
G1 X60.645 Y61.361 E.03792
G1 X61.084 Y60.407 E.03793
G1 X61.716 Y59.568 E.03794
G1 X62.514 Y58.883 E.03794
G1 X63.439 Y58.385 E.03793
G1 X64.448 Y58.096 E.03792
G1 X65.496 Y58.03 E.03792
G1 X66.534 Y58.189 E.03791
G1 X67.515 Y58.566 E.03795
G1 X68.393 Y59.144 E.03792
G1 X69.125 Y59.897 E.03792
G1 X69.814 Y60.995 E.04681
G1 X70.04 Y61.189 E.01074
G1 X70.363 Y61.27 E.01202
G1 X76.629 Y61.27 E.22626
G1 X76.841 Y61.236 E.00775
G1 X77.108 Y61.075 E.01125
G1 X77.257 Y60.86 E.00944
G1 X77.315 Y60.584 E.01017
G1 X77.315 Y43.77 E.6071
G1 X141.75 Y43.77 E2.32648
G1 X141.75 Y60.584 E.6071
G1 X141.786 Y60.806 E.00811
G1 X141.956 Y61.075 E.01149
G1 X142.223 Y61.236 E.01126
G1 X142.435 Y61.27 E.00775
G1 X148.833 Y61.27 E.23099
G1 X149.131 Y61.119 E.01204
G1 X149.283 Y60.947 E.00831
G1 X149.939 Y59.896 E.04474
G1 X150.672 Y59.143 E.03792
G1 X151.549 Y58.565 E.03792
G1 X152.53 Y58.188 E.03795
G1 X153.568 Y58.029 E.0379
G1 X154.616 Y58.096 E.03792
G1 X155.626 Y58.385 E.03794
G1 X156.551 Y58.883 E.03793
G1 X157.348 Y59.568 E.03794
G1 X157.981 Y60.406 E.03791
G1 X158.419 Y61.36 E.03792
G1 X158.644 Y62.387 E.03796
G1 X158.644 Y63.438 E.03794
G1 X158.419 Y64.464 E.03792
G1 X157.981 Y65.419 E.03793
G1 X157.348 Y66.258 E.03794
G1 X156.551 Y66.942 E.03794
G1 X155.626 Y67.44 E.03793
G1 X154.616 Y67.729 E.03792
G1 X153.568 Y67.796 E.03792
G1 X152.53 Y67.637 E.03791
G1 X151.549 Y67.259 E.03795
G1 X150.672 Y66.681 E.03792
G1 X149.939 Y65.929 E.03792
G1 X149.251 Y64.83 E.04681
G1 X149.025 Y64.637 E.01074
G1 X148.702 Y64.556 E.01202
G1 X142.435 Y64.556 E.22626
G1 X142.398 Y64.562 E.00136
G1 X142.435 Y65.013 F30000
;TYPE:Outer wall
G1 F3600
G1 X142.276 Y65.078 E.00622
G1 X142.207 Y65.241 E.00641
G1 X142.207 Y82.513 E.6236
G1 X76.858 Y82.514 E2.35949
G1 X76.858 Y65.241 E.62364
G1 X76.789 Y65.078 E.00641
G1 X76.629 Y65.013 E.00622
G1 X70.314 Y65.013 E.22801
G1 X70.169 Y65.12 E.00653
G1 X69.487 Y66.214 E.04652
G1 X68.685 Y67.037 E.04148
G1 X67.726 Y67.669 E.0415
G1 X66.652 Y68.082 E.04152
G1 X65.517 Y68.256 E.04147
G1 X64.37 Y68.182 E.04149
G1 X63.265 Y67.866 E.0415
G1 X62.253 Y67.321 E.0415
G1 X61.381 Y66.572 E.04151
G1 X60.689 Y65.655 E.04148
G1 X60.209 Y64.611 E.0415
G1 X59.964 Y63.488 E.04152
G1 X59.964 Y62.338 E.04151
G1 X60.209 Y61.215 E.04149
G1 X60.689 Y60.171 E.0415
G1 X61.381 Y59.253 E.0415
G1 X62.253 Y58.504 E.04151
G1 X63.265 Y57.959 E.0415
G1 X64.37 Y57.643 E.04149
G1 X65.517 Y57.571 E.04149
G1 X66.652 Y57.745 E.04148
G1 X67.726 Y58.158 E.04152
G1 X68.685 Y58.79 E.0415
G1 X69.487 Y59.613 E.04149
G1 X70.196 Y60.74 E.04808
G1 X70.363 Y60.813 E.00657
G1 X76.629 Y60.813 E.22626
G1 X76.789 Y60.748 E.00622
G1 X76.858 Y60.584 E.00641
G1 X76.858 Y43.313 E.6236
G1 X142.207 Y43.313 E2.35949
M73 P0 R53
G1 X142.207 Y60.584 E.6236
G1 X142.276 Y60.748 E.00641
G1 X142.435 Y60.813 E.00622
G1 X148.75 Y60.813 E.22801
G1 X148.896 Y60.705 E.00653
G1 X149.577 Y59.612 E.04652
G1 X150.379 Y58.789 E.04148
G1 X151.339 Y58.157 E.0415
G1 X152.412 Y57.744 E.04152
G1 X153.547 Y57.57 E.04147
G1 X154.694 Y57.643 E.04149
G1 X155.799 Y57.959 E.0415
G1 X156.811 Y58.504 E.0415
G1 X157.683 Y59.253 E.04151
G1 X158.375 Y60.17 E.04148
G1 X158.855 Y61.214 E.0415
G1 X159.101 Y62.338 E.04152
G1 X159.101 Y63.487 E.04151
G1 X158.855 Y64.61 E.04149
G1 X158.375 Y65.654 E.0415
G1 X157.683 Y66.572 E.0415
G1 X156.811 Y67.321 E.04151
G1 X155.799 Y67.866 E.0415
G1 X154.694 Y68.182 E.04149
G1 X153.548 Y68.255 E.04149
G1 X152.412 Y68.081 E.04148
G1 X151.339 Y67.668 E.04152
G1 X150.379 Y67.036 E.0415
G1 X149.577 Y66.212 E.04149
G1 X148.869 Y65.085 E.04808
G1 X148.702 Y65.013 E.00657
G1 X142.475 Y65.013 E.22482
;WIPE_START
G1 X142.276 Y65.078 E-.06297
G1 X142.207 Y65.241 E-.05325
G1 X142.207 Y66.854 E-.48377
;WIPE_END
G1 Z.4 F30000
G1 X140.358 Y44.364 Z.4
G1 Z.2
G1 E.6 F2400
;TYPE:Bottom surface
;WIDTH:0.502299
G1 F5877.5
G1 X140.95 Y44.956 E.03039
G1 X140.95 Y45.606 E.02357
G1 X139.914 Y44.57 E.05317
G1 X139.264 Y44.57 E.02357
G1 X140.95 Y46.255 E.08651
G1 X140.95 Y46.905 E.02357
G1 X138.614 Y44.57 E.11985
G1 X137.965 Y44.57 E.02357
G1 X140.95 Y47.555 E.15319
G1 X140.95 Y48.204 E.02357
G1 X137.315 Y44.57 E.18653
G1 X136.665 Y44.57 E.02357
G1 X140.95 Y48.854 E.21987
G1 X140.95 Y49.504 E.02357
G1 X136.016 Y44.57 E.25321
G1 X135.366 Y44.57 E.02357
G1 X140.95 Y50.153 E.28655
G1 X140.95 Y50.803 E.02357
G1 X134.716 Y44.57 E.31989
G1 X134.067 Y44.57 E.02357
G1 X140.95 Y51.453 E.35323
G1 X140.95 Y52.102 E.02357
G1 X133.417 Y44.57 E.38657
G1 X132.767 Y44.57 E.02357
G1 X140.95 Y52.752 E.41991
G1 X140.95 Y53.402 E.02357
G1 X132.118 Y44.57 E.45325
G1 X131.468 Y44.57 E.02357
G1 X140.95 Y54.051 E.48659
G1 X140.95 Y54.701 E.02357
G1 X130.818 Y44.57 E.51993
G1 X130.169 Y44.57 E.02357
G1 X140.95 Y55.351 E.55327
G1 X140.95 Y56 E.02357
G1 X129.519 Y44.57 E.58661
G1 X128.869 Y44.57 E.02357
G1 X140.95 Y56.65 E.61995
G1 X140.95 Y57.3 E.02357
G1 X128.22 Y44.57 E.65329
G1 X127.57 Y44.57 E.02357
G1 X140.95 Y57.949 E.68662
G1 X140.95 Y58.599 E.02357
G1 X126.92 Y44.57 E.71996
G1 X126.271 Y44.57 E.02357
G1 X140.95 Y59.249 E.7533
G1 X140.95 Y59.898 E.02357
G1 X125.621 Y44.57 E.78664
G1 X124.971 Y44.57 E.02357
G1 X141.171 Y60.769 E.83132
;WIPE_START
G1 X139.756 Y59.355 E-.6
;WIPE_END
G1 Z.4 F30000
G1 X154.745 Y58.751 Z.4
G1 Z.2
G1 E.6 F2400
G1 F5877.5
G1 X157.669 Y61.676 E.15009
G1 X157.844 Y62.5 E.03056
G1 X154.216 Y58.872 E.18617
G1 X153.603 Y58.833 E.02229
G1 X153.537 Y58.843 E.00242
G1 X157.844 Y63.149 E.22101
G1 X157.844 Y63.352 E.00734
G1 X157.763 Y63.719 E.01364
G1 X152.974 Y58.929 E.2458
G1 X152.737 Y58.965 E.00871
G1 X152.465 Y59.07 E.01056
G1 X157.64 Y64.245 E.26556
G1 X157.435 Y64.69 E.01778
G1 X151.996 Y59.25 E.27914
G1 X151.917 Y59.281 E.00307
G1 X151.591 Y59.495 E.01416
G1 X157.209 Y65.113 E.2883
G1 X156.93 Y65.484 E.01683
G1 X151.199 Y59.754 E.29407
G1 X150.876 Y60.08 E.01667
G1 X156.623 Y65.826 E.2949
G1 X156.273 Y66.126 E.01672
G1 X150.559 Y60.413 E.29322
G1 X150.31 Y60.813 E.01711
G1 X155.888 Y66.391 E.28624
G1 X155.465 Y66.618 E.0174
G1 X150.06 Y61.213 E.27738
G1 X149.791 Y61.594 E.01691
G1 X154.988 Y66.791 E.2667
G1 X154.483 Y66.935 E.01906
G1 X149.427 Y61.879 E.2595
G1 X149.084 Y62.02 E.01344
G1 X148.938 Y62.04 E.00536
G1 X153.873 Y66.975 E.25326
G1 X153.604 Y66.992 E.00979
G1 X153.175 Y66.926 E.01575
G1 X148.318 Y62.069 E.24924
G1 X147.668 Y62.069 E.02359
G1 X152.284 Y66.685 E.23688
G1 X151.917 Y66.544 E.01427
G1 X151.184 Y66.061 E.03183
G1 X150.572 Y65.432 E.03184
G1 X149.959 Y64.45 E.04201
G1 X149.788 Y64.227 E.01021
G1 X149.63 Y64.081 E.0078
G1 X149.401 Y63.93 E.00996
G1 X149.084 Y63.805 E.01234
G1 X148.705 Y63.756 E.01388
G1 X147.018 Y62.068 E.0866
G1 X146.367 Y62.068 E.02359
G1 X148.056 Y63.756 E.08665
M73 P1 R53
G1 X147.407 Y63.757 E.02356
G1 X145.717 Y62.067 E.08671
G1 X145.067 Y62.067 E.02359
G1 X146.758 Y63.757 E.08676
G1 X146.109 Y63.758 E.02356
G1 X144.417 Y62.066 E.08681
G1 X143.767 Y62.066 E.02359
G1 X145.459 Y63.758 E.08687
G1 X144.81 Y63.759 E.02356
G1 X143.116 Y62.065 E.08692
G1 X142.466 Y62.065 E.02359
G1 X144.161 Y63.759 E.08698
G1 X143.512 Y63.76 E.02356
G1 X124.322 Y44.57 E.98482
G1 X123.672 Y44.57 E.02357
G1 X142.863 Y63.761 E.98484
G1 X142.304 Y63.761 E.02028
G1 X142.229 Y63.776 E.00278
G1 X123.022 Y44.57 E.98565
G1 X122.373 Y44.57 E.02357
G1 X141.742 Y63.939 E.99401
G1 X141.626 Y63.994 E.00466
G1 X141.366 Y64.213 E.01233
G1 X121.723 Y44.57 E1.00806
G1 X121.073 Y44.57 E.02357
G1 X141.101 Y64.598 E1.02781
G1 X140.989 Y64.9 E.01169
G1 X140.961 Y65.107 E.00758
G1 X120.424 Y44.57 E1.05392
G1 X119.774 Y44.57 E.02357
G1 X140.951 Y65.746 E1.08676
G1 X140.951 Y66.396 E.02357
G1 X119.124 Y44.57 E1.12009
G1 X118.475 Y44.57 E.02357
G1 X140.951 Y67.046 E1.15343
G1 X140.951 Y67.695 E.02357
G1 X117.825 Y44.57 E1.18677
G1 X117.175 Y44.57 E.02357
G1 X140.951 Y68.345 E1.22011
G1 X140.951 Y68.994 E.02357
G1 X116.526 Y44.57 E1.25344
G1 X115.876 Y44.57 E.02357
G1 X140.951 Y69.644 E1.28678
G1 X140.95 Y70.294 E.02357
G1 X115.226 Y44.57 E1.32012
G1 X114.577 Y44.57 E.02357
G1 X140.95 Y70.943 E1.35345
G1 X140.95 Y71.593 E.02357
G1 X113.927 Y44.57 E1.38679
G1 X113.278 Y44.57 E.02357
G1 X140.95 Y72.243 E1.42013
G1 X140.95 Y72.892 E.02357
G1 X112.628 Y44.57 E1.45347
G1 X111.978 Y44.57 E.02357
G1 X140.95 Y73.542 E1.4868
G1 X140.95 Y74.191 E.02357
G1 X111.329 Y44.57 E1.52014
G1 X110.679 Y44.57 E.02357
G1 X140.95 Y74.841 E1.55348
G1 X140.95 Y75.491 E.02357
G1 X110.029 Y44.57 E1.58681
G1 X109.38 Y44.57 E.02357
G1 X140.95 Y76.14 E1.62015
G1 X140.95 Y76.79 E.02357
G1 X108.73 Y44.57 E1.65349
G1 X108.08 Y44.57 E.02357
G1 X140.95 Y77.439 E1.68683
G1 X140.95 Y78.089 E.02357
G1 X107.431 Y44.57 E1.72016
G1 X106.781 Y44.57 E.02357
G1 X140.95 Y78.739 E1.7535
G1 X140.95 Y79.388 E.02357
G1 X106.131 Y44.57 E1.78684
G1 X105.482 Y44.57 E.02357
G1 X140.95 Y80.038 E1.82017
G1 X140.95 Y80.688 E.02357
G1 X104.832 Y44.57 E1.85351
G1 X104.182 Y44.57 E.02357
G1 X140.868 Y81.256 E1.88267
G1 X140.219 Y81.256 E.02357
G1 X103.533 Y44.57 E1.88267
G1 X102.883 Y44.57 E.02357
G1 X139.569 Y81.256 E1.88268
G1 X138.919 Y81.256 E.02357
G1 X102.233 Y44.57 E1.88268
G1 X101.584 Y44.57 E.02357
G1 X138.27 Y81.256 E1.88268
G1 X137.62 Y81.256 E.02357
G1 X100.934 Y44.57 E1.88268
G1 X100.284 Y44.57 E.02357
G1 X136.97 Y81.256 E1.88268
G1 X136.321 Y81.256 E.02357
G1 X99.635 Y44.57 E1.88268
G1 X98.985 Y44.57 E.02357
G1 X135.671 Y81.256 E1.88268
G1 X135.022 Y81.256 E.02357
G1 X98.335 Y44.57 E1.88268
G1 X97.686 Y44.57 E.02357
G1 X134.372 Y81.256 E1.88268
G1 X133.722 Y81.256 E.02357
G1 X97.036 Y44.57 E1.88268
G1 X96.386 Y44.57 E.02357
G1 X133.073 Y81.256 E1.88268
G1 X132.423 Y81.256 E.02357
G1 X95.737 Y44.57 E1.88268
G1 X95.087 Y44.57 E.02357
G1 X131.773 Y81.256 E1.88268
G1 X131.124 Y81.256 E.02357
G1 X94.437 Y44.57 E1.88268
G1 X93.788 Y44.57 E.02357
G1 X130.474 Y81.256 E1.88268
G1 X129.824 Y81.256 E.02357
G1 X93.138 Y44.57 E1.88268
M73 P2 R53
G1 X92.488 Y44.57 E.02357
G1 X129.175 Y81.256 E1.88268
G1 X128.525 Y81.256 E.02357
G1 X91.839 Y44.57 E1.88268
G1 X91.189 Y44.57 E.02357
G1 X127.875 Y81.256 E1.88268
G1 X127.226 Y81.256 E.02357
G1 X90.539 Y44.57 E1.88269
G1 X89.89 Y44.57 E.02357
G1 X126.576 Y81.256 E1.88269
G1 X125.926 Y81.256 E.02357
G1 X89.24 Y44.57 E1.88269
G1 X88.59 Y44.57 E.02357
G1 X125.277 Y81.256 E1.88269
G1 X124.627 Y81.256 E.02357
G1 X87.941 Y44.57 E1.88269
G1 X87.291 Y44.57 E.02357
G1 X123.977 Y81.256 E1.88269
G1 X123.328 Y81.256 E.02357
G1 X86.641 Y44.57 E1.88269
G1 X85.992 Y44.57 E.02357
G1 X122.678 Y81.256 E1.88269
G1 X122.029 Y81.256 E.02357
G1 X85.342 Y44.57 E1.88269
G1 X84.692 Y44.57 E.02357
G1 X121.379 Y81.256 E1.88269
G1 X120.729 Y81.256 E.02357
G1 X84.043 Y44.57 E1.88269
G1 X83.393 Y44.57 E.02357
G1 X120.08 Y81.256 E1.88269
G1 X119.43 Y81.256 E.02357
