; HEADER_BLOCK_START
; generated by OrcaSlicer 2.1.1 on 2024-09-04 at 22:36:16
; total layer number: 150
; filament_density: 1.24
; filament_diameter: 1.75
; max_z_height: 30.00
; HEADER_BLOCK_END

; THUMBNAIL_BLOCK_START

;
; THUMBNAIL_BLOCK_END

; THUMBNAIL_BLOCK_START

;
; THUMBNAIL_BLOCK_END

; external perimeters extrusion width = 0.42mm
; perimeters extrusion width = 0.45mm
; infill extrusion width = 0.45mm
; solid infill extrusion width = 0.42mm
; top infill extrusion width = 0.42mm
; support material extrusion width = 0.42mm
; first layer extrusion width = 0.50mm

; EXECUTABLE_BLOCK_START
EXCLUDE_OBJECT_DEFINE NAME=controller_top_right.stl_id_0_copy_0 CENTER=110,110 POLYGON=[[32.5,30.0548],[187.5,30.0548],[187.5,90.0548],[187.5,170.055],[187.063,174.213],[185.771,178.19],[183.68,181.81],[180.883,184.918],[177.5,187.375],[173.68,189.076],[169.591,189.945],[165.409,189.945],[32.5,180.055],[32.5,30.0548]]
M73 P0 R94
M106 S0
M106 P2 S0
;TYPE:Custom
M140 S0
M104 S0 
START_PRINT EXTRUDER_TEMP=220 BED_TEMP=55
G90
G21
M83 ; use relative distances for extrusion
; filament start gcode
M106 S0
M106 P2 S0
;LAYER_CHANGE
;Z:0.2
;HEIGHT:0.2
;BEFORE_LAYER_CHANGE
;0.2
G92 E0

G1 E-.6 F2400
;_SET_FAN_SPEED_CHANGING_LAYER
SET_VELOCITY_LIMIT ACCEL=500 ACCEL_TO_DECEL=250
SET_VELOCITY_LIMIT SQUARE_CORNER_VELOCITY=9
EXCLUDE_OBJECT_START NAME=controller_top_right.stl_id_0_copy_0
G1 Z.2 F30000
G1 X46.85 Y29.442
G1 Z.2
G1 E.6 F2400
;TYPE:Support interface
;WIDTH:0.5
G1 F3600
G1 X46.85 Y179.05 E5.57234
G1 X47.727 Y179.05 E.03267
G1 X47.727 Y29.442 E5.57234
G1 X48.604 Y29.442 E.03267
G1 X48.604 Y179.05 E5.57234
G1 X49.482 Y179.05 E.03267
G1 X49.482 Y178.601 E.01672
G1 X49.353 Y178.601 E.0048
G1 X49.125 Y178.374 E.01199
G1 X49.125 Y29.894 E5.53031
G1 X49.353 Y29.666 E.01199
G1 X49.482 Y29.666 E.0048
G1 X49.482 Y29.442 E.00836
G1 X48.266 Y29.003 F30000
;TYPE:Support
G1 F3600
G1 X46.266 Y29.003 E.07449
G1 X46.266 Y179.489 E5.60501
M73 P0 R93
G1 X50.02 Y179.489 E.13984
G1 X50.02 Y178.163 E.04939
G1 X49.564 Y178.163 E.017
G1 X49.564 Y176.663 E.05586
G1 X54.397 Y176.663 E.18002
G1 X54.397 Y180.988 E.16111
G1 X48.643 Y180.988 E.21432
G1 X48.643 Y183.865 E.10716
G1 X39.012 Y183.865 E.35872
G1 X39.012 Y27.503 E5.82389
G1 X48.266 Y27.503 E.34467
G1 X48.266 Y28.935 E.05331
;WIPE_START
G1 X48.266 Y27.503 E-.42937
G1 X47.697 Y27.503 E-.17063
;WIPE_END
G1 Z.4 F30000
G1 X53.985 Y177.074 Z.4
G1 Z.2
G1 E.6 F2400
G1 F3600
G1 X53.985 Y180.577 E.13047
G1 X48.231 Y180.577 E.21432
G1 X48.231 Y183.454 E.10716
G1 X39.423 Y183.454 E.32808
G1 X39.423 Y27.915 E5.79325
G1 X47.854 Y27.915 E.31403
G1 X47.854 Y28.592 E.02522
G1 X45.854 Y28.592 E.07449
G1 X45.854 Y179.9 E5.63565
G1 X50.431 Y179.9 E.17048
G1 X50.431 Y177.751 E.08003
G1 X49.975 Y177.751 E.017
G1 X49.975 Y177.074 E.02522
G1 X53.985 Y177.074 E.14938
G1 X47.723 Y180.408 F30000
G1 F3600
G1 X47.723 Y182.946 E.09455
G1 X39.931 Y182.946 E.29024
G1 X39.931 Y28.423 E5.75542
G1 X45.346 Y28.423 E.20171
G1 X45.346 Y180.408 E5.66087
G1 X47.723 Y180.408 E.08854
G1 X47.216 Y180.916 F30000
G1 F3600
G1 X47.216 Y182.438 E.05671
G1 X40.439 Y182.438 E.25241
G1 X40.439 Y28.93 E5.71759
G1 X44.839 Y28.93 E.16387
G1 X44.839 Y180.916 E5.66087
G1 X47.216 Y180.916 E.08854
G1 X46.708 Y181.424 F30000
G1 F3600
G1 X46.708 Y181.93 E.01888
G1 X40.947 Y181.93 E.21458
G1 X40.947 Y29.438 E5.67975
G1 X44.331 Y29.438 E.12604
G1 X44.331 Y181.424 E5.66087
G1 X46.708 Y181.424 E.08854
G1 X43.823 Y181.423 F30000
G1 F3600
G1 X41.454 Y181.423 E.08821
G1 X41.454 Y29.946 E5.64192
G1 X43.823 Y29.946 E.08821
G1 X43.823 Y181.423 E5.64192
G1 X43.315 Y180.915 F30000
G1 F3600
G1 X41.962 Y180.915 E.05038
G1 X41.962 Y30.454 E5.60409
G1 X43.315 Y30.454 E.05038
G1 X43.315 Y180.915 E5.60409
G1 X50.939 Y180.069 F30000
G1 F3600
G1 X50.939 Y177.582 E.09264
G1 X53.478 Y177.582 E.09455
G1 X53.478 Y180.069 E.09264
G1 X50.939 Y180.069 E.09455
G1 X51.447 Y179.561 F30000
G1 F3600
G1 X51.447 Y178.09 E.05481
G1 X52.97 Y178.09 E.05671
G1 X52.97 Y179.561 E.05481
G1 X51.447 Y179.561 E.05671
;WIPE_START
G1 X52.97 Y179.561 E-.4568
G1 X52.97 Y179.084 E-.1432
;WIPE_END
G1 Z.4 F30000
G1 X142.263 Y179.05 Z.4
M73 P1 R93
G1 Z.2
G1 E.6 F2400
;TYPE:Support interface
G1 F3600
G1 X141.648 Y179.05 E.02293
G1 X141.648 Y178.601 E.01672
G1 X142.452 Y178.601 E.02995
G1 X142.452 Y179.05 E.01672
G1 X143.329 Y179.05 E.03267
G1 X143.329 Y178.601 E.01672
G1 X144.206 Y178.601 E.03267
G1 X144.206 Y179.05 E.01672
G1 X145.083 Y179.05 E.03267
G1 X145.083 Y177.757 E.04815
G1 X145.662 Y176.6 E.0482
G1 X145.746 Y176.432 F30000
G1 F3600
G1 X145.96 Y176.003 E.01786
G1 X145.96 Y179.05 E.11348
G1 X146.837 Y179.05 E.03267
G1 X146.837 Y174.249 E.17882
G1 X147.416 Y173.092 E.0482
G1 X147.5 Y172.924 F30000
G1 F3600
G1 X147.714 Y172.495 E.01786
G1 X147.714 Y176.173 E.13699
G1 X148.591 Y176.173 E.03267
G1 X148.591 Y170.741 E.20233
G1 X149.17 Y169.583 E.04819
G1 X149.254 Y169.415 F30000
G1 F3600
G1 X149.469 Y168.986 E.01786
G1 X149.469 Y176.173 E.26767
G1 X150.279 Y176.173 E.03019
G1 X150.279 Y170.419 E.21432
G1 X150.346 Y170.419 E.00248
G1 X150.346 Y167.232 E.11868
G1 X150.924 Y166.075 E.0482
G1 X151.008 Y165.907 F30000
G1 F3600
G1 X151.223 Y165.478 E.01786
G1 X151.223 Y170.419 E.18402
G1 X150.534 Y170.419 E.02565
;WIPE_START
G1 X151.223 Y170.419 E-.20656
G1 X151.223 Y169.107 E-.39344
;WIPE_END
G1 Z.4 F30000
G1 X148.718 Y169.507 Z.4
G1 Z.2
G1 E.6 F2400
;TYPE:Support
G1 F3600
G1 X148.718 Y169.068 E.01634
G1 X148.823 Y168.857 E.00879
G1 X149.043 Y168.857 E.00817
G1 X148.748 Y169.446 E.0245
;WIPE_START
G1 X149.043 Y168.857 E-.25435
G1 X148.823 Y168.857 E-.0848
G1 X148.718 Y169.068 E-.09127
G1 X148.718 Y169.507 E-.16957
;WIPE_END
G1 Z.4 F30000
G1 X151.885 Y164.153 Z.4
G1 Z.2
G1 E.6 F2400
;TYPE:Support interface
G1 F3600
G1 X152.1 Y163.724 E.01786
G1 X152.1 Y170.419 E.24935
G1 X152.977 Y170.419 E.03267
G1 X152.977 Y161.97 E.31469
G1 X153.556 Y160.812 E.0482
G1 X153.64 Y160.645 F30000
G1 F3600
G1 X153.854 Y160.216 E.01786
G1 X153.854 Y164.665 E.1657
G1 X153.279 Y164.665 E.02143
G1 X151.595 Y163.753 F30000
;TYPE:Support
G1 F3600
G1 X151.595 Y163.314 E.01634
G1 X151.7 Y163.103 E.00879
G1 X151.92 Y163.103 E.00817
G1 X151.626 Y163.692 E.0245
;WIPE_START
G1 X151.92 Y163.103 E-.25435
G1 X151.7 Y163.103 E-.0848
G1 X151.595 Y163.314 E-.09127
G1 X151.595 Y163.753 E-.16957
;WIPE_END
G1 Z.4 F30000
G1 X154.517 Y158.89 Z.4
G1 Z.2
G1 E.6 F2400
;TYPE:Support interface
G1 F3600
G1 X154.731 Y158.462 E.01786
G1 X154.731 Y164.665 E.23104
G1 X155.608 Y164.665 E.03267
G1 X155.608 Y156.707 E.29638
G1 X156.187 Y155.55 E.0482
G1 X156.271 Y155.382 F30000
G1 F3600
G1 X156.485 Y154.953 E.01786
G1 X156.485 Y158.91 E.14739
G1 X157.362 Y158.91 E.03267
G1 X157.362 Y153.199 E.21273
G1 X157.941 Y152.042 E.04819
G1 X158.025 Y151.874 F30000
G1 F3600
G1 X158.239 Y151.445 E.01786
G1 X158.239 Y158.91 E.27806
G1 X158.91 Y158.91 E.02499
G1 X158.91 Y153.156 E.21432
G1 X159.116 Y153.156 E.00767
G1 X159.116 Y149.691 E.12908
G1 X159.695 Y148.533 E.0482
G1 X159.779 Y148.365 F30000
G1 F3600
G1 X159.993 Y147.937 E.01786
G1 X159.993 Y153.156 E.19441
G1 X159.305 Y153.156 E.02565
;WIPE_START
G1 X159.993 Y153.156 E-.20656
G1 X159.993 Y151.845 E-.39344
;WIPE_END
G1 Z.4 F30000
G1 X157.349 Y152.245 Z.4
G1 Z.2
G1 E.6 F2400
;TYPE:Support
G1 F3600
G1 X157.349 Y151.806 E.01634
G1 X157.455 Y151.595 E.00879
G1 X157.674 Y151.595 E.00817
G1 X157.38 Y152.183 E.0245
;WIPE_START
G1 X157.674 Y151.595 E-.25435
G1 X157.455 Y151.595 E-.0848
G1 X157.349 Y151.806 E-.09127
G1 X157.349 Y152.245 E-.16957
;WIPE_END
G1 Z.4 F30000
G1 X160.226 Y146.49 Z.4
G1 Z.2
G1 E.6 F2400
G1 F3600
G1 X160.226 Y146.052 E.01634
G1 X160.332 Y145.841 E.00879
G1 X160.551 Y145.841 E.00817
G1 X160.257 Y146.429 E.0245
G1 X160.656 Y146.611 F30000
;TYPE:Support interface
G1 F3600
G1 X160.871 Y146.182 E.01786
G1 X160.871 Y153.156 E.25975
G1 X161.748 Y153.156 E.03267
G1 X161.748 Y144.428 E.32508
G1 X162.326 Y143.271 E.0482
G1 X162.41 Y143.103 F30000
G1 F3600
G1 X162.625 Y142.674 E.01786
G1 X162.625 Y147.402 E.1761
G1 X162.049 Y147.402 E.02143
;WIPE_START
G1 X162.625 Y147.402 E-.17262
G1 X162.625 Y145.977 E-.42738
;WIPE_END
G1 Z.4 F30000
G1 X163.287 Y141.349 Z.4
G1 Z.2
G1 E.6 F2400
G1 F3600
G1 X163.502 Y140.92 E.01786
G1 X163.502 Y147.402 E.24144
G1 X164.379 Y147.402 E.03267
G1 X164.379 Y139.166 E.30677
G1 X164.958 Y138.008 E.0482
G1 X165.042 Y137.84 F30000
G1 F3600
G1 X165.256 Y137.412 E.01786
G1 X165.256 Y141.648 E.15779
G1 X164.681 Y141.648 E.02143
G1 X163.103 Y140.736 F30000
;TYPE:Support
G1 F3600
G1 X163.103 Y140.298 E.01634
G1 X163.209 Y140.087 E.00879
G1 X163.428 Y140.087 E.00817
G1 X163.134 Y140.675 E.0245
;WIPE_START
G1 X163.428 Y140.087 E-.25435
G1 X163.209 Y140.087 E-.0848
G1 X163.103 Y140.298 E-.09127
G1 X163.103 Y140.736 E-.16957
;WIPE_END
G1 Z.4 F30000
G1 X165.919 Y136.086 Z.4
G1 Z.2
G1 E.6 F2400
;TYPE:Support interface
G1 F3600
G1 X166.133 Y135.657 E.01786
G1 X166.133 Y141.648 E.22312
G1 X167.01 Y141.648 E.03267
G1 X167.01 Y133.903 E.28846
G1 X167.589 Y132.746 E.0482
G1 X167.673 Y132.578 F30000
G1 F3600
G1 X167.887 Y132.149 E.01786
G1 X167.887 Y135.894 E.13947
G1 X168.764 Y135.894 E.03267
G1 X168.764 Y130.395 E.20481
G1 X169.343 Y129.238 E.04819
G1 X169.427 Y129.07 F30000
G1 F3600
G1 X169.641 Y128.641 E.01786
G1 X169.641 Y135.894 E.27014
G1 X170.419 Y135.894 E.02895
G1 X170.419 Y130.14 E.21432
G1 X170.518 Y130.14 E.00372
G1 X170.518 Y126.887 E.12116
G1 X171.097 Y125.729 E.0482
G1 X171.181 Y125.561 F30000
G1 F3600
G1 X171.396 Y125.132 E.01786
G1 X171.396 Y130.14 E.1865
G1 X170.707 Y130.14 E.02565
;WIPE_START
G1 X171.396 Y130.14 E-.20656
G1 X171.396 Y128.828 E-.39344
;WIPE_END
G1 Z.4 F30000
G1 X168.857 Y129.228 Z.4
G1 Z.2
G1 E.6 F2400
;TYPE:Support
G1 F3600
G1 X168.857 Y128.789 E.01634
G1 X168.963 Y128.578 E.00879
G1 X169.182 Y128.578 E.00817
G1 X168.888 Y129.167 E.0245
;WIPE_START
G1 X169.182 Y128.578 E-.25435
G1 X168.963 Y128.578 E-.0848
G1 X168.857 Y128.789 E-.09127
G1 X168.857 Y129.228 E-.16957
;WIPE_END
G1 Z.4 F30000
G1 X172.058 Y123.807 Z.4
G1 Z.2
G1 E.6 F2400
;TYPE:Support interface
G1 F3600
G1 X172.273 Y123.378 E.01786
G1 X172.273 Y130.14 E.25183
G1 X173.15 Y130.14 E.03267
G1 X173.15 Y121.624 E.31717
G1 X173.728 Y120.467 E.0482
G1 X173.812 Y120.299 F30000
G1 F3600
G1 X174.027 Y119.87 E.01786
G1 X174.027 Y124.385 E.16818
G1 X173.451 Y124.385 E.02143
G1 X171.734 Y123.474 F30000
;TYPE:Support
G1 F3600
G1 X171.734 Y123.035 E.01634
G1 X171.84 Y122.824 E.00879
G1 X172.059 Y122.824 E.00817
G1 X171.765 Y123.412 E.0245
;WIPE_START
G1 X172.059 Y122.824 E-.25435
G1 X171.84 Y122.824 E-.0848
G1 X171.734 Y123.035 E-.09127
G1 X171.734 Y123.474 E-.16957
;WIPE_END
G1 Z.4 F30000
G1 X174.689 Y118.545 Z.4
G1 Z.2
G1 E.6 F2400
;TYPE:Support interface
G1 F3600
G1 X174.904 Y118.116 E.01786
G1 X174.904 Y124.385 E.23352
G1 X175.781 Y124.385 E.03267
G1 X175.781 Y116.362 E.29885
G1 X176.36 Y115.204 E.0482
G1 X176.444 Y115.036 F30000
G1 F3600
G1 X176.658 Y114.608 E.01786
G1 X176.658 Y118.631 E.14987
M73 P1 R92
G1 X177.535 Y118.631 E.03267
G1 X177.535 Y112.853 E.2152
G1 X178.114 Y111.696 E.04819
G1 X178.198 Y111.528 F30000
G1 F3600
G1 X178.412 Y111.099 E.01786
G1 X178.412 Y118.631 E.28054
G1 X179.05 Y118.631 E.02375
G1 X179.05 Y112.877 E.21432
G1 X179.289 Y112.877 E.00891
G1 X179.289 Y109.345 E.13155
G1 X179.868 Y108.188 E.04819
G1 X179.952 Y108.02 F30000
G1 F3600
G1 X180.166 Y107.591 E.01786
G1 X180.166 Y112.877 E.19689
G1 X179.478 Y112.877 E.02565
;WIPE_START
G1 X180.166 Y112.877 E-.20656
G1 X180.166 Y111.566 E-.39344
;WIPE_END
G1 Z.4 F30000
G1 X177.489 Y111.966 Z.4
G1 Z.2
G1 E.6 F2400
;TYPE:Support
G1 F3600
G1 X177.489 Y111.527 E.01634
G1 X177.594 Y111.316 E.00879
G1 X177.814 Y111.316 E.00817
G1 X177.519 Y111.904 E.0245
;WIPE_START
G1 X177.814 Y111.316 E-.25435
G1 X177.594 Y111.316 E-.0848
G1 X177.489 Y111.527 E-.09127
G1 X177.489 Y111.966 E-.16957
;WIPE_END
G1 Z.4 F30000
G1 X180.366 Y106.211 Z.4
G1 Z.2
G1 E.6 F2400
G1 F3600
G1 X180.366 Y105.773 E.01634
G1 X180.471 Y105.562 E.00879
G1 X180.691 Y105.562 E.00817
G1 X180.396 Y106.15 E.0245
G1 X180.829 Y106.266 F30000
;TYPE:Support interface
G1 F3600
G1 X181.043 Y105.837 E.01786
G1 X181.043 Y112.877 E.26223
G1 X181.92 Y112.877 E.03267
G1 X181.92 Y104.083 E.32756
G1 X182.499 Y102.925 E.04819
G1 X182.583 Y102.757 F30000
G1 F3600
G1 X182.798 Y102.328 E.01786
G1 X182.798 Y107.123 E.17858
G1 X182.222 Y107.123 E.02143
;WIPE_START
G1 X182.798 Y107.123 E-.17262
G1 X182.798 Y105.698 E-.42738
;WIPE_END
G1 Z.4 F30000
G1 X183.46 Y101.003 Z.4
G1 Z.2
G1 E.6 F2400
G1 F3600
G1 X183.675 Y100.574 E.01786
G1 X183.675 Y107.123 E.24391
G1 X184.552 Y107.123 E.03267
G1 X184.552 Y98.82 E.30925
G1 X185.13 Y97.663 E.04819
G1 X185.214 Y97.495 F30000
G1 F3600
G1 X185.429 Y97.066 E.01786
G1 X185.429 Y101.369 E.16026
G1 X184.853 Y101.369 E.02143
G1 X183.243 Y100.457 F30000
;TYPE:Support
G1 F3600
G1 X183.243 Y100.019 E.01634
G1 X183.348 Y99.807 E.00879
G1 X183.568 Y99.807 E.00817
G1 X183.273 Y100.396 E.0245
;WIPE_START
G1 X183.568 Y99.807 E-.25435
G1 X183.348 Y99.807 E-.0848
G1 X183.243 Y100.019 E-.09127
G1 X183.243 Y100.457 E-.16957
;WIPE_END
G1 Z.4 F30000
G1 X187.371 Y101.369 Z.4
G1 Z.2
G1 E.6 F2400
;TYPE:Support interface
G1 F3600
G1 X187.681 Y101.369 E.01153
G1 X187.681 Y92.561 E.32805
G1 X187.183 Y93.558 E.04149
G1 X187.183 Y101.369 E.29094
G1 X186.306 Y101.369 E.03267
G1 X186.306 Y95.312 E.2256
G1 X186.091 Y95.741 E.01786
;WIPE_START
G1 X186.306 Y95.312 E-.14384
G1 X186.306 Y96.832 E-.45616
;WIPE_END
G1 Z.4 F30000
G1 X174.612 Y117.72 Z.4
G1 Z.2
G1 E.6 F2400
;TYPE:Support
G1 F3600
G1 X174.612 Y117.281 E.01634
G1 X174.717 Y117.07 E.00879
G1 X174.936 Y117.07 E.00817
G1 X174.642 Y117.658 E.0245
;WIPE_START
G1 X174.936 Y117.07 E-.25435
G1 X174.717 Y117.07 E-.0848
G1 X174.612 Y117.281 E-.09127
G1 X174.612 Y117.72 E-.16957
;WIPE_END
G1 Z.4 F30000
G1 X165.98 Y134.982 Z.4
G1 Z.2
G1 E.6 F2400
G1 F3600
G1 X165.98 Y134.544 E.01634
G1 X166.086 Y134.332 E.00879
G1 X166.305 Y134.332 E.00817
G1 X166.011 Y134.921 E.0245
;WIPE_START
G1 X166.305 Y134.332 E-.25435
G1 X166.086 Y134.332 E-.0848
G1 X165.98 Y134.544 E-.09127
G1 X165.98 Y134.982 E-.16957
;WIPE_END
G1 Z.4 F30000
G1 X154.472 Y157.999 Z.4
G1 Z.2
G1 E.6 F2400
G1 F3600
G1 X154.472 Y157.56 E.01634
G1 X154.578 Y157.349 E.00879
G1 X154.797 Y157.349 E.00817
G1 X154.503 Y157.937 E.0245
;WIPE_START
G1 X154.797 Y157.349 E-.25435
G1 X154.578 Y157.349 E-.0848
G1 X154.472 Y157.56 E-.09127
G1 X154.472 Y157.999 E-.16957
;WIPE_END
G1 Z.4 F30000
G1 X145.841 Y175.261 Z.4
G1 Z.2
G1 E.6 F2400
G1 F3600
G1 X145.841 Y174.823 E.01634
G1 X145.946 Y174.612 E.00879
G1 X146.166 Y174.612 E.00817
G1 X145.871 Y175.2 E.0245
;WIPE_START
G1 X146.166 Y174.612 E-.25435
G1 X145.946 Y174.612 E-.0848
G1 X145.841 Y174.823 E-.09127
G1 X145.841 Y175.261 E-.16957
;WIPE_END
G1 Z.4 F30000
G1 X144.39 Y178.163 Z.4
G1 Z.2
G1 E.6 F2400
G1 F3600
G1 X144.171 Y178.163 E.00817
G1 X144.508 Y177.489 E.02807
G1 X144.727 Y177.489 E.00817
G1 X144.421 Y178.101 E.02551
;WIPE_START
G1 X144.727 Y177.489 E-.21893
G1 X144.508 Y177.489 E-.07011
G1 X144.171 Y178.163 E-.24085
G1 X144.39 Y178.163 E-.07011
;WIPE_END
G1 Z.4 F30000
G1 X189.62 Y183.865 Z.4
G1 Z.2
G1 E.6 F2400
G1 F3600
G1 X186.743 Y183.865 E.10716
G1 X186.743 Y186.743 E.10716
G1 X183.865 Y186.743 E.10716
G1 X183.865 Y189.62 E.10716
G1 X180.988 Y189.62 E.10716
G1 X180.988 Y192.497 E.10716
G1 X168.48 Y192.497 E.46588
G1 X168.48 Y189.62 E.10716
G1 X159.849 Y189.62 E.32148
G1 X159.849 Y186.743 E.10716
G1 X151.218 Y186.743 E.32148
G1 X151.218 Y183.865 E.10716
G1 X142.587 Y183.865 E.32148
G1 X142.587 Y179.489 E.16302
G1 X147.841 Y179.489 E.1957
G1 X147.841 Y176.611 E.10716
G1 X150.718 Y176.611 E.10716
G1 X150.718 Y170.857 E.21432
G1 X153.595 Y170.857 E.10716
G1 X153.595 Y165.103 E.21432
G1 X156.472 Y165.103 E.10716
G1 X156.472 Y159.349 E.21432
G1 X159.349 Y159.349 E.10716
G1 X159.349 Y153.595 E.21432
G1 X162.226 Y153.595 E.10716
G1 X162.226 Y147.841 E.21432
G1 X165.103 Y147.841 E.10716
G1 X165.103 Y142.087 E.21432
G1 X167.98 Y142.087 E.10716
G1 X167.98 Y136.332 E.21432
G1 X170.857 Y136.332 E.10716
G1 X170.857 Y130.578 E.21432
