; HEADER_BLOCK_START
; generated by OrcaSlicer 2.1.1 on 2024-09-08 at 12:48:08
; total layer number: 150
; filament_density: 1.27
; filament_diameter: 1.75
; max_z_height: 30.00
; HEADER_BLOCK_END

; THUMBNAIL_BLOCK_START

;
; THUMBNAIL_BLOCK_END

; THUMBNAIL_BLOCK_START

;
; THUMBNAIL_BLOCK_END

; external perimeters extrusion width = 0.42mm
; perimeters extrusion width = 0.45mm
; infill extrusion width = 0.45mm
; solid infill extrusion width = 0.42mm
; top infill extrusion width = 0.42mm
; first layer extrusion width = 0.50mm

; EXECUTABLE_BLOCK_START
EXCLUDE_OBJECT_DEFINE NAME=dc_motor.stl_id_0_copy_0 CENTER=110,110 POLYGON=[[92.5,93.75],[102.5,76.25],[117.5,76.25],[127.5,93.75],[127.5,143.75],[92.5,143.75],[92.5,93.75]]
M73 P0 R36
M106 S0
M106 P2 S0
;TYPE:Custom
M140 S0
M104 S0 
START_PRINT EXTRUDER_TEMP=250 BED_TEMP=70
G90
G21
M83 ; use relative distances for extrusion
; filament start gcode
M106 S0
M106 P2 S0
;LAYER_CHANGE
;Z:0.2
;HEIGHT:0.2
;BEFORE_LAYER_CHANGE
;0.2
G92 E0

G1 E-.6 F2400
;_SET_FAN_SPEED_CHANGING_LAYER
SET_VELOCITY_LIMIT ACCEL=500 ACCEL_TO_DECEL=250
SET_VELOCITY_LIMIT SQUARE_CORNER_VELOCITY=9
EXCLUDE_OBJECT_START NAME=dc_motor.stl_id_0_copy_0
G1 Z.2 F30000
G1 X98.242 Y73.002
G1 Z.2
G1 E.6 F2400
;TYPE:Brim
;WIDTH:0.5
G1 F3600
G1 X98.711 Y72.47 E.02561
G1 X99.247 Y72.005 E.02561
G1 X99.86 Y71.605 E.02645
G1 X100.498 Y71.29 E.02567
G1 X101.171 Y71.065 E.02561
G1 X101.868 Y70.932 E.02564
G1 X102.507 Y70.894 E.02311
G1 X117.492 Y70.894 E.54106
G1 X118.208 Y70.942 E.02589
G1 X118.902 Y71.085 E.02561
G1 X119.572 Y71.32 E.02561
G1 X120.223 Y71.654 E.02645
G1 X120.813 Y72.051 E.02567
G1 X121.342 Y72.523 E.02561
G1 X121.804 Y73.063 E.02564
G1 X122.154 Y73.598 E.02311
G1 X132.147 Y91.086 E.72721
G1 X132.46 Y91.731 E.02591
G1 X132.667 Y92.351 E.02359
G1 X132.815 Y93.098 E.0275
G1 X132.856 Y93.757 E.02383
G1 X132.856 Y143.742 E1.80476
G1 X132.808 Y144.458 E.02589
G1 X132.665 Y145.152 E.02561
G1 X132.43 Y145.823 E.02565
G1 X132.154 Y146.377 E.02236
G1 X131.768 Y146.975 E.02571
G1 X131.306 Y147.514 E.02561
G1 X130.777 Y147.986 E.02561
G1 X130.189 Y148.382 E.02561
G1 X129.551 Y148.696 E.02564
G1 X128.955 Y148.901 E.02278
G1 X128.26 Y149.051 E.02566
G1 X127.492 Y149.106 E.02781
G1 X92.508 Y149.106 E1.26313
G1 X91.792 Y149.058 E.02589
G1 X91.098 Y148.915 E.02561
G1 X90.427 Y148.68 E.02565
G1 X89.873 Y148.404 E.02236
G1 X89.275 Y148.018 E.02571
G1 X88.736 Y147.556 E.02561
G1 X88.264 Y147.027 E.02561
G1 X87.868 Y146.439 E.02561
G1 X87.554 Y145.801 E.02564
G1 X87.349 Y145.205 E.02278
G1 X87.199 Y144.51 E.02566
G1 X87.144 Y143.742 E.02781
G1 X87.144 Y93.758 E1.80472
G1 X87.192 Y93.042 E.02591
G1 X87.32 Y92.401 E.02359
G1 X87.562 Y91.679 E.0275
G1 X87.853 Y91.086 E.02383
G1 X97.846 Y73.599 E.7272
G1 X98.22 Y73.035 E.02444
G1 X98.602 Y73.29 F30000
G1 F3600
G1 X98.612 Y73.274 E.00068
G1 X99.041 Y72.789 E.02337
G1 X99.531 Y72.366 E.02337
G1 X100.095 Y71.999 E.02429
G1 X100.681 Y71.711 E.0236
G1 X101.296 Y71.507 E.02337
G1 X101.916 Y71.388 E.02281
G1 X102.517 Y71.351 E.02172
G1 X117.481 Y71.351 E.54032
G1 X118.155 Y71.398 E.02438
G1 X118.789 Y71.529 E.02337
G1 X119.399 Y71.745 E.02337
G1 X119.997 Y72.052 E.02429
G1 X120.539 Y72.419 E.0236
G1 X121.021 Y72.851 E.02337
G1 X121.442 Y73.345 E.02345
G1 X121.766 Y73.841 E.02138
G1 X131.74 Y91.295 E.72584
G1 X132.032 Y91.896 E.02413
G1 X132.226 Y92.477 E.02211
G1 X132.359 Y93.148 E.02471
G1 X132.399 Y93.776 E.0227
G1 X132.399 Y143.722 E1.80337
G1 X132.355 Y144.387 E.02405
G1 X132.221 Y145.039 E.02404
G1 X132.004 Y145.652 E.02347
G1 X131.752 Y146.157 E.02038
G1 X131.405 Y146.694 E.02308
G1 X130.985 Y147.186 E.02337
G1 X130.503 Y147.618 E.02337
G1 X129.966 Y147.981 E.02337
G1 X129.383 Y148.269 E.02349
G1 X128.824 Y148.461 E.02136
G1 X128.185 Y148.598 E.02358
G1 X127.47 Y148.649 E.02588
G1 X92.528 Y148.649 E1.26163
G1 X91.863 Y148.605 E.02405
G1 X91.211 Y148.471 E.02404
G1 X90.598 Y148.254 E.02347
G1 X90.093 Y148.002 E.02038
G1 X89.556 Y147.655 E.02308
G1 X89.064 Y147.235 E.02337
G1 X88.621 Y146.738 E.02404
G1 X88.26 Y146.2 E.02337
G1 X87.981 Y145.633 E.02282
G1 X87.793 Y145.089 E.02078
G1 X87.652 Y144.435 E.02416
G1 X87.601 Y143.73 E.02553
G1 X87.601 Y93.778 E1.80358
G1 X87.648 Y93.093 E.02477
G1 X87.765 Y92.511 E.02147
G1 X87.982 Y91.861 E.02471
G1 X88.259 Y91.297 E.02269
G1 X98.232 Y73.843 E.72581
G1 X98.579 Y73.323 E.02259
G1 X98.96 Y73.578 F30000
G1 F3600
G1 X98.981 Y73.546 E.00136
G1 X99.37 Y73.108 E.02113
G1 X99.814 Y72.727 E.02113
G1 X100.328 Y72.394 E.02214
G1 X100.864 Y72.132 E.02152
G1 X101.42 Y71.948 E.02115
G1 X101.965 Y71.844 E.02003
G1 X102.527 Y71.808 E.02032
G1 X117.461 Y71.808 E.53922
G1 X118.102 Y71.854 E.02319
G1 X118.675 Y71.974 E.02114
G1 X119.226 Y72.17 E.02113
G1 X119.771 Y72.451 E.02214
G1 X120.264 Y72.786 E.02152
G1 X120.699 Y73.178 E.02114
G1 X121.08 Y73.627 E.02126
G1 X121.378 Y74.083 E.01968
G1 X131.333 Y91.505 E.72448
G1 X131.611 Y92.078 E.02298
G1 X131.785 Y92.603 E.01998
G1 X131.903 Y93.199 E.02194
G1 X131.942 Y93.795 E.02156
G1 X131.942 Y143.702 E1.80197
G1 X131.899 Y144.334 E.02287
G1 X131.776 Y144.925 E.02179
G1 X131.579 Y145.481 E.02128
G1 X131.35 Y145.936 E.0184
G1 X131.043 Y146.413 E.02048
G1 X130.663 Y146.859 E.02115
G1 X130.228 Y147.25 E.02114
G1 X129.744 Y147.579 E.02114
G1 X129.215 Y147.843 E.02132
G1 X128.693 Y148.022 E.01992
G1 X128.111 Y148.145 E.02148
G1 X127.449 Y148.192 E.02398
G1 X92.548 Y148.192 E1.26014
G1 X91.916 Y148.149 E.02287
G1 X91.325 Y148.026 E.02179
G1 X90.769 Y147.829 E.02128
G1 X90.314 Y147.6 E.0184
G1 X89.837 Y147.293 E.02048
G1 X89.378 Y146.901 E.02181
G1 X88.978 Y146.45 E.02177
G1 X88.653 Y145.963 E.02113
G1 X88.407 Y145.465 E.02005
G1 X88.237 Y144.974 E.01876
G1 X88.105 Y144.361 E.02265
G1 X88.058 Y143.719 E.02325
G1 X88.058 Y93.798 E1.80242
G1 X88.104 Y93.146 E.02361
G1 X88.211 Y92.621 E.01935
G1 X88.403 Y92.044 E.02196
G1 X88.665 Y91.507 E.02155
G1 X98.619 Y74.088 E.72439
G1 X98.938 Y73.611 E.02072
G1 X99.319 Y73.866 F30000
G1 F3600
G1 X99.35 Y73.819 E.00204
G1 X99.698 Y73.429 E.01888
G1 X100.096 Y73.089 E.01889
G1 X100.561 Y72.788 E.01999
G1 X101.045 Y72.553 E.01944
G1 X101.544 Y72.39 E.01894
G1 X102.031 Y72.298 E.0179
G1 X102.537 Y72.266 E.0183
G1 X117.45 Y72.265 E.53844
G1 X118.047 Y72.309 E.02164
G1 X118.559 Y72.418 E.01889
G1 X119.052 Y72.594 E.01889
G1 X119.543 Y72.849 E.01999
G1 X119.988 Y73.153 E.01944
G1 X120.376 Y73.504 E.01891
G1 X120.718 Y73.908 E.01909
G1 X120.99 Y74.325 E.01799
G1 X130.926 Y91.714 E.7231
G1 X131.189 Y92.258 E.02183
G1 X131.344 Y92.728 E.01786
G1 X131.447 Y93.25 E.01921
G1 X131.485 Y93.814 E.02042
G1 X131.485 Y143.682 E1.80053
G1 X131.446 Y144.263 E.02101
G1 X131.332 Y144.811 E.02021
G1 X131.154 Y145.308 E.01909
G1 X130.949 Y145.715 E.01644
G1 X130.68 Y146.132 E.01792
G1 X130.328 Y146.546 E.01961
G1 X129.938 Y146.895 E.0189
G1 X129.504 Y147.188 E.0189
G1 X129.046 Y147.416 E.01847
G1 X128.579 Y147.578 E.01784
G1 X128.038 Y147.692 E.01998
G1 X127.437 Y147.735 E.02174
G1 X92.568 Y147.735 E1.25899
G1 X91.987 Y147.696 E.02101
G1 X91.439 Y147.582 E.02021
G1 X90.942 Y147.404 E.01909
G1 X90.535 Y147.199 E.01644
G1 X90.118 Y146.93 E.0179
G1 X89.706 Y146.58 E.01954
G1 X89.335 Y146.162 E.02017
G1 X89.045 Y145.726 E.0189
G1 X88.834 Y145.296 E.01732
G1 X88.681 Y144.859 E.01672
G1 X88.558 Y144.286 E.02113
G1 X88.516 Y143.707 E.02098
G1 X88.515 Y93.819 E1.80125
G1 X88.559 Y93.199 E.02245
G1 X88.656 Y92.731 E.01724
G1 X88.825 Y92.226 E.01925
G1 X89.072 Y91.717 E.02042
G1 X99.006 Y74.333 E.72293
G1 X99.296 Y73.899 E.01885
G1 X99.677 Y74.155 F30000
G1 F3600
G1 X99.718 Y74.093 E.00271
G1 X100.026 Y73.75 E.01663
G1 X100.377 Y73.451 E.01666
G1 X100.793 Y73.184 E.01784
G1 X101.226 Y72.975 E.01735
G1 X101.667 Y72.832 E.01673
G1 X102.097 Y72.752 E.01579
G1 X102.547 Y72.723 E.0163
G1 X117.438 Y72.723 E.53765
G1 X117.992 Y72.765 E.02007
G1 X118.443 Y72.862 E.01665
G1 X118.877 Y73.018 E.01666
G1 X119.315 Y73.247 E.01784
G1 X119.711 Y73.519 E.01735
G1 X120.053 Y73.83 E.01667
G1 X120.355 Y74.188 E.01693
G1 X120.602 Y74.567 E.01632
G1 X130.519 Y91.922 E.72172
G1 X130.767 Y92.438 E.02066
G1 X130.902 Y92.853 E.01574
G1 X130.992 Y93.301 E.01651
G1 X131.028 Y93.834 E.01928
G1 X131.028 Y143.662 E1.79908
G1 X130.992 Y144.191 E.01915
G1 X130.888 Y144.696 E.01861
G1 X130.729 Y145.135 E.01688
G1 X130.548 Y145.494 E.0145
G1 X130.317 Y145.852 E.01538
G1 X130.006 Y146.219 E.01737
G1 X129.649 Y146.539 E.01732
G1 X129.265 Y146.797 E.01668
G1 X128.877 Y146.99 E.01566
G1 X128.465 Y147.134 E.01574
G1 X127.965 Y147.239 E.01845
G1 X127.426 Y147.277 E.01951
G1 X92.588 Y147.278 E1.25785
G1 X92.059 Y147.242 E.01915
G1 X91.554 Y147.138 E.01861
G1 X91.115 Y146.979 E.01688
G1 X90.756 Y146.798 E.0145
G1 X90.399 Y146.567 E.01536
G1 X90.02 Y146.245 E.01796
G1 X89.693 Y145.874 E.01784
G1 X89.439 Y145.49 E.01665
G1 X89.259 Y145.126 E.01463
G1 X89.124 Y144.743 E.01467
G1 X89.014 Y144.231 E.01891
G1 X88.973 Y143.695 E.0194
G1 X88.972 Y93.84 E1.80007
G1 X89.015 Y93.253 E.02127
G1 X89.1 Y92.843 E.01513
G1 X89.246 Y92.407 E.01657
G1 X89.478 Y91.927 E.01928
G1 X99.392 Y74.578 E.72144
G1 X99.654 Y74.189 E.01696
G1 X100.034 Y74.445 F30000
G1 F3600
G1 X100.086 Y74.368 E.00338
G1 X100.353 Y74.072 E.01436
G1 X100.658 Y73.814 E.01444
G1 X101.024 Y73.58 E.0157
G1 X101.406 Y73.397 E.01526
G1 X101.788 Y73.274 E.01452
G1 X102.161 Y73.206 E.01369
G1 X102.557 Y73.18 E.01433
G1 X117.426 Y73.18 E.53684
G1 X117.917 Y73.217 E.0178
G1 X118.308 Y73.3 E.0144
G1 X118.684 Y73.435 E.01444
G1 X119.072 Y73.635 E.01576
G1 X119.419 Y73.873 E.01519
G1 X119.716 Y74.141 E.01445
G1 X119.982 Y74.455 E.01485
G1 X120.209 Y74.802 E.01499
G1 X130.112 Y92.131 E.72062
G1 X130.345 Y92.618 E.01948
G1 X130.461 Y92.977 E.01363
G1 X130.536 Y93.353 E.01386
G1 X130.571 Y93.854 E.01814
G1 X130.571 Y143.642 E1.79763
M73 P1 R36
G1 X130.539 Y144.119 E.01728
G1 X130.443 Y144.58 E.01699
G1 X130.305 Y144.962 E.01465
G1 X130.147 Y145.272 E.01256
G1 X129.953 Y145.572 E.01289
G1 X129.684 Y145.892 E.01512
G1 X129.36 Y146.182 E.01571
G1 X129.027 Y146.405 E.01445
G1 X128.691 Y146.571 E.01353
G1 X128.351 Y146.689 E.01301
G1 X127.892 Y146.786 E.01692
G1 X127.414 Y146.82 E.01729
G1 X92.608 Y146.821 E1.25671
G1 X92.131 Y146.789 E.01728
G1 X91.67 Y146.693 E.01699
G1 X91.288 Y146.555 E.01465
G1 X90.978 Y146.397 E.01256
G1 X90.68 Y146.204 E.01284
G1 X90.348 Y145.924 E.01565
G1 X90.051 Y145.588 E.0162
G1 X89.832 Y145.254 E.01443
G1 X89.679 Y144.941 E.01259
G1 X89.568 Y144.626 E.01204
G1 X89.466 Y144.156 E.01738
G1 X89.43 Y143.673 E.01748
G1 X89.429 Y93.862 E1.79848
G1 X89.47 Y93.307 E.02007
G1 X89.545 Y92.955 E.01302
G1 X89.667 Y92.588 E.01394
G1 X89.885 Y92.136 E.01814
G1 X99.778 Y74.824 E.71992
G1 X100.011 Y74.478 E.01506
G1 X100.384 Y74.769 F30000
G1 F3600
G1 X100.608 Y74.482 E.01315
G1 X101.173 Y74.024 E.02626
G1 X101.39 Y73.909 E.00886
G1 X101.786 Y73.755 E.01534
G1 X102.017 Y73.701 E.00859
G1 X102.551 Y73.636 E.0194
G1 X117.443 Y73.636 E.53771
G1 X118.302 Y73.783 E.03145
G1 X118.621 Y73.917 E.0125
G1 X118.972 Y74.124 E.01471
G1 X119.448 Y74.539 E.0228
G1 X119.791 Y74.991 E.02048
G1 X129.771 Y92.471 E.72676
G1 X129.961 Y92.909 E.01726
G1 X130.007 Y93.081 E.00642
G1 X130.114 Y93.802 E.0263
G1 X130.114 Y143.701 E1.80168
G1 X130.055 Y144.21 E.01849
G1 X129.984 Y144.503 E.01088
G1 X129.657 Y145.176 E.02701
G1 X129.556 Y145.33 E.00667
G1 X129.314 Y145.601 E.01311
G1 X129.006 Y145.861 E.01454
G1 X128.796 Y145.99 E.0089
G1 X128.335 Y146.206 E.01841
G1 X127.971 Y146.307 E.01363
G1 X127.458 Y146.364 E.01864
G1 X92.549 Y146.364 E1.26043
G1 X92.04 Y146.305 E.01849
G1 X91.747 Y146.234 E.01088
G1 X91.074 Y145.907 E.02701
G1 X90.92 Y145.806 E.00667
G1 X90.649 Y145.564 E.01311
G1 X90.389 Y145.256 E.01454
G1 X90.26 Y145.046 E.0089
G1 X90.044 Y144.585 E.01841
G1 X89.943 Y144.221 E.01363
G1 X89.886 Y143.707 E.01866
G1 X89.913 Y93.534 E1.81156
G1 X89.93 Y93.358 E.00637
G1 X90.052 Y92.873 E.01803
G1 X90.25 Y92.419 E.01791
G1 X100.204 Y75 E.72436
G1 X100.359 Y74.801 E.00913
G1 X100.713 Y75.083 F30000
G1 F3600
G1 X100.97 Y74.762 E.01484
G1 X101.384 Y74.429 E.01918
G1 X101.555 Y74.336 E.00703
G1 X101.892 Y74.2 E.01312
G1 X102.07 Y74.155 E.00664
G1 X102.542 Y74.093 E.01721
G1 X117.454 Y74.093 E.53839
G1 X118.127 Y74.205 E.02463
G1 X118.382 Y74.307 E.0099
G1 X118.752 Y74.524 E.0155
G1 X119.15 Y74.885 E.0194
G1 X119.39 Y75.209 E.01456
G1 X129.378 Y92.704 E.72736
G1 X129.521 Y93.032 E.01291
G1 X129.555 Y93.146 E.00432
G1 X129.657 Y93.791 E.02358
G1 X129.657 Y143.709 E1.80233
G1 X129.601 Y144.161 E.01642
G1 X129.538 Y144.401 E.00898
G1 X129.247 Y144.974 E.02321
G1 X129.178 Y145.074 E.00437
G1 X128.972 Y145.298 E.01098
G1 X128.766 Y145.472 E.00975
G1 X128.609 Y145.573 E.00672
G1 X128.13 Y145.797 E.01911
G1 X127.855 Y145.865 E.01024
G1 X127.465 Y145.907 E.01413
G1 X92.541 Y145.907 E1.26099
G1 X92.089 Y145.851 E.01642
G1 X91.849 Y145.788 E.00898
G1 X91.276 Y145.497 E.02321
G1 X91.176 Y145.428 E.00437
G1 X90.952 Y145.222 E.01099
G1 X90.778 Y145.016 E.00975
G1 X90.677 Y144.859 E.00672
G1 X90.453 Y144.38 E.01911
G1 X90.385 Y144.104 E.01025
G1 X90.343 Y143.715 E.01415
G1 X90.37 Y93.527 E1.81208
G1 X90.385 Y93.405 E.00444
G1 X90.497 Y92.98 E.01586
G1 X90.643 Y92.652 E.01299
G1 X100.605 Y75.218 E.72498
G1 X100.688 Y75.115 E.00479
G1 X101.043 Y75.39 F30000
G1 F3600
G1 X101.251 Y75.122 E.01224
G1 X101.605 Y74.829 E.01662
G1 X101.723 Y74.76 E.00493
G1 X102.011 Y74.641 E.01124
G1 X102.128 Y74.608 E.00439
G1 X102.534 Y74.55 E.0148
G1 X117.465 Y74.55 E.53912
G1 X117.955 Y74.629 E.0179
G1 X118.156 Y74.704 E.00776
G1 X118.445 Y74.863 E.0119
G1 X118.778 Y75.151 E.01592
G1 X118.989 Y75.429 E.01258
G1 X128.984 Y92.937 E.72791
G1 X129.103 Y93.217 E.01097
G1 X129.2 Y93.781 E.02066
G1 X129.2 Y143.718 E1.80303
G1 X129.147 Y144.106 E.01415
G1 X129.095 Y144.29 E.0069
G1 X128.841 Y144.764 E.01943
G1 X128.677 Y144.949 E.00892
G1 X128.512 Y145.092 E.00787
G1 X128.412 Y145.16 E.00439
G1 X128.022 Y145.354 E.01572
G1 X127.81 Y145.411 E.00793
G1 X127.473 Y145.45 E.01225
G1 X92.532 Y145.45 E1.26156
G1 X92.144 Y145.397 E.01415
G1 X91.96 Y145.345 E.0069
G1 X91.486 Y145.091 E.01943
G1 X91.301 Y144.927 E.00892
G1 X91.158 Y144.762 E.00787
G1 X91.09 Y144.662 E.00439
G1 X90.896 Y144.272 E.01572
G1 X90.839 Y144.06 E.00794
G1 X90.8 Y143.722 E.01226
G1 X90.827 Y93.519 E1.81263
G1 X90.911 Y93.172 E.0129
G1 X91.037 Y92.885 E.01132
G1 X101.008 Y75.436 E.72561
G1 X101.019 Y75.422 E.00065
G1 X101.409 Y75.654 F30000
G1 F3600
G1 X101.615 Y75.399 E.01183
G1 X101.89 Y75.186 E.01257
G1 X102.193 Y75.06 E.01186
G1 X102.524 Y75.007 E.01208
G1 X117.476 Y75.007 E.53987
G1 X117.805 Y75.06 E.01202
G1 X117.927 Y75.1 E.00466
G1 X118.232 Y75.268 E.01256
G1 X118.476 Y75.494 E.01201
G1 X118.587 Y75.648 E.00686
G1 X128.591 Y93.171 E.72852
G1 X128.682 Y93.394 E.00871
G1 X128.743 Y93.771 E.01377
G1 X128.743 Y143.727 E1.80372
G1 X128.694 Y144.044 E.01156
G1 X128.657 Y144.162 E.00447
G1 X128.496 Y144.465 E.01241
G1 X128.383 Y144.598 E.00629
G1 X128.206 Y144.753 E.00848
G1 X127.897 Y144.914 E.01259
G1 X127.758 Y144.956 E.00524
G1 X127.481 Y144.993 E.01012
G1 X92.523 Y144.993 E1.26218
G1 X92.206 Y144.944 E.01156
G1 X92.088 Y144.907 E.00447
G1 X91.785 Y144.746 E.01241
G1 X91.652 Y144.633 E.00629
G1 X91.497 Y144.456 E.00848
G1 X91.336 Y144.147 E.01259
G1 X91.294 Y144.008 E.00524
G1 X91.257 Y143.73 E.01012
G1 X91.273 Y93.62 E1.8093
G1 X91.329 Y93.359 E.00964
G1 X91.43 Y93.118 E.00944
G1 X101.389 Y75.689 E.72478
G1 X101.786 Y75.916 F30000
G1 F3600
G1 X101.811 Y75.871 E.00184
G1 X101.97 Y75.687 E.00878
G1 X102.153 Y75.559 E.00806
G1 X102.27 Y75.511 E.00459
G1 X102.513 Y75.464 E.00891
G1 X117.487 Y75.464 E.54066
G1 X117.726 Y75.51 E.00878
G1 X117.924 Y75.605 E.00792
G1 X118.106 Y75.763 E.00871
G1 X118.187 Y75.868 E.00479
G1 X128.199 Y93.405 E.72912
G1 X128.258 Y93.563 E.00608
G1 X128.286 Y93.76 E.00716
G1 X128.286 Y143.738 E1.8045
G1 X128.243 Y143.968 E.00845
G1 X128.156 Y144.159 E.00759
G1 X128.027 Y144.311 E.0072
G1 X127.914 Y144.402 E.00525
G1 X127.697 Y144.504 E.00865
G1 X127.489 Y144.536 E.00758
G1 X92.512 Y144.536 E1.26288
G1 X92.282 Y144.493 E.00845
G1 X92.091 Y144.406 E.00759
