; HEADER_BLOCK_START
; generated by OrcaSlicer 2.1.1 on 2024-09-06 at 19:49:16
; total layer number: 99
; filament_density: 1.27
; filament_diameter: 1.75
; max_z_height: 19.80
; HEADER_BLOCK_END

; THUMBNAIL_BLOCK_START

;
; THUMBNAIL_BLOCK_END

; THUMBNAIL_BLOCK_START

;
; THUMBNAIL_BLOCK_END

; external perimeters extrusion width = 0.42mm
; perimeters extrusion width = 0.45mm
; infill extrusion width = 0.45mm
; solid infill extrusion width = 0.42mm
; top infill extrusion width = 0.42mm
; first layer extrusion width = 0.50mm

; EXECUTABLE_BLOCK_START
EXCLUDE_OBJECT_DEFINE NAME=gears_helical.stl_id_0_copy_0 CENTER=110,110 POLYGON=[[97.3384,109.865],[99.677,102.667],[99.8362,102.448],[105.959,98],[106.216,97.9163],[113.784,97.9163],[114.041,98],[120.164,102.448],[120.323,102.667],[122.662,109.865],[122.662,110.135],[120.323,117.333],[120.164,117.552],[114.041,122],[113.784,122.084],[106.216,122.084],[105.959,122],[99.8362,117.552],[99.677,117.333],[97.3384,110.135],[97.3384,109.865]]
M73 P0 R22
M106 S0
M106 P2 S0
;TYPE:Custom
M140 S0
M104 S0 
START_PRINT EXTRUDER_TEMP=250 BED_TEMP=70
G90
G21
M83 ; use relative distances for extrusion
; filament start gcode
M106 S0
M106 P2 S0
;LAYER_CHANGE
;Z:0.2
;HEIGHT:0.2
;BEFORE_LAYER_CHANGE
;0.2
G92 E0

G1 E-.6 F2400
;_SET_FAN_SPEED_CHANGING_LAYER
SET_VELOCITY_LIMIT ACCEL=500 ACCEL_TO_DECEL=250
SET_VELOCITY_LIMIT SQUARE_CORNER_VELOCITY=9
EXCLUDE_OBJECT_START NAME=gears_helical.stl_id_0_copy_0
G1 Z.2 F30000
G1 X103.975 Y113.667
G1 Z.2
G1 E.6 F2400
;TYPE:Inner wall
;WIDTH:0.499999
G1 F3022
G1 X104.016 Y113.59 E.00315
G1 X104.065 Y113.204 E.01405
G1 X103.992 Y112.849 E.0131
G1 X103.518 Y111.598 E.0483
G1 X103.382 Y110.478 E.04074
G1 X103.272 Y110.083 E.0148
G1 X103.035 Y109.756 E.01458
G1 X102.731 Y109.551 E.01322
G1 X103.055 Y109.38 E.01322
G1 X103.234 Y109.208 E.00895
G1 X103.417 Y108.905 E.01279
G1 X103.518 Y108.402 E.0185
G1 X104.089 Y106.897 E.05811
G1 X104.444 Y106.331 E.02415
G1 X104.523 Y105.969 E.01338
G1 X104.388 Y105.368 E.02223
G1 X105.003 Y105.393 E.02223
G1 X105.247 Y105.304 E.00938
G1 X105.495 Y105.137 E.01079
G1 X106.207 Y104.506 E.03437
G1 X107.567 Y103.792 E.05544
G1 X107.819 Y103.613 E.01115
G1 X108.062 Y103.284 E.01477
G1 X108.165 Y102.923 E.01356
G1 X108.436 Y103.183 E.01356
G1 X108.661 Y103.298 E.00913
G1 X109.067 Y103.372 E.0149
G1 X110.805 Y103.372 E.06275
G1 X111.572 Y103.562 E.02854
G1 X111.977 Y103.587 E.01466
G1 X112.364 Y103.471 E.01458
G1 X112.672 Y103.238 E.01393
G1 X112.739 Y103.618 E.01393
G1 X112.943 Y103.967 E.01458
G1 X113.281 Y104.237 E.01564
G1 X113.793 Y104.506 E.02085
G1 X114.848 Y105.441 E.05091
G1 X115.396 Y105.898 E.02577
G1 X115.76 Y106.036 E.01405
G1 X116.135 Y106.046 E.01354
G1 X116.194 Y106.017 E.00238
G1 X115.984 Y106.41 E.01609
G1 X115.935 Y106.796 E.01405
G1 X116.008 Y107.151 E.0131
G1 X116.482 Y108.402 E.0483
G1 X116.618 Y109.522 E.04074
G1 X116.728 Y109.917 E.0148
G1 X116.965 Y110.244 E.01458
G1 X117.269 Y110.449 E.01322
G1 X116.945 Y110.62 E.01322
G1 X116.766 Y110.792 E.00895
G1 X116.583 Y111.095 E.01279
G1 X116.482 Y111.598 E.0185
G1 X115.911 Y113.103 E.05811
G1 X115.556 Y113.669 E.02415
G1 X115.477 Y114.031 E.01338
G1 X115.612 Y114.632 E.02223
G1 X114.997 Y114.607 E.02223
G1 X114.753 Y114.696 E.00938
G1 X114.505 Y114.863 E.01079
G1 X113.793 Y115.494 E.03437
G1 X112.433 Y116.208 E.05544
G1 X112.181 Y116.387 E.01115
G1 X111.938 Y116.716 E.01477
G1 X111.835 Y117.077 E.01356
G1 X111.564 Y116.817 E.01356
G1 X111.339 Y116.702 E.00913
G1 X110.933 Y116.628 E.0149
G1 X109.195 Y116.628 E.06275
G1 X108.428 Y116.438 E.02854
G1 X108.023 Y116.413 E.01466
G1 X107.636 Y116.529 E.01458
G1 X107.328 Y116.762 E.01393
G1 X107.261 Y116.382 E.01393
G1 X107.057 Y116.033 E.01458
G1 X106.719 Y115.763 E.01564
G1 X106.207 Y115.494 E.02085
G1 X105.152 Y114.559 E.05091
G1 X104.604 Y114.102 E.02577
G1 X104.24 Y113.964 E.01405
G1 X103.865 Y113.954 E.01354
G1 X103.798 Y113.995 E.00285
G1 X103.956 Y113.702 E.01201
G1 X103.552 Y113.46 F30000
G1 F3022
G1 X103.607 Y113.315 E.00559
G1 X103.565 Y113.011 E.0111
G1 X103.071 Y111.708 E.05031
G1 X102.885 Y110.339 E.04986
G1 X102.718 Y110.085 E.01098
G1 X102.525 Y109.954 E.00843
;WIDTH:0.534541
G1 X102.273 Y109.925 E.00986
;WIDTH:0.569082
G1 X102.021 Y109.895 E.01055
G1 X98.642 Y110.992 E.14763
G1 X98.48 Y110.492 E.02187
G1 X101.858 Y109.394 E.14763
G1 X102.317 Y109.206 E.02063
;WIDTH:0.534541
G1 X102.776 Y109.018 E.01927
;WIDTH:0.499999
G1 X102.884 Y108.915 E.00537
G1 X102.993 Y108.733 E.00767
G1 X103.071 Y108.292 E.01615
G1 X103.681 Y106.683 E.06212
G1 X103.991 Y106.224 E.02003
G1 X104.067 Y105.945 E.01043
G1 X103.985 Y105.582 E.01342
;WIDTH:0.53454
G1 X103.795 Y105.403 E.01015
;WIDTH:0.56908
G1 X103.605 Y105.224 E.01086
G1 X100.228 Y104.127 E.14756
G1 X100.391 Y103.627 E.02187
G1 X103.767 Y104.724 E.14756
G1 X104.146 Y104.829 E.01634
;WIDTH:0.53454
G1 X104.525 Y104.934 E.01527
;WIDTH:0.499999
G1 X104.897 Y104.948 E.01342
G1 X105.192 Y104.795 E.01201
G1 X105.946 Y104.127 E.03638
G1 X107.44 Y103.342 E.06094
G1 X107.651 Y103.082 E.01209
G1 X107.718 Y102.848 E.0088
;WIDTH:0.53454
G1 X107.668 Y102.602 E.00973
;WIDTH:0.569081
G1 X107.619 Y102.357 E.01041
G1 X105.547 Y99.505 E.14652
G1 X105.972 Y99.196 E.02187
G1 X108.044 Y102.048 E.14652
G1 X108.366 Y102.425 E.0206
;WIDTH:0.53454
G1 X108.688 Y102.801 E.01925
;WIDTH:0.499999
G1 X108.823 Y102.871 E.00548
G1 X109.067 Y102.915 E.00894
G1 X110.86 Y102.915 E.06475
G1 X111.863 Y103.138 E.03708
G1 X112.157 Y103.063 E.01094
G1 X112.348 Y102.919 E.00864
;WIDTH:0.538265
G1 X112.453 Y102.748 E.00786
;WIDTH:0.576531
G1 X112.559 Y102.577 E.00847
G1 X112.566 Y102.452 E.00528
;WIDTH:0.569082
G1 X112.566 Y98.892 E.14799
G1 X113.092 Y98.892 E.02187
G1 X113.092 Y102.662 E.15672
G1 X113.13 Y103.062 E.01668
;WIDTH:0.534541
G1 X113.168 Y103.461 E.01558
;WIDTH:0.499999
G1 X113.235 Y103.595 E.0054
G1 X113.494 Y103.833 E.01268
G1 X114.054 Y104.127 E.02285
G1 X115.522 Y105.427 E.07081
G1 X115.71 Y105.545 E.00801
G1 X116.071 Y105.593 E.01317
;WIDTH:0.538264
G1 X116.276 Y105.514 E.00858
;WIDTH:0.576529
G1 X116.48 Y105.434 E.00924
G1 X116.559 Y105.337 E.00528
;WIDTH:0.56908
G1 X118.605 Y102.521 E.14467
G1 X119.031 Y102.831 E.02187
G1 X116.846 Y105.837 E.15447
G1 X116.684 Y106.09 E.01249
;WIDTH:0.53454
G1 X116.522 Y106.343 E.01167
;WIDTH:0.499999
G1 X116.393 Y106.685 E.01317
G1 X116.435 Y106.989 E.0111
G1 X116.929 Y108.292 E.05031
G1 X117.115 Y109.661 E.04986
G1 X117.282 Y109.915 E.01098
G1 X117.475 Y110.046 E.00843
;WIDTH:0.534541
G1 X117.727 Y110.075 E.00986
;WIDTH:0.569081
G1 X117.979 Y110.105 E.01055
G1 X121.358 Y109.008 E.14763
G1 X121.52 Y109.508 E.02187
;WIDTH:0.569082
G1 X118.142 Y110.606 E.14763
G1 X117.683 Y110.794 E.02063
;WIDTH:0.534541
G1 X117.224 Y110.982 E.01927
;WIDTH:0.499999
G1 X117.116 Y111.085 E.00537
G1 X117.007 Y111.267 E.00767
G1 X116.929 Y111.708 E.01615
G1 X116.319 Y113.317 E.06212
G1 X116.009 Y113.776 E.02003
G1 X115.933 Y114.055 E.01043
G1 X116.015 Y114.418 E.01342
;WIDTH:0.53454
G1 X116.205 Y114.597 E.01015
;WIDTH:0.569081
G1 X116.395 Y114.776 E.01086
G1 X119.772 Y115.873 E.14756
G1 X119.609 Y116.373 E.02187
G1 X116.233 Y115.276 E.14756
G1 X115.854 Y115.171 E.01634
;WIDTH:0.53454
G1 X115.475 Y115.066 E.01527
;WIDTH:0.499999
G1 X115.103 Y115.052 E.01342
G1 X114.808 Y115.205 E.01201
G1 X114.054 Y115.873 E.03638
G1 X112.56 Y116.658 E.06094
G1 X112.349 Y116.918 E.01209
G1 X112.282 Y117.152 E.0088
;WIDTH:0.53454
G1 X112.332 Y117.398 E.00973
;WIDTH:0.569081
G1 X112.381 Y117.643 E.01041
G1 X114.453 Y120.495 E.14652
G1 X114.028 Y120.804 E.02187
G1 X111.956 Y117.952 E.14652
G1 X111.634 Y117.575 E.0206
;WIDTH:0.53454
G1 X111.312 Y117.199 E.01925
;WIDTH:0.499999
G1 X111.177 Y117.129 E.00548
G1 X110.933 Y117.085 E.00894
G1 X109.14 Y117.085 E.06475
G1 X108.137 Y116.862 E.03708
G1 X107.843 Y116.937 E.01094
G1 X107.652 Y117.081 E.00864
;WIDTH:0.534541
G1 X107.543 Y117.314 E.01001
;WIDTH:0.569082
G1 X107.434 Y117.548 E.01071
G1 X107.434 Y121.108 E.14799
G1 X106.908 Y121.108 E.02187
G1 X106.908 Y117.548 E.14799
G1 X106.87 Y117.043 E.02103
;WIDTH:0.534541
G1 X106.832 Y116.539 E.01965
;WIDTH:0.499999
G1 X106.709 Y116.33 E.00875
G1 X106.506 Y116.167 E.00938
G1 X105.946 Y115.873 E.02285
G1 X104.478 Y114.573 E.07081
G1 X104.29 Y114.455 E.00801
G1 X103.929 Y114.407 E.01317
;WIDTH:0.53454
G1 X103.685 Y114.535 E.0107
;WIDTH:0.56908
G1 X103.441 Y114.663 E.01145
G1 X101.395 Y117.479 E.14467
G1 X100.969 Y117.169 E.02187
G1 X103.015 Y114.353 E.14467
G1 X103.247 Y114.005 E.01739
;WIDTH:0.53454
G1 X103.478 Y113.657 E.01625
;WIDTH:0.499999
G1 X103.538 Y113.498 E.00614
G1 X103.142 Y113.321 F30000
;TYPE:Outer wall
G1 F3022
G1 X103.137 Y113.173 E.00536
G1 X102.624 Y111.818 E.05231
G1 X102.457 Y110.5 E.04799
G1 X102.337 Y110.371 E.00635
G1 X102.172 Y110.362 E.00595
G1 X98.327 Y111.612 E.146
G1 X97.86 Y110.176 E.0545
G1 X102.429 Y108.692 E.17343
G1 X102.552 Y108.596 E.00564
G1 X102.624 Y108.182 E.01517
G1 X103.273 Y106.469 E.06613
G1 X103.595 Y105.993 E.02074
G1 X103.583 Y105.8 E.00699
G1 X103.453 Y105.692 E.00612
G1 X99.609 Y104.443 E.14594
G1 X100.075 Y103.007 E.0545
G1 X104.667 Y104.499 E.17431
G1 X104.79 Y104.504 E.00447
G1 X104.889 Y104.453 E.004
G1 X105.684 Y103.748 E.03838
G1 X107.174 Y102.966 E.06072
G1 X107.263 Y102.803 E.00673
G1 X107.221 Y102.646 E.00587
G1 X104.86 Y99.396 E.14503
G1 X106.081 Y98.509 E.0545
G1 X108.941 Y102.42 E.17494
G1 X109.067 Y102.458 E.00476
G1 X110.916 Y102.458 E.06676
G1 X111.851 Y102.681 E.03473
G1 X112.013 Y102.608 E.0064
G1 X112.074 Y102.452 E.00604
G1 X112.074 Y98.4 E.14631
G1 X113.584 Y98.4 E.0545
G1 X113.598 Y103.304 E.17706
G1 X113.706 Y103.428 E.00594
G1 X114.316 Y103.748 E.02486
G1 X115.841 Y105.098 E.07354
G1 X116.008 Y105.14 E.00624
G1 X116.162 Y105.048 E.00646
G1 X118.496 Y101.835 E.14342
G1 X119.718 Y102.722 E.0545
G1 X116.858 Y106.679 E.17628
G1 X116.863 Y106.827 E.00536
G1 X117.376 Y108.182 E.05231
G1 X117.543 Y109.5 E.04799
G1 X117.663 Y109.629 E.00635
G1 X117.828 Y109.638 E.00595
G1 X121.673 Y108.388 E.146
G1 X122.14 Y109.824 E.0545
G1 X117.571 Y111.308 E.17343
G1 X117.448 Y111.404 E.00564
G1 X117.376 Y111.818 E.01517
G1 X116.727 Y113.531 E.06613
G1 X116.405 Y114.007 E.02074
G1 X116.417 Y114.2 E.00699
G1 X116.547 Y114.308 E.00612
G1 X120.391 Y115.557 E.14594
G1 X119.925 Y116.993 E.0545
G1 X115.333 Y115.501 E.17431
G1 X115.21 Y115.496 E.00447
G1 X115.111 Y115.547 E.004
G1 X114.316 Y116.252 E.03838
G1 X112.826 Y117.034 E.06072
G1 X112.737 Y117.197 E.00673
G1 X112.779 Y117.354 E.00587
G1 X115.14 Y120.604 E.14503
G1 X113.919 Y121.491 E.0545
G1 X111.059 Y117.58 E.17494
G1 X110.933 Y117.542 E.00476
G1 X109.084 Y117.542 E.06676
G1 X108.149 Y117.319 E.03473
G1 X107.987 Y117.392 E.0064
G1 X107.926 Y117.548 E.00604
G1 X107.926 Y121.6 E.14631
G1 X106.416 Y121.6 E.0545
G1 X106.402 Y116.696 E.17706
G1 X106.294 Y116.572 E.00594
G1 X105.684 Y116.252 E.02486
G1 X104.159 Y114.902 E.07354
G1 X103.992 Y114.86 E.00624
G1 X103.838 Y114.952 E.00646
G1 X101.504 Y118.165 E.14342
M73 P0 R21
G1 X100.282 Y117.278 E.0545
G1 X103.119 Y113.353 E.17484
;WIPE_START
G1 F3600
G1 X103.137 Y113.173 E-.05449
G1 X102.624 Y111.818 E-.43465
M73 P1 R21
G1 X102.577 Y111.451 E-.11086
;WIPE_END
G1 Z.4 F30000
G1 X106.2 Y109.837 Z.4
G1 Z.2
G1 E.6 F2400
;TYPE:Inner wall
G1 F3022
G1 X106.213 Y109.673 E.00592
G1 X107.045 Y107.664 E.07854
G1 X107.274 Y107.313 E.01513
G1 X107.664 Y107.045 E.01707
G1 X109.563 Y106.259 E.07421
G1 X109.932 Y106.174 E.01368
G1 X110.279 Y106.206 E.01258
G1 X112.336 Y107.045 E.08022
G1 X112.682 Y107.268 E.01484
G1 X112.912 Y107.572 E.01377
G1 X113.203 Y108.264 E.02709
G1 X113.741 Y109.563 E.05076
G1 X113.828 Y110.015 E.01665
G1 X113.744 Y110.43 E.01527
G1 X112.955 Y112.336 E.0745
G1 X112.759 Y112.651 E.01337
G1 X112.462 Y112.903 E.01408
G1 X110.437 Y113.741 E.07911
G1 X110.068 Y113.826 E.01368
G1 X109.721 Y113.794 E.01258
G1 X107.664 Y112.955 E.08022
G1 X107.318 Y112.732 E.01484
G1 X107.207 Y112.611 E.00595
G1 X107.031 Y112.302 E.01283
G1 X106.259 Y110.437 E.07287
G1 X106.178 Y110.122 E.01176
G1 X106.197 Y109.877 E.00887
G1 X106.667 Y109.806 F30000
G1 F3022
G1 X106.681 Y109.738 E.0025
G1 X107.468 Y107.839 E.07421
G1 X107.649 Y107.585 E.01126
G1 X107.839 Y107.468 E.00804
G1 X109.738 Y106.681 E.07421
G1 X110 Y106.629 E.00966
G1 X110.262 Y106.681 E.00966
G1 X112.161 Y107.468 E.07421
G1 X112.369 Y107.601 E.0089
G1 X112.547 Y107.873 E.01173
G1 X113.319 Y109.738 E.07287
G1 X113.371 Y110.009 E.00999
G1 X113.319 Y110.262 E.00933
G1 X112.532 Y112.161 E.07421
G1 X112.351 Y112.415 E.01126
G1 X112.161 Y112.532 E.00804
G1 X110.262 Y113.319 E.07421
G1 X110 Y113.371 E.00966
G1 X109.738 Y113.319 E.00966
G1 X107.839 Y112.532 E.07421
G1 X107.631 Y112.399 E.0089
G1 X107.565 Y112.326 E.00357
G1 X107.219 Y111.561 E.03029
G1 X106.681 Y110.262 E.05076
G1 X106.629 Y109.991 E.00999
G1 X106.659 Y109.845 E.00538
G1 X107.116 Y109.883 F30000
;TYPE:Outer wall
G1 F3022
G1 X107.89 Y108.014 E.07304
G1 X108.014 Y107.89 E.00632
G1 X109.913 Y107.103 E.07421
G1 X110.087 Y107.103 E.00632
G1 X111.986 Y107.89 E.07421
G1 X112.11 Y108.014 E.00632
G1 X112.897 Y109.913 E.07421
G1 X112.897 Y110.087 E.00632
G1 X112.11 Y111.986 E.07421
G1 X111.986 Y112.11 E.00632
G1 X110.087 Y112.897 E.07421
G1 X109.913 Y112.897 E.00632
G1 X108.014 Y112.11 E.07421
G1 X107.922 Y112.041 E.00413
G1 X107.103 Y110.087 E.07649
G1 X107.103 Y109.92 E.00605
;WIPE_START
G1 F3600
G1 X107.866 Y108.071 E-.6
;WIPE_END
G1 Z.4 F30000
G1 X112.357 Y103.618 Z.4
G1 Z.2
G1 E.6 F2400
;TYPE:Bottom surface
;WIDTH:0.500667
G1 F3022
G1 X115.601 Y106.862 E.16588
G1 X115.603 Y106.944 E.00294
G1 X115.685 Y107.267 E.01206
G1 X115.884 Y107.792 E.02033
G1 X112.012 Y103.92 E.19802
G1 X111.882 Y103.938 E.00473
G1 X111.529 Y103.904 E.01285
G1 X111.289 Y103.845 E.00891
G1 X116.177 Y108.732 E.24994
G1 X116.266 Y109.469 E.02684
G1 X110.511 Y103.714 E.29433
G1 X109.859 Y103.709 E.02356
G1 X116.617 Y110.467 E.34555
G1 X116.503 Y110.57 E.00556
G1 X116.332 Y110.83 E.01123
G1 X113.439 Y107.936 E.14797
G1 X113.268 Y107.525 E.01609
G1 X113.064 Y107.179 E.01454
G1 X112.915 Y107.017 E.00795
G1 X112.679 Y106.836 E.01076
G1 X112.503 Y106.744 E.00718
G1 X112.064 Y106.562 E.01718
G1 X109.208 Y103.705 E.14609
G1 X108.869 Y103.703 E.01224
G1 X108.539 Y103.619 E.01232
G1 X108.406 Y103.551 E.00541
G1 X110.959 Y106.104 E.13055
G1 X110.563 Y105.94 E.01551
G1 X110.256 Y105.85 E.01154
G1 X110.046 Y105.838 E.00761
G1 X108.056 Y103.848 E.10178
G1 X107.952 Y103.95 E.00527
G1 X107.68 Y104.12 E.01158
G1 X109.483 Y105.922 E.09218
G1 X109.024 Y106.111 E.01793
G1 X107.256 Y104.343 E.09044
G1 X106.831 Y104.565 E.01734
G1 X108.567 Y106.301 E.08874
G1 X108.109 Y106.49 E.01792
G1 X106.403 Y104.79 E.08708
G1 X106.059 Y105.088 E.01646
G1 X107.651 Y106.68 E.0814
G1 X107.492 Y106.746 E.00621
G1 X107.234 Y106.911 E.01107
G1 X105.712 Y105.389 E.07782
G1 X105.569 Y105.513 E.00687
G1 X105.318 Y105.642 E.01019
G1 X106.904 Y107.228 E.0811
G1 X106.731 Y107.527 E.01252
G1 X106.68 Y107.651 E.00483
G1 X104.828 Y105.799 E.0947
G1 X104.869 Y105.98 E.0067
G1 X104.783 Y106.401 E.01556
G1 X106.49 Y108.108 E.08729
G1 X106.3 Y108.566 E.01792
G1 X104.556 Y106.822 E.08919
G1 X104.394 Y107.058 E.01034
G1 X104.326 Y107.239 E.007
G1 X106.111 Y109.024 E.09128
G1 X105.925 Y109.485 E.01799
G1 X104.148 Y107.708 E.09087
G1 X103.97 Y108.178 E.01815
G1 X105.832 Y110.04 E.09523
G1 X105.84 Y110.183 E.00519
G1 X105.939 Y110.561 E.01414
G1 X106.104 Y110.959 E.01556
G1 X103.643 Y108.498 E.12582
;WIPE_START
G1 F5898.455
G1 X105.057 Y109.913 E-.6
;WIPE_END
G1 Z.4 F30000
G1 X113.516 Y108.661 Z.4
G1 Z.2
G1 E.6 F2400
G1 F3022
G1 X116.175 Y111.319 E.13593
G1 X116.147 Y111.514 E.00711
G1 X116.03 Y111.823 E.01193
G1 X114.171 Y109.963 E.09508
G1 X114.139 Y110.31 E.01259
G1 X114.076 Y110.515 E.00777
G1 X115.852 Y112.292 E.09084
G1 X115.674 Y112.761 E.01815
G1 X113.889 Y110.976 E.09129
G1 X113.7 Y111.434 E.01792
G1 X115.443 Y113.178 E.08916
G1 X115.217 Y113.599 E.01729
G1 X113.51 Y111.892 E.08729
G1 X113.32 Y112.349 E.01792
G1 X115.172 Y114.201 E.09471
G1 X115.19 Y114.28 E.00292
G1 X114.926 Y114.27 E.00956
G1 X114.682 Y114.358 E.00938
