; HEADER_BLOCK_START
; generated by OrcaSlicer 2.1.1 on 2024-09-07 at 20:48:37
; total layer number: 20
; filament_density: 1.27
; filament_diameter: 1.75
; max_z_height: 4.00
; HEADER_BLOCK_END

; THUMBNAIL_BLOCK_START

;
; THUMBNAIL_BLOCK_END

; THUMBNAIL_BLOCK_START

;
; THUMBNAIL_BLOCK_END

; external perimeters extrusion width = 0.42mm
; perimeters extrusion width = 0.45mm
; infill extrusion width = 0.45mm
; solid infill extrusion width = 0.42mm
; top infill extrusion width = 0.42mm
; first layer extrusion width = 0.50mm

; EXECUTABLE_BLOCK_START
EXCLUDE_OBJECT_DEFINE NAME=motor_gear.stl_id_0_copy_0 CENTER=110,110 POLYGON=[[102.5,109.858],[103.434,106.373],[103.576,106.127],[106.127,103.576],[106.373,103.434],[109.858,102.5],[110.142,102.5],[113.627,103.434],[113.873,103.576],[116.424,106.127],[116.566,106.373],[117.5,109.858],[117.5,110.142],[116.566,113.627],[116.424,113.873],[113.873,116.424],[113.627,116.566],[110.142,117.5],[109.858,117.5],[106.373,116.566],[106.127,116.424],[103.576,113.873],[103.434,113.627],[102.5,110.142],[102.5,109.858]]
M73 P0 R4
M106 S0
M106 P2 S0
;TYPE:Custom
M140 S0
M104 S0 
START_PRINT EXTRUDER_TEMP=250 BED_TEMP=70
G90
G21
M83 ; use relative distances for extrusion
; filament start gcode
M106 S0
M106 P2 S0
;LAYER_CHANGE
;Z:0.2
;HEIGHT:0.2
;BEFORE_LAYER_CHANGE
;0.2
G92 E0

G1 E-.6 F2400
;_SET_FAN_SPEED_CHANGING_LAYER
SET_VELOCITY_LIMIT ACCEL=500 ACCEL_TO_DECEL=250
SET_VELOCITY_LIMIT SQUARE_CORNER_VELOCITY=9
EXCLUDE_OBJECT_START NAME=motor_gear.stl_id_0_copy_0
G1 Z.2 F30000
G1 X110 Y114.554
G1 Z.2
G1 E.6 F2400
;TYPE:Inner wall
;WIDTH:0.499999
G1 F1328
G1 X109.806 Y114.353 E.01008
G1 X109.545 Y114.202 E.01089
G1 X108.987 Y114.055 E.02083
G1 X108.335 Y113.889 E.02428
G1 X107.928 Y113.878 E.01468
G1 X107.71 Y113.962 E.00846
G1 X107.68 Y113.73 E.00846
G1 X107.575 Y113.51 E.00879
G1 X107.387 Y113.281 E.01068
G1 X106.522 Y112.448 E.04337
G1 X106.281 Y112.327 E.00976
G1 X106.031 Y112.292 E.00909
G1 X106.125 Y112.058 E.00909
G1 X106.143 Y111.817 E.00871
G1 X106.104 Y111.561 E.00937
G1 X105.798 Y110.453 E.0415
G1 X105.646 Y110.189 E.01099
G1 X105.448 Y109.998 E.00995
G1 X105.646 Y109.807 E.00995
G1 X105.798 Y109.545 E.01093
G1 X106.124 Y108.352 E.04464
G1 X106.127 Y107.933 E.01512
G1 X106.034 Y107.71 E.00873
G1 X106.273 Y107.679 E.00873
G1 X106.496 Y107.571 E.00895
G1 X106.695 Y107.413 E.00915
G1 X107.179 Y106.928 E.02475
G1 X107.552 Y106.522 E.01991
G1 X107.673 Y106.28 E.00976
G1 X107.709 Y106.031 E.00909
G1 X107.942 Y106.125 E.00909
G1 X108.183 Y106.142 E.00871
G1 X108.471 Y106.095 E.01055
G1 X109.555 Y105.779 E.04077
G1 X109.857 Y105.604 E.01262
G1 X110.002 Y105.423 E.00836
G1 X110.141 Y105.608 E.00836
G1 X110.453 Y105.798 E.01318
G1 X111.029 Y105.962 E.02161
G1 X111.646 Y106.123 E.02303
G1 X112.055 Y106.126 E.01478
G1 X112.287 Y106.034 E.00902
G1 X112.324 Y106.281 E.00902
G1 X112.445 Y106.521 E.00972
G1 X113.333 Y107.439 E.04611
G1 X113.719 Y107.673 E.01628
G1 X113.965 Y107.708 E.00899
G1 X113.872 Y107.939 E.00899
G1 X113.856 Y108.179 E.00871
G1 X113.953 Y108.63 E.01665
G1 X114.157 Y109.415 E.02927
G1 X114.353 Y109.806 E.01578
G1 X114.554 Y110 E.01009
G1 X114.353 Y110.194 E.01009
G1 X114.202 Y110.455 E.0109
G1 X113.876 Y111.648 E.04464
G1 X113.873 Y112.067 E.01512
G1 X113.966 Y112.29 E.00873
G1 X113.727 Y112.321 E.00873
G1 X113.504 Y112.429 E.00895
G1 X113.306 Y112.587 E.00915
G1 X112.561 Y113.333 E.03806
G1 X112.327 Y113.719 E.01629
G1 X112.292 Y113.965 E.00898
G1 X112.062 Y113.872 E.00898
G1 X111.821 Y113.856 E.00872
G1 X111.37 Y113.953 E.01665
M73 P1 R4
G1 X110.585 Y114.157 E.02928
G1 X110.194 Y114.353 E.01579
G1 X110.028 Y114.525 E.00864
G1 X110.194 Y115.336 F30000
;WIDTH:0.47886
G1 F1328
G1 X110.185 Y115.456 E.00416
;WIDTH:0.439631
G1 X110.156 Y115.804 E.01093
;WIDTH:0.400402
G1 X110.003 Y116.245 E.01318
G1 X109.817 Y115.629 E.01817
;WIDTH:0.415672
G1 X109.809 Y115.314 E.00926
;WIDTH:0.457836
G1 X109.78 Y115.147 E.00555
;WIDTH:0.499999
G1 X109.751 Y114.981 E.00611
G1 X109.527 Y114.715 E.01255
G1 X109.37 Y114.625 E.00654
G1 X108.279 Y114.345 E.04067
G1 X107.998 Y114.33 E.01017
G1 X107.726 Y114.434 E.01052
G1 X107.569 Y114.589 E.00795
;WIDTH:0.459459
G1 X107.415 Y114.837 E.00961
;WIDTH:0.42314
G1 X107.261 Y115.085 E.00877
;WIDTH:0.38682
G1 X106.868 Y115.42 E.01401
G1 X106.987 Y114.885 E.01488
;WIDTH:0.421429
G1 X107.082 Y114.691 E.00646
;WIDTH:0.456038
G1 X107.176 Y114.496 E.00705
;WIDTH:0.490646
G1 X107.27 Y114.302 E.00764
;WIDTH:0.499999
G1 X107.249 Y113.883 E.01515
G1 X107.174 Y113.732 E.00607
G1 X106.402 Y112.943 E.03987
G1 X106.125 Y112.757 E.01204
G1 X105.848 Y112.717 E.01013
G1 X105.65 Y112.743 E.00719
;WIDTH:0.476786
G1 X105.349 Y112.897 E.01161
;WIDTH:0.427269
G1 X105.047 Y113.051 E.01028
;WIDTH:0.377751
G1 X104.57 Y113.133 E.01282
G1 X104.891 Y112.757 E.01307
;WIDTH:0.427269
G1 X105.168 Y112.576 E.01005
;WIDTH:0.476786
G1 X105.445 Y112.394 E.01134
;WIDTH:0.499999
G1 X105.558 Y112.256 E.00647
G1 X105.675 Y111.977 E.0109
G1 X105.663 Y111.679 E.01078
G1 X105.346 Y110.564 E.04184
G1 X105.139 Y110.327 E.01137
G1 X104.875 Y110.208 E.01046
;WIDTH:0.472141
G1 X104.535 Y110.182 E.01153
;WIDTH:0.436297
G1 X104.196 Y110.156 E.01057
;WIDTH:0.400453
G1 X103.755 Y110.003 E.01318
G1 X104.372 Y109.817 E.01819
;WIDTH:0.412979
G1 X104.643 Y109.809 E.00793
;WIDTH:0.456489
G1 X104.822 Y109.785 E.00591
;WIDTH:0.499999
G1 X105.002 Y109.761 E.00653
G1 X105.285 Y109.527 E.01324
G1 X105.404 Y109.286 E.00973
G1 X105.664 Y108.314 E.0363
G1 X105.677 Y108.015 E.01083
G1 X105.564 Y107.744 E.01061
G1 X105.46 Y107.617 E.00591
;WIDTH:0.477691
G1 X105.187 Y107.439 E.01118
;WIDTH:0.432261
G1 X104.915 Y107.261 E.01001
;WIDTH:0.38683
G1 X104.58 Y106.868 E.01401
G1 X105.014 Y106.944 E.01197
;WIDTH:0.407637
G1 X105.458 Y107.169 E.01434
;WIDTH:0.453818
G1 X105.64 Y107.228 E.00618
;WIDTH:0.499999
G1 X105.821 Y107.286 E.00688
G1 X106.119 Y107.249 E.01085
G1 X106.372 Y107.089 E.01079
G1 X107.084 Y106.377 E.03636
G1 X107.243 Y106.125 E.01077
G1 X107.283 Y105.847 E.01013
G1 X107.264 Y105.683 E.00597
;WIDTH:0.484097
G1 X107.159 Y105.471 E.00824
;WIDTH:0.448662
G1 X107.054 Y105.259 E.00758
;WIDTH:0.413227
G1 X106.949 Y105.047 E.00692
;WIDTH:0.377792
G1 X106.867 Y104.57 E.01281
G1 X107.243 Y104.891 E.01307
;WIDTH:0.413227
G1 X107.372 Y105.084 E.0068
;WIDTH:0.448662
G1 X107.501 Y105.278 E.00745
;WIDTH:0.484097
G1 X107.629 Y105.472 E.0081
;WIDTH:0.499999
G1 X107.761 Y105.569 E.00591
G1 X108.023 Y105.675 E.01019
G1 X108.34 Y105.657 E.01147
G1 X109.318 Y105.376 E.03673
G1 X109.571 Y105.248 E.01024
G1 X109.755 Y105.017 E.01066
G1 X109.809 Y104.817 E.00749
;WIDTH:0.457826
G1 X109.821 Y104.523 E.00964
;WIDTH:0.427424
G1 X109.833 Y104.229 E.00893
;WIDTH:0.397022
G1 X110.001 Y103.752 E.01415
G1 X110.111 Y104.01 E.00785
G1 X110.174 Y104.308 E.00852
;WIDTH:0.443005
G1 X110.197 Y104.615 E.00972
;WIDTH:0.488988
G1 X110.22 Y104.921 E.01084
;WIDTH:0.499999
G1 X110.439 Y105.261 E.01459
G1 X110.708 Y105.403 E.01099
G1 X111.68 Y105.663 E.0363
G1 X111.976 Y105.676 E.01069
G1 X112.234 Y105.573 E.01003
G1 X112.385 Y105.46 E.00681
;WIDTH:0.477663
G1 X112.573 Y105.176 E.01169
;WIDTH:0.432259
G1 X112.761 Y104.893 E.01047
;WIDTH:0.386854
G1 X113.128 Y104.578 E.01312
G1 X113.051 Y105.021 E.0122
;WIDTH:0.407629
G1 X112.833 Y105.459 E.01411
;WIDTH:0.453814
G1 X112.773 Y105.641 E.0062
;WIDTH:0.499999
G1 X112.714 Y105.822 E.0069
G1 X112.753 Y106.123 E.01096
G1 X112.826 Y106.268 E.00583
G1 X113.598 Y107.057 E.03988
G1 X113.874 Y107.243 E.01202
G1 X114.153 Y107.283 E.01016
G1 X114.37 Y107.25 E.00794
;WIDTH:0.467852
G1 X114.662 Y107.099 E.01101
;WIDTH:0.422878
G1 X114.953 Y106.949 E.00984
;WIDTH:0.377903
G1 X115.43 Y106.867 E.01281
G1 X115.15 Y107.205 E.01161
;WIDTH:0.406721
G1 X114.747 Y107.47 E.01387
;WIDTH:0.45336
G1 X114.6 Y107.595 E.00624
;WIDTH:0.499999
G1 X114.454 Y107.72 E.00695
G1 X114.323 Y108.018 E.01177
G1 X114.341 Y108.334 E.01142
G1 X114.653 Y109.431 E.04118
G1 X114.857 Y109.664 E.01121
G1 X115.103 Y109.786 E.00988
;WIDTH:0.480601
G1 X115.453 Y109.815 E.01217
;WIDTH:0.440247
G1 X115.804 Y109.844 E.01105
;WIDTH:0.399892
G1 X116.245 Y109.997 E.01316
G1 X116.098 Y110.068 E.00461
G1 X115.593 Y110.188 E.01462
;WIDTH:0.440247
G1 X115.339 Y110.197 E.00797
;WIDTH:0.480601
G1 X115.086 Y110.207 E.00878
;WIDTH:0.499999
G1 X114.975 Y110.252 E.00431
G1 X114.715 Y110.473 E.01233
G1 X114.596 Y110.714 E.00971
G1 X114.336 Y111.686 E.0363
G1 X114.323 Y111.985 E.01083
G1 X114.436 Y112.256 E.01061
G1 X114.538 Y112.384 E.0059
;WIDTH:0.482107
M73 P2 R4
G1 X114.812 Y112.562 E.01131
;WIDTH:0.434451
G1 X115.085 Y112.739 E.01008
;WIDTH:0.386794
G1 X115.42 Y113.132 E.01401
G1 X114.885 Y113.013 E.01488
;WIDTH:0.434451
G1 X114.61 Y112.875 E.00952
;WIDTH:0.482107
G1 X114.335 Y112.737 E.01067
;WIDTH:0.499999
G1 X114.179 Y112.714 E.00569
G1 X113.881 Y112.751 E.01085
G1 X113.628 Y112.911 E.01079
G1 X112.917 Y113.623 E.03636
G1 X112.757 Y113.874 E.01075
G1 X112.717 Y114.154 E.01018
G1 X112.738 Y114.33 E.00639
;WIDTH:0.4831
G1 X112.842 Y114.537 E.00808
;WIDTH:0.447906
G1 X112.947 Y114.745 E.00744
;WIDTH:0.412712
G1 X113.052 Y114.953 E.00679
;WIDTH:0.377517
G1 X113.133 Y115.431 E.01281
G1 X112.758 Y115.11 E.01305
;WIDTH:0.412712
G1 X112.633 Y114.918 E.00669
;WIDTH:0.447906
G1 X112.508 Y114.726 E.00732
;WIDTH:0.4831
G1 X112.383 Y114.535 E.00796
;WIDTH:0.499999
G1 X112.256 Y114.436 E.0058
G1 X111.982 Y114.323 E.0107
G1 X111.666 Y114.341 E.01142
G1 X110.569 Y114.653 E.04119
G1 X110.335 Y114.858 E.01122
G1 X110.213 Y115.108 E.01007
;WIDTH:0.47886
G1 X110.198 Y115.296 E.00648
G1 X110.63 Y115.3 F30000
;TYPE:Outer wall
;WIDTH:0.499999
G1 F1328
G1 X110.591 Y115.39 E.00355
G1 X110.557 Y115.904 E.01859
G1 X110.376 Y116.412 E.01946
G1 X110.003 Y117.021 E.0258
G1 X109.776 Y116.7 E.01421
G1 X109.549 Y116.245 E.01838
G1 X109.422 Y115.725 E.01929
G1 X109.395 Y115.33 E.01431
G1 X109.294 Y115.125 E.00827
G1 X109.161 Y115.036 E.00577
G1 X108.067 Y114.782 E.04055
G1 X107.857 Y114.918 E.00902
G1 X107.625 Y115.267 E.01514
G1 X107.303 Y115.601 E.01677
G1 X106.881 Y115.894 E.01855
G1 X106.486 Y116.079 E.01573
G1 X106.461 Y115.868 E.00767
G1 X106.469 Y115.326 E.01956
G1 X106.565 Y114.835 E.01809
G1 X106.814 Y114.316 E.02077
G1 X106.819 Y114.036 E.01012
G1 X106.76 Y113.946 E.00387
G1 X105.97 Y113.187 E.03956
G1 X105.702 Y113.185 E.00969
G1 X105.232 Y113.402 E.01866
G1 X104.861 Y113.504 E.01391
G1 X104.352 Y113.544 E.01845
G1 X103.918 Y113.508 E.01574
G1 X104.001 Y113.313 E.00767
G1 X104.259 Y112.88 E.01818
G1 X104.559 Y112.526 E.01676
G1 X105.023 Y112.192 E.02065
G1 X105.191 Y111.984 E.00965
G1 X105.222 Y111.8 E.00673
G1 X104.961 Y110.826 E.03639
G1 X104.873 Y110.699 E.00557
G1 X104.611 Y110.591 E.01024
G1 X104.096 Y110.557 E.01863
G1 X103.588 Y110.376 E.01946
G1 X102.979 Y110.003 E.0258
G1 X103.144 Y109.887 E.00731
G1 X103.608 Y109.621 E.0193
G1 X104.074 Y109.471 E.01769
G1 X104.739 Y109.381 E.02422
G1 X104.923 Y109.248 E.00818
G1 X105.079 Y108.735 E.01937
G1 X105.227 Y108.096 E.02366
G1 X105.1 Y107.88 E.00908
G1 X104.733 Y107.626 E.01611
G1 X104.399 Y107.303 E.01677
G1 X104.106 Y106.881 E.01855
G1 X103.921 Y106.486 E.01573
G1 X104.132 Y106.461 E.00767
G1 X104.635 Y106.469 E.01818
G1 X105.091 Y106.551 E.01673
G1 X105.61 Y106.786 E.02056
G1 X105.868 Y106.831 E.00945
G1 X106.049 Y106.765 E.00697
G1 X106.813 Y105.97 E.03983
G1 X106.815 Y105.713 E.00927
G1 X106.598 Y105.232 E.01905
G1 X106.496 Y104.861 E.0139
G1 X106.456 Y104.352 E.01845
G1 X106.492 Y103.918 E.01573
G1 X106.696 Y104.006 E.00803
G1 X107.181 Y104.304 E.02056
G1 X107.572 Y104.67 E.01934
G1 X107.88 Y105.099 E.01904
G1 X108.103 Y105.225 E.00927
G1 X108.209 Y105.219 E.00382
G1 X109.284 Y104.892 E.04057
G1 X109.398 Y104.672 E.00896
G1 X109.436 Y104.15 E.01889
G1 X109.603 Y103.627 E.01983
G1 X109.991 Y102.976 E.02733
G1 X110.306 Y103.451 E.02058
G1 X110.395 Y103.643 E.00766
G1 X110.559 Y104.121 E.01822
G1 X110.604 Y104.672 E.01998
G1 X110.737 Y104.914 E.00996
G1 X110.826 Y104.961 E.00366
G1 X111.798 Y105.221 E.0363
G1 X111.982 Y105.191 E.00676
G1 X112.185 Y105.036 E.00921
G1 X112.47 Y104.608 E.01855
G1 X112.88 Y104.259 E.01946
G1 X113.508 Y103.918 E.0258
G1 X113.526 Y104.119 E.00731
G1 X113.524 Y104.654 E.0193
G1 X113.439 Y105.117 E.01702
M73 P3 R4
G1 X113.209 Y105.623 E.02006
G1 X113.168 Y105.875 E.00919
G1 X113.24 Y106.054 E.00697
G1 X114.03 Y106.813 E.03956
G1 X114.305 Y106.814 E.00995
G1 X114.767 Y106.599 E.01838
G1 X115.139 Y106.496 E.01394
G1 X115.648 Y106.456 E.01844
G1 X116.082 Y106.492 E.01574
G1 X115.999 Y106.688 E.00767
G1 X115.721 Y107.153 E.01956
G1 X115.392 Y107.531 E.01811
G1 X114.922 Y107.861 E.02073
G1 X114.773 Y108.097 E.0101
G1 X115.034 Y109.155 E.03935
G1 X115.124 Y109.293 E.00595
G1 X115.391 Y109.41 E.01052
G1 X115.904 Y109.443 E.01855
G1 X116.412 Y109.624 E.01945
G1 X117.021 Y109.997 E.02581
G1 X116.856 Y110.113 E.00731
G1 X116.392 Y110.379 E.01931
G1 X115.927 Y110.529 E.01765
G1 X115.253 Y110.622 E.02453
G1 X115.077 Y110.752 E.00793
G1 X114.921 Y111.265 E.01936
G1 X114.773 Y111.904 E.02366
G1 X114.901 Y112.121 E.00909
G1 X115.267 Y112.374 E.01609
G1 X115.601 Y112.697 E.01678
G1 X115.893 Y113.119 E.01854
G1 X116.079 Y113.514 E.01574
G1 X115.868 Y113.539 E.00767
G1 X115.365 Y113.531 E.01818
G1 X114.909 Y113.449 E.01672
G1 X114.39 Y113.214 E.02057
G1 X114.132 Y113.169 E.00945
G1 X113.951 Y113.235 E.00697
G1 X113.187 Y114.03 E.03982
G1 X113.185 Y114.291 E.00943
G1 X113.402 Y114.769 E.01896
G1 X113.504 Y115.139 E.01385
G1 X113.544 Y115.648 E.01845
G1 X113.508 Y116.082 E.01573
G1 X113.304 Y115.994 E.00802
G1 X112.819 Y115.696 E.02057
G1 X112.428 Y115.329 E.01934
G1 X112.125 Y114.902 E.01889
G1 X111.903 Y114.773 E.0093
G1 X110.844 Y115.034 E.03937
G1 X110.706 Y115.125 E.00595
G1 X110.646 Y115.263 E.00546
;WIPE_START
G1 F3600
G1 X110.591 Y115.39 E-.0415
G1 X110.557 Y115.904 E-.15443
G1 X110.376 Y116.412 E-.1617
G1 X110.003 Y117.021 E-.21437
G1 X109.95 Y116.945 E-.028
;WIPE_END
G1 Z.4 F30000
G1 X111.219 Y107.455 Z.4
G1 Z.2
G1 E.6 F2400
;TYPE:Inner wall
G1 F1328
G1 X111.665 Y107.71 E.01855
G1 X112.055 Y108.051 E.01869
G1 X112.414 Y108.522 E.02139
G1 X112.656 Y109.021 E.02004
G1 X112.796 Y109.556 E.01995
G1 X112.828 Y110.112 E.02013
G1 X112.763 Y110.626 E.0187
G1 X112.607 Y111.112 E.01843
G1 X112.29 Y111.665 E.02301
G1 X112.004 Y112.003 E.01599
G1 X111.478 Y112.414 E.02409
G1 X110.979 Y112.656 E.02004
G1 X110.444 Y112.796 E.01995
G1 X109.888 Y112.828 E.02012
G1 X109.338 Y112.752 E.02004
G1 X108.814 Y112.57 E.02004
G1 X108.369 Y112.316 E.01851
G1 X107.945 Y111.949 E.02023
G1 X107.586 Y111.478 E.02139
G1 X107.344 Y110.979 E.02004
G1 X107.204 Y110.442 E.02004
G1 X107.172 Y109.888 E.02004
G1 X107.237 Y109.374 E.0187
G1 X107.393 Y108.888 E.01843
G1 X107.684 Y108.369 E.02149
G1 X108.079 Y107.921 E.02157
G1 X108.522 Y107.586 E.02004
G1 X109.021 Y107.344 E.02004
G1 X109.558 Y107.204 E.02004
G1 X110.112 Y107.172 E.02004
G1 X110.625 Y107.237 E.01868
G1 X111.108 Y107.392 E.01832
G1 X111.184 Y107.435 E.00314
G1 X110.882 Y107.803 F30000
G1 F1328
G1 X110.97 Y107.833 E.00337
G1 X111.418 Y108.1 E.01883
G1 X111.726 Y108.369 E.01476
G1 X112.033 Y108.779 E.01848
M73 P4 R4
G1 X112.219 Y109.154 E.01511
G1 X112.352 Y109.712 E.02073
G1 X112.374 Y110.067 E.01284
G1 X112.315 Y110.529 E.01681
G1 X112.167 Y110.97 E.01681
G1 X111.934 Y111.378 E.01696
G1 X111.681 Y111.68 E.01423
G1 X111.263 Y112.011 E.01924
G1 X110.846 Y112.219 E.01681
G1 X110.287 Y112.352 E.02074
G1 X109.933 Y112.374 E.01283
G1 X109.471 Y112.315 E.01681
G1 X109.03 Y112.167 E.01681
G1 X108.582 Y111.9 E.01883
G1 X108.274 Y111.631 E.01476
G1 X107.966 Y111.22 E.01853
G1 X107.781 Y110.846 E.01506
G1 X107.649 Y110.299 E.02033
G1 X107.626 Y109.933 E.01324
G1 X107.685 Y109.471 E.01681
G1 X107.833 Y109.03 E.01681
G1 X108.066 Y108.622 E.01696
G1 X108.369 Y108.274 E.01665
G1 X108.78 Y107.966 E.01854
G1 X109.154 Y107.781 E.01505
G1 X109.731 Y107.646 E.02139
G1 X110.067 Y107.626 E.01218
G1 X110.529 Y107.685 E.01681
G1 X110.844 Y107.791 E.01199
G1 X110.768 Y108.244 F30000
;TYPE:Outer wall
G1 F1328
G1 X111.128 Y108.453 E.01505
G1 X111.373 Y108.659 E.01154
