; HEADER_BLOCK_START
; generated by OrcaSlicer 2.1.1 on 2024-09-07 at 21:07:32
; total layer number: 20
; filament_density: 1.27
; filament_diameter: 1.75
; max_z_height: 4.00
; HEADER_BLOCK_END

; THUMBNAIL_BLOCK_START

;
; THUMBNAIL_BLOCK_END

; THUMBNAIL_BLOCK_START

;
; THUMBNAIL_BLOCK_END

; external perimeters extrusion width = 0.42mm
; perimeters extrusion width = 0.45mm
; infill extrusion width = 0.45mm
; solid infill extrusion width = 0.42mm
; top infill extrusion width = 0.42mm
; first layer extrusion width = 0.50mm

; EXECUTABLE_BLOCK_START
EXCLUDE_OBJECT_DEFINE NAME=motor_gear.stl_id_0_copy_0 CENTER=111.044,110.279 POLYGON=[[103.544,110.137],[104.478,106.652],[104.62,106.406],[107.171,103.855],[107.417,103.713],[110.902,102.779],[111.186,102.779],[114.671,103.713],[114.917,103.855],[117.468,106.406],[117.61,106.652],[118.544,110.137],[118.544,110.421],[117.61,113.906],[117.468,114.152],[114.917,116.703],[114.671,116.845],[111.186,117.779],[110.902,117.779],[107.417,116.845],[107.171,116.703],[104.62,114.152],[104.478,113.906],[103.544,110.421],[103.544,110.137]]
M73 P0 R2
M106 S0
M106 P2 S0
;TYPE:Custom
M140 S0
M104 S0 
START_PRINT EXTRUDER_TEMP=250 BED_TEMP=70
G90
G21
M83 ; use relative distances for extrusion
; filament start gcode
M106 S0
M106 P2 S0
;LAYER_CHANGE
;Z:0.2
;HEIGHT:0.2
;BEFORE_LAYER_CHANGE
;0.2
G92 E0

G1 E-.6 F2400
;_SET_FAN_SPEED_CHANGING_LAYER
SET_VELOCITY_LIMIT ACCEL=500 ACCEL_TO_DECEL=250
SET_VELOCITY_LIMIT SQUARE_CORNER_VELOCITY=9
EXCLUDE_OBJECT_START NAME=motor_gear.stl_id_0_copy_0
G1 Z.2 F30000
G1 X106.749 Y110.442
G1 Z.2
G1 E.6 F2400
;TYPE:Inner wall
;WIDTH:0.499999
G1 F1326
G1 X106.589 Y110.279 E.00828
G1 X106.804 Y110.059 E.0111
G1 X106.958 Y109.749 E.01249
G1 X107.22 Y108.704 E.03888
G1 X107.248 Y108.252 E.01637
G1 X107.146 Y108.028 E.00886
G1 X107.391 Y108.005 E.00886
G1 X107.63 Y107.873 E.00987
G1 X108.462 Y107.085 E.0414
G1 X108.733 Y106.719 E.01644
G1 X108.817 Y106.421 E.01118
G1 X109.117 Y106.497 E.01118
G1 X109.329 Y106.496 E.00764
G1 X110.496 Y106.18 E.04365
G1 X110.873 Y106 E.01509
G1 X111.047 Y105.796 E.00969
G1 X111.214 Y106.005 E.00969
M73 P1 R2
G1 X111.421 Y106.133 E.00879
G1 X111.652 Y106.215 E.00882
G1 X112.582 Y106.465 E.0348
G1 X113.017 Y106.493 E.01572
G1 X113.285 Y106.394 E.01031
G1 X113.333 Y106.676 E.01031
G1 X113.449 Y106.886 E.00867
G1 X114.261 Y107.722 E.0421
G1 X114.648 Y107.988 E.01691
G1 X114.928 Y108.034 E.01028
G1 X114.829 Y108.301 E.01028
G1 X114.826 Y108.561 E.00941
G1 X115.111 Y109.681 E.04171
G1 X115.284 Y110.06 E.01504
G1 X115.499 Y110.28 E.01111
G1 X115.284 Y110.5 E.01111
G1 X115.186 Y110.667 E.00701
G1 X114.868 Y111.854 E.04436
G1 X114.84 Y112.307 E.01637
G1 X114.942 Y112.53 E.00886
G1 X114.697 Y112.553 E.00886
G1 X114.458 Y112.685 E.00987
G1 X113.601 Y113.497 E.04262
G1 X113.336 Y113.883 E.01691
G1 X113.289 Y114.163 E.01028
G1 X113.022 Y114.064 E.01028
G1 X112.762 Y114.061 E.00941
G1 X111.642 Y114.346 E.04171
G1 X111.263 Y114.519 E.01504
G1 X111.043 Y114.734 E.01111
G1 X110.824 Y114.519 E.01111
G1 X110.514 Y114.365 E.01249
G1 X109.469 Y114.103 E.03888
G1 X109.017 Y114.075 E.01638
G1 X108.793 Y114.177 E.00886
G1 X108.77 Y113.933 E.00886
G1 X108.638 Y113.694 E.00987
G1 X108.42 Y113.455 E.01164
G1 X107.653 Y112.687 E.03921
G1 X107.441 Y112.571 E.00874
G1 X107.16 Y112.524 E.01028
G1 X107.259 Y112.257 E.01028
G1 X107.262 Y111.997 E.0094
G1 X106.977 Y110.877 E.04171
G1 X106.804 Y110.498 E.01504
G1 X106.777 Y110.471 E.00138
G1 X106.401 Y110.755 F30000
G1 F1326
G1 X106.275 Y110.603 E.00712
G1 X106.02 Y110.481 E.01022
;WIDTH:0.472472
G1 X105.675 Y110.454 E.01174
;WIDTH:0.428856
G1 X105.33 Y110.428 E.01055
;WIDTH:0.385239
G1 X104.908 Y110.281 E.01207
G1 X105.503 Y110.104 E.01678
;WIDTH:0.400456
G1 X105.814 Y110.096 E.00878
;WIDTH:0.450228
G1 X105.981 Y110.07 E.00545
;WIDTH:0.499999
G1 X106.149 Y110.044 E.00611
G1 X106.43 Y109.796 E.01356
G1 X106.523 Y109.61 E.0075
G1 X106.779 Y108.586 E.03811
G1 X106.795 Y108.314 E.00982
G1 X106.627 Y107.961 E.01412
;WIDTH:0.487325
G1 X106.49 Y107.844 E.00634
;WIDTH:0.439913
G1 X106.255 Y107.699 E.00866
;WIDTH:0.408302
G1 X106.02 Y107.555 E.00797
;WIDTH:0.37669
G1 X105.722 Y107.208 E.01205
G1 X106.257 Y107.315 E.01438
;WIDTH:0.413569
G1 X106.448 Y107.414 E.00629
;WIDTH:0.450447
G1 X106.638 Y107.513 E.00692
;WIDTH:0.487325
M73 P2 R2
G1 X106.829 Y107.613 E.00754
;WIDTH:0.499999
G1 X107.219 Y107.582 E.01412
G1 X107.446 Y107.431 E.00983
G1 X108.261 Y106.627 E.04137
G1 X108.379 Y106.312 E.01214
G1 X108.358 Y106.029 E.01022
;WIDTH:0.472582
G1 X108.206 Y105.712 E.01194
;WIDTH:0.428565
G1 X108.053 Y105.395 E.01072
;WIDTH:0.384548
G1 X107.978 Y104.977 E.01146
G1 X108.094 Y105.059 E.00384
G1 X108.44 Y105.409 E.01326
;WIDTH:0.428565
G1 X108.574 Y105.627 E.00781
;WIDTH:0.472582
G1 X108.708 Y105.846 E.0087
;WIDTH:0.499999
G1 X108.942 Y105.987 E.00986
G1 X109.284 Y106.041 E.01251
G1 X110.31 Y105.757 E.03845
G1 X110.604 Y105.631 E.01153
G1 X110.812 Y105.386 E.0116
G1 X110.838 Y105.283 E.00383
;WIDTH:0.474991
G1 X110.864 Y105.18 E.00362
;WIDTH:0.449983
G1 X110.874 Y104.889 E.00936
;WIDTH:0.41591
G1 X110.885 Y104.598 E.00858
;WIDTH:0.381836
G1 X111.044 Y104.138 E.01304
G1 X111.149 Y104.383 E.00715
G1 X111.21 Y104.674 E.00796
;WIDTH:0.41591
G1 X111.218 Y104.927 E.00746
;WIDTH:0.449983
G1 X111.225 Y105.18 E.00814
;WIDTH:0.474991
G1 X111.26 Y105.287 E.00382
;WIDTH:0.499999
G1 X111.294 Y105.393 E.00404
G1 X111.495 Y105.644 E.0116
G1 X111.757 Y105.77 E.01051
G1 X112.661 Y106.012 E.03378
G1 X112.959 Y106.04 E.01082
G1 X113.249 Y105.933 E.01115
G1 X113.394 Y105.822 E.00658
;WIDTH:0.4748
G1 X113.518 Y105.632 E.00774
;WIDTH:0.44048
G1 X113.643 Y105.443 E.00713
;WIDTH:0.40616
G1 X113.767 Y105.253 E.00651
;WIDTH:0.37184
G1 X114.118 Y104.953 E.01199
G1 X114.013 Y105.476 E.01385
;WIDTH:0.40616
G1 X113.919 Y105.656 E.00584
;WIDTH:0.44048
G1 X113.824 Y105.836 E.00639
;WIDTH:0.4748
G1 X113.73 Y106.017 E.00695
;WIDTH:0.499999
G1 X113.703 Y106.173 E.00571
G1 X113.755 Y106.498 E.01189
G1 X113.824 Y106.624 E.0052
G1 X114.578 Y107.392 E.03884
G1 X114.824 Y107.566 E.01087
G1 X115.132 Y107.617 E.01131
G1 X115.307 Y107.593 E.00634
;WIDTH:0.475064
G1 X115.617 Y107.44 E.01181
;WIDTH:0.4287
G1 X115.928 Y107.287 E.01055
;WIDTH:0.382335
G1 X116.348 Y107.212 E.01146
G1 X116.265 Y107.33 E.00387
G1 X115.937 Y107.66 E.01247
;WIDTH:0.4287
G1 X115.719 Y107.795 E.00782
;WIDTH:0.475064
G1 X115.501 Y107.93 E.00876
;WIDTH:0.499999
G1 X115.4 Y108.053 E.00573
G1 X115.282 Y108.359 E.01183
G1 X115.306 Y108.642 E.01027
G1 X115.599 Y109.697 E.03952
G1 X115.812 Y109.955 E.0121
G1 X116.063 Y110.078 E.01008
;WIDTH:0.475254
G1 X116.411 Y110.105 E.01192
;WIDTH:0.429992
G1 X116.759 Y110.131 E.01067
;WIDTH:0.38473
G1 X117.18 Y110.278 E.01204
G1 X117.047 Y110.341 E.00399
G1 X116.551 Y110.459 E.01376
;WIDTH:0.429992
G1 X116.299 Y110.466 E.00771
;WIDTH:0.475254
G1 X116.047 Y110.473 E.00861
;WIDTH:0.499999
G1 X115.812 Y110.604 E.0097
G1 X115.599 Y110.863 E.0121
G1 X115.314 Y111.954 E.04072
G1 X115.293 Y112.244 E.01049
G1 X115.46 Y112.597 E.01413
;WIDTH:0.488294
G1 X115.598 Y112.715 E.00635
;WIDTH:0.440687
G1 X115.833 Y112.859 E.00868
;WIDTH:0.408688
G1 X116.069 Y113.004 E.00798
;WIDTH:0.376688
G1 X116.366 Y113.35 E.01204
G1 X115.831 Y113.244 E.01438
;WIDTH:0.41389
G1 X115.64 Y113.144 E.0063
;WIDTH:0.451092
G1 X115.45 Y113.045 E.00693
;WIDTH:0.488294
G1 X115.259 Y112.945 E.00756
;WIDTH:0.499999
G1 X114.869 Y112.977 E.01413
G1 X114.726 Y113.056 E.00592
G1 X113.932 Y113.813 E.03962
M73 P3 R2
G1 X113.757 Y114.059 E.01087
G1 X113.706 Y114.368 E.0113
G1 X113.727 Y114.537 E.00616
;WIDTH:0.481233
G1 X113.881 Y114.85 E.01208
;WIDTH:0.43269
G1 X114.035 Y115.163 E.01074
;WIDTH:0.384146
G1 X114.11 Y115.581 E.01146
G1 X113.801 Y115.318 E.01094
;WIDTH:0.43269
G1 X113.597 Y115.024 E.01103
;WIDTH:0.481233
G1 X113.392 Y114.73 E.0124
;WIDTH:0.499999
G1 X113.266 Y114.632 E.00577
G1 X112.964 Y114.517 E.01164
G1 X112.681 Y114.541 E.01027
G1 X111.627 Y114.834 E.03952
G1 X111.368 Y115.048 E.01211
G1 X111.245 Y115.303 E.01023
;WIDTH:0.473785
G1 X111.219 Y115.648 E.01178
;WIDTH:0.429508
G1 X111.192 Y115.993 E.01057
;WIDTH:0.385231
G1 X111.046 Y116.415 E.01207
G1 X110.869 Y115.82 E.01677
;WIDTH:0.400467
G1 X110.861 Y115.509 E.00879
;WIDTH:0.450233
G1 X110.835 Y115.342 E.00544
;WIDTH:0.499999
G1 X110.809 Y115.175 E.00611
G1 X110.561 Y114.893 E.01356
G1 X110.375 Y114.801 E.00749
G1 X109.351 Y114.545 E.03811
G1 X109.079 Y114.528 E.00983
G1 X108.726 Y114.695 E.01413
;WIDTH:0.488309
G1 X108.609 Y114.833 E.00635
;WIDTH:0.440704
G1 X108.464 Y115.068 E.00868
;WIDTH:0.4087
G1 X108.32 Y115.304 E.00798
;WIDTH:0.376695
G1 X107.973 Y115.601 E.01205
G1 X108.08 Y115.066 E.01438
;WIDTH:0.4139
G1 X108.179 Y114.876 E.0063
;WIDTH:0.451105
G1 X108.279 Y114.685 E.00693
;WIDTH:0.488309
G1 X108.378 Y114.495 E.00756
;WIDTH:0.499999
G1 X108.347 Y114.105 E.01413
G1 X108.267 Y113.961 E.00592
G1 X107.51 Y113.167 E.03962
G1 X107.265 Y112.993 E.01087
G1 X106.956 Y112.941 E.01129
G1 X106.786 Y112.962 E.00618
;WIDTH:0.481258
G1 X106.473 Y113.116 E.01208
;WIDTH:0.432708
G1 X106.16 Y113.27 E.01074
;WIDTH:0.384157
G1 X105.742 Y113.345 E.01146
G1 X106.005 Y113.037 E.01094
;WIDTH:0.432708
G1 X106.299 Y112.832 E.01103
;WIDTH:0.481258
G1 X106.593 Y112.627 E.0124
;WIDTH:0.499999
G1 X106.691 Y112.501 E.00576
G1 X106.806 Y112.199 E.01164
G1 X106.782 Y111.916 E.01027
G1 X106.489 Y110.862 E.03952
G1 X106.426 Y110.786 E.00354
G1 X106.056 Y111.024 F30000
;TYPE:Outer wall
G1 F1326
G1 X105.824 Y110.878 E.00989
G1 X105.304 Y110.826 E.01889
G1 X104.769 Y110.663 E.02018
G1 X104.136 Y110.286 E.0266
G1 X104.451 Y110.064 E.01392
G1 X104.897 Y109.841 E.01801
G1 X105.408 Y109.716 E.01899
G1 X105.798 Y109.689 E.01411
G1 X106.005 Y109.586 E.00834
G1 X106.091 Y109.457 E.00558
G1 X106.343 Y108.377 E.04005
G1 X106.207 Y108.165 E.00908
G1 X105.8 Y107.883 E.01789
G1 X105.418 Y107.474 E.02021
G1 X105.058 Y106.831 E.0266
G1 X105.442 Y106.796 E.01392
G1 X105.789 Y106.816 E.01254
G1 X106.373 Y106.934 E.02152
G1 X106.867 Y107.155 E.01954
G1 X107.047 Y107.158 E.00648
G1 X107.122 Y107.108 E.00328
M73 P4 R2
G1 X107.905 Y106.332 E.03979
G1 X107.915 Y106.058 E.0099
G1 X107.695 Y105.572 E.0193
G1 X107.6 Y105.218 E.01322
G1 X107.561 Y104.718 E.01811
G1 X107.595 Y104.305 E.01495
G1 X107.929 Y104.459 E.01326
G1 X108.324 Y104.733 E.01737
G1 X108.585 Y104.97 E.01273
G1 X108.984 Y105.498 E.02389
G1 X109.197 Y105.587 E.00834
G1 X110.335 Y105.261 E.04273
G1 X110.457 Y105.036 E.00926
G1 X110.494 Y104.52 E.01867
G1 X110.659 Y104.006 E.01947
G1 X111.035 Y103.375 E.02654
G1 X111.371 Y103.89 E.02219
G1 X111.563 Y104.388 E.01928
G1 X111.619 Y104.946 E.02023
G1 X111.708 Y105.2 E.00971
G1 X111.86 Y105.325 E.00711
G1 X112.902 Y105.586 E.03877
G1 X113.14 Y105.457 E.00979
G1 X113.44 Y105.035 E.01869
G1 X113.849 Y104.653 E.02021
G1 X114.492 Y104.293 E.0266
G1 X114.527 Y104.677 E.01392
G1 X114.507 Y105.024 E.01254
G1 X114.424 Y105.47 E.01636
G1 X114.198 Y105.968 E.01977
G1 X114.158 Y106.219 E.00917
G1 X114.23 Y106.398 E.00696
G1 X115 Y107.144 E.0387
G1 X115.269 Y107.15 E.00973
G1 X115.752 Y106.93 E.01915
G1 X116.105 Y106.835 E.01322
G1 X116.605 Y106.796 E.01811
G1 X117.018 Y106.83 E.01495
G1 X116.854 Y107.185 E.01412
G1 X116.531 Y107.644 E.02026
G1 X116.216 Y107.944 E.01571
G1 X115.939 Y108.118 E.01181
G1 X115.772 Y108.319 E.00943
G1 X115.743 Y108.511 E.00702
G1 X116.032 Y109.534 E.03839
G1 X116.263 Y109.681 E.00987
G1 X116.784 Y109.732 E.01892
G1 X117.319 Y109.895 E.02017
G1 X117.952 Y110.272 E.0266
G1 X117.637 Y110.495 E.01392
G1 X117.19 Y110.718 E.01802
G1 X116.68 Y110.843 E.01898
G1 X116.29 Y110.869 E.01411
G1 X116.083 Y110.973 E.00834
G1 X115.997 Y111.101 E.00558
G1 X115.745 Y112.181 E.04005
G1 X115.881 Y112.393 E.00908
G1 X116.288 Y112.675 E.0179
G1 X116.67 Y113.084 E.0202
G1 X117.03 Y113.727 E.0266
G1 X116.646 Y113.762 E.01392
G1 X116.299 Y113.742 E.01254
G1 X115.715 Y113.625 E.02152
M73 P5 R2
G1 X115.221 Y113.403 E.01954
G1 X115.041 Y113.4 E.00648
G1 X114.966 Y113.45 E.00328
G1 X114.179 Y114.235 E.04011
G1 X114.173 Y114.503 E.00967
G1 X114.393 Y114.987 E.01921
G1 X114.488 Y115.34 E.01322
G1 X114.528 Y115.841 E.01812
G1 X114.493 Y116.253 E.01495
G1 X114.138 Y116.089 E.01412
G1 X113.684 Y115.77 E.02003
G1 X113.351 Y115.408 E.01778
G1 X113.209 Y115.177 E.00978
G1 X113.004 Y115.007 E.0096
G1 X112.812 Y114.979 E.00702
G1 X111.789 Y115.267 E.03839
G1 X111.643 Y115.499 E.00989
G1 X111.591 Y116.02 E.01889
G1 X111.428 Y116.554 E.02017
G1 X111.051 Y117.187 E.0266
G1 X110.828 Y116.872 E.01392
G1 X110.606 Y116.425 E.01802
G1 X110.481 Y115.915 E.01897
G1 X110.454 Y115.525 E.01411
G1 X110.351 Y115.318 E.00834
G1 X110.222 Y115.232 E.00558
G1 X109.142 Y114.98 E.04005
G1 X108.93 Y115.116 E.00908
G1 X108.648 Y115.523 E.01789
G1 X108.239 Y115.905 E.02021
G1 X107.596 Y116.265 E.0266
G1 X107.561 Y115.881 E.01391
G1 X107.581 Y115.534 E.01254
G1 X107.698 Y114.95 E.02152
G1 X107.92 Y114.456 E.01954
G1 X107.923 Y114.276 E.00648
G1 X107.873 Y114.201 E.00328
G1 X107.089 Y113.414 E.0401
G1 X106.821 Y113.408 E.00968
G1 X106.336 Y113.628 E.01921
G1 X105.983 Y113.724 E.01322
G1 X105.483 Y113.763 E.01811
G1 X105.07 Y113.728 E.01495
G1 X105.234 Y113.373 E.01412
G1 X105.553 Y112.92 E.02003
G1 X105.916 Y112.586 E.01779
G1 X106.146 Y112.444 E.00977
G1 X106.316 Y112.239 E.0096
G1 X106.345 Y112.047 E.00701
G1 X106.067 Y111.062 E.03695
;WIPE_START
G1 F3600
G1 X105.824 Y110.878 E-.09139
G1 X105.304 Y110.826 E-.15697
G1 X104.769 Y110.663 E-.16763
G1 X104.242 Y110.349 E-.18401
;WIPE_END
G1 Z.4 F30000
G1 X111.884 Y108.025 Z.4
G1 Z.2
M73 P6 R2
G1 E.6 F2400
;TYPE:Inner wall
G1 F1326
G1 X112.063 Y108.088 E.00687
G1 X112.539 Y108.399 E.02051
G1 X112.799 Y108.616 E.01223
G1 X113.155 Y109.128 E.02252
G1 X113.318 Y109.463 E.01344
G1 X113.427 Y109.985 E.01926
G1 X113.463 Y110.279 E.0107
G1 X113.344 Y110.99 E.02603
G1 X113.255 Y111.259 E.01022
G1 X112.974 Y111.7 E.01886
G1 X112.711 Y112.03 E.01524
G1 X112.195 Y112.39 E.02272
G1 X111.86 Y112.553 E.01343
G1 X111.337 Y112.662 E.01931
G1 X111.044 Y112.698 E.01067
G1 X110.333 Y112.579 E.02603
G1 X109.921 Y112.408 E.0161
G1 X109.485 Y112.117 E.01891
G1 X109.191 Y111.816 E.01519
G1 X108.828 Y111.247 E.02439
G1 X108.661 Y110.572 E.02509
G1 X108.625 Y110.279 E.01066
G1 X108.744 Y109.568 E.02603
G1 X108.915 Y109.156 E.0161
G1 X109.206 Y108.721 E.01891
G1 X109.507 Y108.427 E.01518
G1 X110.078 Y108.062 E.02448
G1 X110.821 Y107.882 E.02759
G1 X111.15 Y107.865 E.0119
G1 X111.755 Y107.979 E.02223
G1 X111.846 Y108.012 E.00347
G1 X111.782 Y108.475 F30000
G1 F1326
G1 X111.939 Y108.547 E.00626
G1 X112.417 Y108.878 E.02097
G1 X112.775 Y109.382 E.02233
G1 X112.895 Y109.657 E.01084
G1 X113 Y110.188 E.01953
G1 X112.987 Y110.44 E.00912
G1 X112.885 Y110.945 E.0186
G1 X112.775 Y111.175 E.0092
G1 X112.431 Y111.666 E.02166
G1 X111.941 Y112.01 E.02161
G1 X111.666 Y112.131 E.01084
G1 X111.135 Y112.235 E.01953
G1 X110.883 Y112.222 E.00912
G1 X110.378 Y112.12 E.0186
G1 X110.148 Y112.01 E.0092
G1 X109.657 Y111.666 E.02166
G1 X109.313 Y111.176 E.02161
G1 X109.193 Y110.901 E.01084
G1 X109.086 Y110.345 E.02044
G1 X109.193 Y109.657 E.02515
G1 X109.313 Y109.383 E.01079
G1 X109.58 Y108.983 E.01739
G1 X109.761 Y108.807 E.00911
G1 X110.269 Y108.477 E.02188
G1 X110.91 Y108.331 E.02374
G1 X111.198 Y108.335 E.0104
G1 X111.69 Y108.433 E.01812
G1 X111.745 Y108.458 E.00219
G1 X111.563 Y108.875 F30000
;TYPE:Outer wall
G1 F1326
G1 X111.603 Y108.883 E.00149
G1 X112.031 Y109.159 E.01839
G1 X112.169 Y109.299 E.00709
G1 X112.442 Y109.725 E.01828
G1 X112.544 Y110.235 E.01876
G1 X112.447 Y110.812 E.02114
G1 X112.136 Y111.308 E.02114
G1 X111.687 Y111.63 E.01995
G1 X111.431 Y111.711 E.0097
M73 P7 R2
G1 X110.972 Y111.774 E.01672
G1 X110.457 Y111.664 E.01901
G1 X110.015 Y111.372 E.01916
G1 X109.694 Y110.922 E.01994
G1 X109.612 Y110.666 E.00971
G1 X109.549 Y110.208 E.01671
G1 X109.659 Y109.692 E.01901
G1 X109.952 Y109.25 E.01916
G1 X110.402 Y108.928 E.02001
G1 X110.71 Y108.836 E.01159
G1 X111.109 Y108.783 E.01453
G1 X111.523 Y108.867 E.01526
;WIPE_START
G1 F3600
G1 X111.603 Y108.883 E-.02438
G1 X112.031 Y109.159 E-.15281
