; HEADER_BLOCK_START
; generated by OrcaSlicer 2.1.1 on 2024-09-07 at 21:51:17
; total layer number: 25
; filament_density: 1.27
; filament_diameter: 1.75
; max_z_height: 5.00
; HEADER_BLOCK_END

; THUMBNAIL_BLOCK_START

;
; THUMBNAIL_BLOCK_END

; THUMBNAIL_BLOCK_START

;
; THUMBNAIL_BLOCK_END

; external perimeters extrusion width = 0.42mm
; perimeters extrusion width = 0.45mm
; infill extrusion width = 0.45mm
; solid infill extrusion width = 0.42mm
; top infill extrusion width = 0.42mm
; first layer extrusion width = 0.50mm

; EXECUTABLE_BLOCK_START
EXCLUDE_OBJECT_DEFINE NAME=motor_gear_big.stl_id_0_copy_0 CENTER=110,110 POLYGON=[[96.5,109.739],[96.8925,106.758],[97.0275,106.254],[98.1783,103.476],[98.439,103.024],[100.27,100.638],[100.638,100.27],[103.024,98.439],[103.476,98.1783],[106.254,97.0275],[106.758,96.8925],[109.739,96.5],[110.261,96.5],[113.242,96.8925],[113.746,97.0275],[116.524,98.1783],[116.976,98.439],[119.362,100.27],[119.73,100.638],[121.561,103.024],[121.822,103.476],[122.973,106.254],[123.107,106.758],[123.5,109.739],[123.5,110.261],[123.107,113.242],[122.973,113.746],[121.822,116.524],[121.561,116.976],[119.73,119.362],[119.362,119.73],[116.976,121.561],[116.524,121.822],[113.746,122.973],[113.242,123.107],[110.261,123.5],[109.739,123.5],[106.758,123.107],[106.254,122.973],[103.476,121.822],[103.024,121.561],[100.638,119.73],[100.27,119.362],[98.439,116.976],[98.1783,116.524],[97.0275,113.746],[96.8925,113.242],[96.5,110.261],[96.5,109.739]]
M73 P0 R6
M106 S0
M106 P2 S0
;TYPE:Custom
M140 S0
M104 S0 
START_PRINT EXTRUDER_TEMP=250 BED_TEMP=70
G90
G21
M83 ; use relative distances for extrusion
; filament start gcode
M106 S0
M106 P2 S0
;LAYER_CHANGE
;Z:0.2
;HEIGHT:0.2
;BEFORE_LAYER_CHANGE
;0.2
G92 E0

G1 E-.6 F2400
;_SET_FAN_SPEED_CHANGING_LAYER
SET_VELOCITY_LIMIT ACCEL=500 ACCEL_TO_DECEL=250
SET_VELOCITY_LIMIT SQUARE_CORNER_VELOCITY=9
EXCLUDE_OBJECT_START NAME=motor_gear_big.stl_id_0_copy_0
G1 Z.2 F30000
G1 X99.91 Y109.286
G1 Z.2
G1 E.6 F2400
;TYPE:Inner wall
;WIDTH:0.499999
G1 F3600
G1 X99.938 Y109.166 E.00444
G1 X100.079 Y107.985 E.04297
G1 X99.983 Y107.557 E.01582
G1 X99.772 Y107.257 E.01324
G1 X100.105 Y107.103 E.01324
G1 X100.276 Y106.949 E.00829
G1 X100.45 Y106.696 E.01111
G1 X100.869 Y105.691 E.03932
G1 X100.967 Y105.272 E.01552
G1 X100.924 Y104.913 E.01308
G1 X100.841 Y104.719 E.00763
G1 X101.011 Y104.697 E.00621
G1 X101.388 Y104.543 E.0147
G1 X101.521 Y104.445 E.00598
G1 X101.701 Y104.249 E.00959
G1 X102.414 Y103.296 E.04297
G1 X102.544 Y102.877 E.01583
G1 X102.511 Y102.51 E.0133
G1 X102.878 Y102.543 E.0133
G1 X103.224 Y102.45 E.01294
G1 X103.475 Y102.295 E.01065
G1 X104.41 Y101.56 E.04294
G1 X104.644 Y101.19 E.01582
G1 X104.707 Y100.828 E.01324
G1 X105.052 Y100.954 E.01324
G1 X105.281 Y100.967 E.00829
G1 X105.692 Y100.869 E.01524
G1 X106.785 Y100.401 E.04294
G1 X107.107 Y100.103 E.01582
G1 X107.261 Y99.771 E.01324
G1 X107.562 Y99.982 E.01324
G1 X107.908 Y100.073 E.01293
G1 X108.202 Y100.065 E.01062
G1 X109.376 Y99.896 E.04284
G1 X109.764 Y99.691 E.01583
G1 X110 Y99.409 E.0133
G1 X110.237 Y99.691 E.0133
G1 X110.548 Y99.87 E.01294
G1 X110.835 Y99.938 E.01065
G1 X112.015 Y100.079 E.04293
G1 X112.443 Y99.983 E.01582
G1 X112.743 Y99.772 E.01324
G1 X112.897 Y100.105 E.01324
G1 X113.051 Y100.276 E.00829
G1 X113.304 Y100.45 E.0111
G1 X114.309 Y100.869 E.03933
G1 X114.728 Y100.967 E.01552
G1 X115.087 Y100.924 E.01309
G1 X115.281 Y100.841 E.00763
G1 X115.303 Y101.011 E.00621
G1 X115.457 Y101.388 E.0147
G1 X115.555 Y101.521 E.00598
G1 X115.751 Y101.701 E.00959
G1 X116.704 Y102.414 E.04297
G1 X117.122 Y102.544 E.01583
G1 X117.489 Y102.511 E.01331
G1 X117.457 Y102.878 E.01331
G1 X117.55 Y103.224 E.01293
G1 X117.705 Y103.475 E.01065
G1 X118.44 Y104.41 E.04293
G1 X118.81 Y104.644 E.01582
G1 X119.172 Y104.707 E.01324
G1 X119.046 Y105.052 E.01324
G1 X119.033 Y105.281 E.00829
G1 X119.089 Y105.583 E.0111
G1 X119.503 Y106.591 E.03932
G1 X119.73 Y106.956 E.01551
G1 X120.014 Y107.18 E.01307
G1 X120.211 Y107.258 E.00766
G1 X120.105 Y107.394 E.00624
G1 X119.948 Y107.769 E.01469
G1 X119.924 Y107.933 E.00597
G1 X119.934 Y108.198 E.00959
G1 X120.104 Y109.376 E.04297
G1 X120.31 Y109.766 E.01593
G1 X120.592 Y110 E.01322
G1 X120.31 Y110.234 E.01322
G1 X120.13 Y110.546 E.01303
G1 X120.062 Y110.834 E.01066
G1 X119.921 Y112.015 E.04297
G1 X120.017 Y112.443 E.01582
G1 X120.228 Y112.743 E.01324
G1 X119.895 Y112.897 E.01324
G1 X119.724 Y113.051 E.00829
G1 X119.55 Y113.304 E.0111
G1 X119.131 Y114.309 E.03932
G1 X119.033 Y114.728 E.01552
G1 X119.076 Y115.087 E.01308
G1 X119.159 Y115.281 E.00763
G1 X118.989 Y115.303 E.00621
G1 X118.612 Y115.457 E.0147
G1 X118.479 Y115.555 E.00598
G1 X118.299 Y115.751 E.00959
G1 X117.586 Y116.704 E.04297
G1 X117.456 Y117.123 E.01583
G1 X117.489 Y117.49 E.0133
G1 X117.122 Y117.457 E.0133
G1 X116.776 Y117.55 E.01294
G1 X116.525 Y117.705 E.01065
G1 X115.59 Y118.44 E.04294
G1 X115.356 Y118.81 E.01582
G1 X115.293 Y119.172 E.01324
G1 X114.948 Y119.046 E.01324
G1 X114.719 Y119.033 E.00829
G1 X114.417 Y119.089 E.0111
G1 X113.409 Y119.503 E.03932
G1 X113.044 Y119.73 E.01551
G1 X112.821 Y120.014 E.01306
G1 X112.742 Y120.211 E.00767
M73 P1 R6
G1 X112.605 Y120.105 E.00625
G1 X112.231 Y119.948 E.01468
G1 X112.067 Y119.924 E.00597
G1 X111.802 Y119.934 E.00959
G1 X110.624 Y120.104 E.04297
G1 X110.236 Y120.309 E.01583
G1 X110 Y120.591 E.0133
G1 X109.763 Y120.309 E.0133
G1 X109.452 Y120.13 E.01294
G1 X109.165 Y120.062 E.01065
G1 X107.985 Y119.921 E.04293
G1 X107.557 Y120.017 E.01582
G1 X107.257 Y120.228 E.01324
G1 X107.103 Y119.895 E.01324
G1 X106.949 Y119.724 E.00829
G1 X106.696 Y119.55 E.01111
G1 X105.679 Y119.125 E.03977
G1 X105.272 Y119.033 E.01507
G1 X104.912 Y119.076 E.01309
G1 X104.719 Y119.159 E.00762
G1 X104.697 Y118.989 E.0062
G1 X104.543 Y118.612 E.01471
G1 X104.445 Y118.479 E.00598
G1 X104.249 Y118.299 E.00959
G1 X103.296 Y117.586 E.04297
G1 X102.878 Y117.456 E.01583
G1 X102.511 Y117.489 E.01331
G1 X102.543 Y117.122 E.01331
G1 X102.45 Y116.776 E.01293
G1 X102.295 Y116.525 E.01065
G1 X101.56 Y115.59 E.04293
G1 X101.19 Y115.356 E.01582
G1 X100.828 Y115.293 E.01324
G1 X100.954 Y114.948 E.01324
G1 X100.967 Y114.719 E.00829
G1 X100.911 Y114.416 E.0111
G1 X100.497 Y113.409 E.03932
G1 X100.27 Y113.044 E.01551
G1 X99.986 Y112.82 E.01307
G1 X99.789 Y112.742 E.00766
G1 X99.895 Y112.606 E.00624
G1 X100.052 Y112.231 E.01469
G1 X100.076 Y112.067 E.00597
G1 X100.066 Y111.802 E.00959
G1 X99.896 Y110.624 E.04297
G1 X99.69 Y110.234 E.01593
G1 X99.408 Y110 E.01322
G1 X99.69 Y109.766 E.01322
G1 X99.87 Y109.454 E.01303
G1 X99.9 Y109.325 E.00478
G1 X99.46 Y109.198 F30000
G1 F3600
G1 X99.483 Y109.123 E.00284
G1 X99.536 Y108.622 E.01817
G1 X99.622 Y108.055 E.02072
G1 X99.565 Y107.742 E.0115
G1 X99.411 Y107.523 E.00966
G1 X98.387 Y106.888 E.0435
G1 X98.806 Y106.862 E.01517
G1 X99.471 Y106.876 E.02401
G1 X99.835 Y106.734 E.01411
G1 X99.937 Y106.642 E.00498
G1 X100.07 Y106.426 E.00915
G1 X100.499 Y105.353 E.04173
G1 X100.478 Y105.015 E.01221
G1 X100.26 Y104.651 E.01532
G1 X99.855 Y104.294 E.0195
G1 X99.595 Y104.001 E.01414
G1 X99.984 Y104.066 E.01426
G1 X100.655 Y104.27 E.02529
G1 X100.9 Y104.254 E.00888
G1 X101.144 Y104.157 E.00947
G1 X101.332 Y103.981 E.0093
G1 X101.627 Y103.575 E.01811
G1 X101.976 Y103.139 E.02017
G1 X102.089 Y102.829 E.01193
G1 X102.029 Y102.439 E.01423
G1 X101.674 Y101.857 E.0246
G1 X101.502 Y101.513 E.01391
G1 X101.857 Y101.674 E.01409
G1 X102.439 Y102.029 E.0246
G1 X102.829 Y102.089 E.01426
G1 X102.964 Y102.06 E.00498
G1 X103.184 Y101.943 E.00901
G1 X103.575 Y101.627 E.01814
G1 X104.037 Y101.286 E.02071
G1 X104.218 Y101.024 E.0115
G1 X104.264 Y100.761 E.00966
G1 X103.989 Y99.588 E.0435
G1 X104.303 Y99.866 E.01517
G1 X104.764 Y100.346 E.02401
G1 X105.122 Y100.503 E.01411
G1 X105.259 Y100.51 E.00497
G1 X105.499 Y100.455 E.00887
G1 X105.961 Y100.249 E.01826
G1 X106.494 Y100.041 E.02065
G1 X106.738 Y99.834 E.01157
G1 X106.851 Y99.591 E.00966
G1 X106.888 Y98.387 E.04349
G1 X107.12 Y98.737 E.01516
G1 X107.441 Y99.319 E.024
G1 X107.746 Y99.564 E.01412
G1 X107.877 Y99.606 E.00498
G1 X108.095 Y99.618 E.00787
G1 X108.622 Y99.536 E.01928
G1 X109.177 Y99.475 E.02016
G1 X109.477 Y99.336 E.01194
G1 X109.71 Y99.016 E.01426
G1 X109.871 Y98.355 E.02458
G1 X110 Y97.977 E.01441
G1 X110.129 Y98.355 E.01441
G1 X110.29 Y99.016 E.02458
G1 X110.524 Y99.336 E.01428
G1 X110.639 Y99.411 E.00498
G1 X110.875 Y99.483 E.00892
G1 X111.378 Y99.536 E.01823
G1 X111.945 Y99.622 E.02071
G1 X112.258 Y99.565 E.0115
G1 X112.477 Y99.411 E.00966
G1 X113.112 Y98.387 E.04349
G1 X113.138 Y98.806 E.01516
G1 X113.124 Y99.471 E.02401
G1 X113.266 Y99.835 E.01411
G1 X113.358 Y99.937 E.00498
G1 X113.574 Y100.07 E.00915
G1 X114.647 Y100.499 E.04173
G1 X114.985 Y100.478 E.01221
G1 X115.349 Y100.26 E.01531
G1 X115.706 Y99.855 E.0195
G1 X115.998 Y99.595 E.01414
G1 X115.934 Y99.984 E.01426
G1 X115.73 Y100.655 E.02529
G1 X115.746 Y100.9 E.00887
G1 X115.843 Y101.144 E.00947
G1 X116.019 Y101.332 E.0093
G1 X116.425 Y101.627 E.01812
G1 X116.861 Y101.976 E.02017
G1 X117.171 Y102.089 E.01192
G1 X117.561 Y102.028 E.01426
G1 X118.143 Y101.674 E.02458
G1 X118.487 Y101.502 E.0139
G1 X118.326 Y101.857 E.01409
G1 X117.971 Y102.439 E.02459
G1 X117.911 Y102.83 E.01428
G1 X117.94 Y102.964 E.00497
G1 X118.057 Y103.184 E.00901
G1 X118.373 Y103.575 E.01814
G1 X118.714 Y104.037 E.02072
G1 X118.976 Y104.218 E.0115
G1 X119.239 Y104.264 E.00966
G1 X120.412 Y103.989 E.0435
G1 X120.134 Y104.303 E.01516
G1 X119.654 Y104.764 E.02403
G1 X119.497 Y105.122 E.01411
G1 X119.49 Y105.26 E.00497
G1 X119.549 Y105.506 E.00915
G1 X120.004 Y106.568 E.04173
M73 P2 R6
G1 X120.258 Y106.791 E.01219
G1 X120.669 Y106.895 E.01533
G1 X121.208 Y106.861 E.0195
G1 X121.599 Y106.884 E.01414
G1 X121.278 Y107.114 E.01426
G1 X120.66 Y107.443 E.02528
G1 X120.498 Y107.629 E.00891
G1 X120.394 Y107.869 E.00946
G1 X120.386 Y108.127 E.0093
G1 X120.464 Y108.622 E.01811
G1 X120.525 Y109.178 E.02017
G1 X120.666 Y109.479 E.01199
G1 X120.983 Y109.71 E.01417
G1 X121.645 Y109.871 E.02461
G1 X122.023 Y109.999 E.01442
G1 X121.645 Y110.129 E.01445
G1 X120.983 Y110.29 E.02461
G1 X120.666 Y110.521 E.01417
G1 X120.59 Y110.638 E.00501
G1 X120.517 Y110.877 E.00904
G1 X120.464 Y111.378 E.01817
G1 X120.378 Y111.945 E.02072
G1 X120.435 Y112.258 E.0115
G1 X120.589 Y112.477 E.00966
G1 X121.613 Y113.112 E.0435
G1 X121.194 Y113.138 E.01517
G1 X120.529 Y113.124 E.02401
G1 X120.165 Y113.266 E.01411
G1 X120.063 Y113.358 E.00498
G1 X119.93 Y113.574 E.00915
G1 X119.501 Y114.647 E.04173
G1 X119.522 Y114.985 E.01221
G1 X119.74 Y115.349 E.01532
G1 X120.145 Y115.706 E.0195
G1 X120.405 Y115.999 E.01414
G1 X120.016 Y115.934 E.01426
G1 X119.345 Y115.73 E.02529
G1 X119.1 Y115.746 E.00888
G1 X118.856 Y115.843 E.00947
G1 X118.668 Y116.019 E.0093
G1 X118.373 Y116.425 E.01811
G1 X118.024 Y116.861 E.02017
G1 X117.911 Y117.171 E.01193
G1 X117.971 Y117.561 E.01424
G1 X118.326 Y118.143 E.0246
G1 X118.498 Y118.487 E.01391
G1 X118.143 Y118.326 E.01409
G1 X117.561 Y117.971 E.0246
G1 X117.171 Y117.911 E.01426
G1 X117.036 Y117.94 E.00498
G1 X116.816 Y118.057 E.00901
G1 X116.425 Y118.373 E.01814
G1 X115.963 Y118.714 E.02071
G1 X115.782 Y118.976 E.0115
G1 X115.736 Y119.239 E.00966
G1 X116.011 Y120.412 E.0435
G1 X115.697 Y120.134 E.01517
G1 X115.236 Y119.654 E.02401
G1 X114.878 Y119.497 E.01411
G1 X114.741 Y119.49 E.00497
G1 X114.494 Y119.549 E.00915
G1 X113.432 Y120.004 E.04173
G1 X113.209 Y120.257 E.01219
G1 X113.105 Y120.669 E.01534
G1 X113.139 Y121.208 E.0195
G1 X113.116 Y121.599 E.01413
G1 X112.886 Y121.278 E.01425
G1 X112.557 Y120.661 E.02527
G1 X112.371 Y120.498 E.00893
G1 X112.13 Y120.394 E.00945
G1 X111.873 Y120.386 E.0093
G1 X111.378 Y120.464 E.01811
G1 X110.822 Y120.525 E.02017
G1 X110.523 Y120.664 E.01193
G1 X110.29 Y120.984 E.01426
G1 X110.129 Y121.645 E.02458
G1 X110.008 Y122.01 E.01389
G1 X109.871 Y121.645 E.01408
G1 X109.71 Y120.984 E.02458
G1 X109.476 Y120.664 E.01428
G1 X109.361 Y120.589 E.00498
G1 X109.122 Y120.517 E.00901
G1 X108.622 Y120.464 E.01814
G1 X108.055 Y120.378 E.02071
G1 X107.742 Y120.435 E.0115
G1 X107.523 Y120.589 E.00966
G1 X106.888 Y121.613 E.04349
G1 X106.862 Y121.194 E.01516
G1 X106.876 Y120.529 E.02401
G1 X106.734 Y120.165 E.01411
G1 X106.642 Y120.063 E.00498
G1 X106.426 Y119.93 E.00915
G1 X105.353 Y119.501 E.04173
G1 X105.015 Y119.522 E.01221
G1 X104.651 Y119.74 E.01531
G1 X104.294 Y120.145 E.0195
G1 X104.002 Y120.405 E.01413
G1 X104.066 Y120.016 E.01426
G1 X104.27 Y119.345 E.02529
G1 X104.254 Y119.1 E.00887
G1 X104.157 Y118.856 E.00947
G1 X103.981 Y118.668 E.0093
G1 X103.575 Y118.373 E.01812
G1 X103.139 Y118.024 E.02017
G1 X102.829 Y117.911 E.01192
G1 X102.439 Y117.972 E.01426
G1 X101.857 Y118.326 E.02458
G1 X101.513 Y118.498 E.0139
G1 X101.674 Y118.143 E.01409
G1 X102.029 Y117.561 E.02459
G1 X102.089 Y117.17 E.01428
G1 X102.06 Y117.036 E.00497
G1 X101.943 Y116.816 E.00901
G1 X101.627 Y116.425 E.01814
G1 X101.286 Y115.963 E.02072
G1 X101.024 Y115.782 E.0115
G1 X100.761 Y115.736 E.00966
G1 X99.588 Y116.011 E.0435
G1 X99.866 Y115.697 E.01516
G1 X100.346 Y115.236 E.02403
G1 X100.503 Y114.878 E.01411
G1 X100.51 Y114.74 E.00497
G1 X100.451 Y114.494 E.00915
G1 X99.996 Y113.432 E.04173
G1 X99.742 Y113.209 E.01219
G1 X99.331 Y113.105 E.01533
G1 X98.792 Y113.139 E.0195
G1 X98.401 Y113.116 E.01414
G1 X98.722 Y112.886 E.01426
G1 X99.34 Y112.557 E.02528
G1 X99.502 Y112.371 E.00891
G1 X99.606 Y112.131 E.00946
G1 X99.614 Y111.873 E.0093
G1 X99.536 Y111.378 E.01811
G1 X99.475 Y110.822 E.02017
G1 X99.334 Y110.521 E.01199
G1 X99.017 Y110.291 E.01416
;WIDTH:0.499268
G1 X98.355 Y110.131 E.02456
;WIDTH:0.496886
G1 X97.989 Y110.009 E.01382
G1 X98.355 Y109.869 E.01404
;WIDTH:0.499268
G1 X99.017 Y109.709 E.02456
;WIDTH:0.499999
G1 X99.334 Y109.479 E.01416
G1 X99.41 Y109.362 E.00501
G1 X99.449 Y109.236 E.00476
G1 X99.033 Y109.033 F30000
;TYPE:Outer wall
G1 F3600
G1 X99.082 Y108.563 E.01709
G1 X99.165 Y108.031 E.01944
G1 X99.095 Y107.853 E.00689
G1 X98.093 Y107.243 E.04235
G1 X97.465 Y106.689 E.03027
G1 X97.459 Y106.607 E.00294
G1 X97.769 Y106.526 E.01159
G1 X98.31 Y106.434 E.01981
G1 X98.778 Y106.402 E.01693
G1 X99.293 Y106.438 E.01865
G1 X99.565 Y106.365 E.01016
M73 P3 R6
G1 X99.643 Y106.265 E.00457
G1 X99.826 Y105.786 E.01851
G1 X100.034 Y105.319 E.01845
G1 X100.045 Y105.163 E.00563
G1 X99.927 Y104.964 E.00837
G1 X99.55 Y104.634 E.01808
G1 X99.213 Y104.256 E.01831
G1 X98.746 Y103.553 E.03044
G1 X98.76 Y103.484 E.00254
G1 X99.612 Y103.531 E.03081
G1 X100.093 Y103.621 E.01768
G1 X100.574 Y103.777 E.01826
G1 X100.789 Y103.81 E.00784
G1 X100.962 Y103.712 E.00719
G1 X101.626 Y102.825 E.04
G1 X101.591 Y102.571 E.00926
G1 X101.295 Y102.112 E.0197
G1 X101.067 Y101.659 E.01831
G1 X100.798 Y100.86 E.03044
G1 X100.829 Y100.797 E.00254
G1 X101.64 Y101.063 E.03081
G1 X102.08 Y101.273 E.01761
G1 X102.509 Y101.562 E.01865
G1 X102.781 Y101.634 E.01016
G1 X102.899 Y101.586 E.00462
G1 X103.296 Y101.264 E.01847
G1 X103.731 Y100.946 E.01944
G1 X103.807 Y100.771 E.00689
G1 X103.53 Y99.631 E.04235
G1 X103.478 Y98.795 E.03026
G1 X103.531 Y98.733 E.00294
G1 X103.808 Y98.895 E.01159
G1 X104.255 Y99.213 E.01981
G1 X104.609 Y99.521 E.01693
G1 X104.948 Y99.91 E.01866
G1 X105.192 Y100.051 E.01016
G1 X105.318 Y100.035 E.00457
G1 X105.786 Y99.826 E.01851
G1 X106.288 Y99.632 E.01944
G1 X106.407 Y99.483 E.00689
G1 X106.434 Y98.31 E.04235
G1 X106.6 Y97.488 E.03027
G1 X106.667 Y97.443 E.00294
G1 X106.894 Y97.671 E.01159
G1 X107.243 Y98.093 E.01981
G1 X107.505 Y98.482 E.01692
G1 X107.732 Y98.947 E.01866
G1 X107.931 Y99.146 E.01017
G1 X108.059 Y99.162 E.00466
G1 X109.152 Y99.005 E.03987
G1 X109.307 Y98.8 E.00928
G1 X109.422 Y98.267 E.01969
G1 X109.581 Y97.786 E.01831
G1 X109.954 Y97.035 E.03026
G1 X110.031 Y97.008 E.00294
G1 X110.19 Y97.287 E.01159
G1 X110.419 Y97.786 E.01981
G1 X110.571 Y98.229 E.01692
G1 X110.67 Y98.736 E.01865
G1 X110.811 Y98.98 E.01017
G1 X110.928 Y99.029 E.00459
G1 X111.437 Y99.082 E.0185
G1 X111.969 Y99.165 E.01944
G1 X112.147 Y99.095 E.00689
G1 X112.757 Y98.093 E.04235
G1 X113.311 Y97.465 E.03027
G1 X113.393 Y97.459 E.00294
