; HEADER_BLOCK_START
; generated by OrcaSlicer 2.1.1 on 2024-09-07 at 21:26:31
; total layer number: 25
; filament_density: 1.27
; filament_diameter: 1.75
; max_z_height: 5.00
; HEADER_BLOCK_END

; THUMBNAIL_BLOCK_START

;
; THUMBNAIL_BLOCK_END

; THUMBNAIL_BLOCK_START

;
; THUMBNAIL_BLOCK_END

; external perimeters extrusion width = 0.42mm
; perimeters extrusion width = 0.45mm
; infill extrusion width = 0.45mm
; solid infill extrusion width = 0.42mm
; top infill extrusion width = 0.42mm
; first layer extrusion width = 0.50mm

; EXECUTABLE_BLOCK_START
EXCLUDE_OBJECT_DEFINE NAME=motor_gear_big.stl_id_0_copy_0 CENTER=110,110 POLYGON=[[96.5,109.739],[96.8925,106.758],[97.0275,106.254],[98.1783,103.476],[98.439,103.024],[100.27,100.638],[100.638,100.27],[103.024,98.439],[103.476,98.1783],[106.254,97.0275],[106.758,96.8925],[109.739,96.5],[110.261,96.5],[113.242,96.8925],[113.746,97.0275],[116.524,98.1783],[116.976,98.439],[119.362,100.27],[119.73,100.638],[121.561,103.024],[121.822,103.476],[122.973,106.254],[123.107,106.758],[123.5,109.739],[123.5,110.261],[123.107,113.242],[122.973,113.746],[121.822,116.524],[121.561,116.976],[119.73,119.362],[119.362,119.73],[116.976,121.561],[116.524,121.822],[113.746,122.973],[113.242,123.107],[110.261,123.5],[109.739,123.5],[106.758,123.107],[106.254,122.973],[103.476,121.822],[103.024,121.561],[100.638,119.73],[100.27,119.362],[98.439,116.976],[98.1783,116.524],[97.0275,113.746],[96.8925,113.242],[96.5,110.261],[96.5,109.739]]
M73 P0 R6
M106 S0
M106 P2 S0
;TYPE:Custom
M140 S0
M104 S0 
START_PRINT EXTRUDER_TEMP=250 BED_TEMP=70
G90
G21
M83 ; use relative distances for extrusion
; filament start gcode
M106 S0
M106 P2 S0
;LAYER_CHANGE
;Z:0.2
;HEIGHT:0.2
;BEFORE_LAYER_CHANGE
;0.2
G92 E0

G1 E-.6 F2400
;_SET_FAN_SPEED_CHANGING_LAYER
SET_VELOCITY_LIMIT ACCEL=500 ACCEL_TO_DECEL=250
SET_VELOCITY_LIMIT SQUARE_CORNER_VELOCITY=9
EXCLUDE_OBJECT_START NAME=motor_gear_big.stl_id_0_copy_0
G1 Z.2 F30000
G1 X100.424 Y113.283
G1 Z.2
G1 E.6 F2400
;TYPE:Inner wall
;WIDTH:0.499999
G1 F3600
G1 X100.321 Y113.104 E.00745
G1 X99.986 Y112.82 E.01586
G1 X99.789 Y112.742 E.00766
G1 X99.918 Y112.567 E.00786
G1 X100.067 Y112.153 E.01586
G1 X100.066 Y111.802 E.0127
G1 X99.899 Y110.633 E.04261
G1 X99.697 Y110.243 E.01585
G1 X99.407 Y110 E.01368
G1 X99.697 Y109.757 E.01368
G1 X99.822 Y109.561 E.00838
G1 X99.939 Y109.163 E.01498
G1 X100.08 Y107.995 E.04248
G1 X99.988 Y107.569 E.01575
G1 X99.771 Y107.257 E.01369
G1 X100.115 Y107.095 E.01369
G1 X100.284 Y106.94 E.00832
G1 X100.453 Y106.69 E.01087
G1 X100.869 Y105.691 E.03909
G1 X100.961 Y105.351 E.01272
G1 X100.924 Y104.913 E.01588
G1 X100.841 Y104.719 E.00763
G1 X101.055 Y104.686 E.00783
G1 X101.453 Y104.499 E.01588
G1 X101.701 Y104.249 E.01271
G1 X102.409 Y103.305 E.0426
G1 X102.543 Y102.89 E.01576
G1 X102.511 Y102.51 E.01376
G1 X102.89 Y102.542 E.01376
G1 X103.115 Y102.492 E.00832
G1 X103.477 Y102.294 E.01491
G1 X104.403 Y101.567 E.04248
G1 X104.639 Y101.201 E.01574
G1 X104.707 Y100.828 E.01369
G1 X105.064 Y100.956 E.01369
G1 X105.294 Y100.966 E.00832
G1 X105.692 Y100.869 E.01478
G1 X106.776 Y100.406 E.04257
G1 X107.099 Y100.113 E.01575
G1 X107.261 Y99.77 E.01369
G1 X107.573 Y99.987 E.01369
G1 X107.793 Y100.056 E.00832
G1 X108.202 Y100.065 E.01478
G1 X109.367 Y99.899 E.04247
G1 X109.755 Y99.699 E.01576
G1 X110 Y99.408 E.01376
G1 X110.246 Y99.699 E.01376
G1 X110.441 Y99.823 E.00832
G1 X110.837 Y99.939 E.01491
G1 X112.005 Y100.08 E.04247
G1 X112.431 Y99.988 E.01575
G1 X112.743 Y99.771 E.01369
G1 X112.905 Y100.115 E.01369
G1 X113.06 Y100.284 E.00832
G1 X113.309 Y100.452 E.01082
G1 X114.309 Y100.869 E.03914
G1 X114.649 Y100.961 E.01272
G1 X115.087 Y100.924 E.01588
G1 X115.281 Y100.841 E.00763
G1 X115.314 Y101.055 E.00783
G1 X115.501 Y101.453 E.01588
G1 X115.751 Y101.701 E.01271
G1 X116.695 Y102.409 E.04261
G1 X117.11 Y102.543 E.01575
G1 X117.49 Y102.511 E.01376
G1 X117.458 Y102.891 E.01376
G1 X117.508 Y103.115 E.00832
G1 X117.706 Y103.477 E.0149
G1 X118.433 Y104.403 E.04248
G1 X118.799 Y104.639 E.01574
G1 X119.172 Y104.707 E.01369
G1 X119.044 Y105.064 E.01369
G1 X119.034 Y105.294 E.00832
G1 X119.091 Y105.588 E.01082
G1 X119.503 Y106.591 E.03914
G1 X119.679 Y106.896 E.01271
G1 X120.014 Y107.18 E.01586
G1 X120.211 Y107.258 E.00766
G1 X120.082 Y107.433 E.00786
G1 X119.933 Y107.847 E.01586
G1 X119.934 Y108.198 E.0127
G1 X120.101 Y109.367 E.04261
G1 X120.303 Y109.757 E.01585
G1 X120.593 Y110 E.01368
G1 X120.303 Y110.243 E.01368
G1 X120.178 Y110.439 E.00838
G1 X120.061 Y110.837 E.01497
G1 X119.92 Y112.005 E.04248
G1 X120.012 Y112.431 E.01575
G1 X120.229 Y112.743 E.01369
G1 X119.885 Y112.905 E.01369
G1 X119.716 Y113.06 E.00832
G1 X119.548 Y113.309 E.01082
G1 X119.131 Y114.309 E.03914
G1 X119.039 Y114.649 E.01272
G1 X119.076 Y115.087 E.01588
G1 X119.159 Y115.281 E.00763
G1 X118.945 Y115.314 E.00783
G1 X118.547 Y115.501 E.01588
G1 X118.299 Y115.751 E.01271
G1 X117.591 Y116.695 E.0426
G1 X117.457 Y117.11 E.01576
G1 X117.489 Y117.49 E.01376
G1 X117.11 Y117.458 E.01376
M73 P1 R6
G1 X116.885 Y117.508 E.00832
G1 X116.523 Y117.706 E.01491
G1 X115.597 Y118.433 E.04248
G1 X115.361 Y118.799 E.01574
G1 X115.293 Y119.172 E.01369
G1 X114.936 Y119.044 E.01369
G1 X114.706 Y119.034 E.00832
G1 X114.412 Y119.091 E.01082
G1 X113.409 Y119.503 E.03914
G1 X113.104 Y119.679 E.01271
G1 X112.821 Y120.014 E.01585
G1 X112.742 Y120.211 E.00767
G1 X112.566 Y120.082 E.00788
G1 X112.153 Y119.933 E.01585
G1 X111.802 Y119.934 E.0127
G1 X110.633 Y120.101 E.0426
G1 X110.245 Y120.301 E.01576
G1 X110 Y120.592 E.01376
G1 X109.754 Y120.301 E.01376
G1 X109.559 Y120.177 E.00832
G1 X109.163 Y120.061 E.01491
G1 X107.995 Y119.92 E.04247
G1 X107.569 Y120.012 E.01575
G1 X107.257 Y120.229 E.01369
G1 X107.095 Y119.885 E.01369
G1 X106.94 Y119.716 E.00832
G1 X106.69 Y119.547 E.01087
G1 X105.691 Y119.131 E.03909
G1 X105.351 Y119.039 E.01272
G1 X104.912 Y119.076 E.01589
G1 X104.719 Y119.159 E.00762
G1 X104.686 Y118.945 E.00783
G1 X104.499 Y118.547 E.01589
G1 X104.249 Y118.299 E.01271
G1 X103.305 Y117.591 E.0426
G1 X102.89 Y117.457 E.01575
G1 X102.51 Y117.489 E.01376
G1 X102.542 Y117.109 E.01376
G1 X102.492 Y116.885 E.00832
G1 X102.294 Y116.523 E.0149
G1 X101.567 Y115.597 E.04248
G1 X101.201 Y115.361 E.01574
G1 X100.828 Y115.293 E.01369
G1 X100.956 Y114.936 E.01369
G1 X100.966 Y114.706 E.00832
G1 X100.909 Y114.41 E.01087
G1 X100.497 Y113.409 E.03909
G1 X100.444 Y113.318 E.00382
G1 X100.034 Y113.548 F30000
G1 F3600
G1 X99.965 Y113.39 E.00623
G1 X99.742 Y113.209 E.01036
G1 X99.331 Y113.105 E.01533
G1 X98.792 Y113.139 E.0195
G1 X98.397 Y113.101 E.01432
G1 X99.142 Y112.672 E.03104
G1 X99.401 Y112.502 E.01119
G1 X99.594 Y112.177 E.01366
G1 X99.614 Y111.873 E.01098
G1 X99.536 Y111.378 E.01811
G1 X99.475 Y110.825 E.02009
G1 X99.339 Y110.527 E.01181
G1 X99.017 Y110.291 E.01442
;WIDTH:0.499268
G1 X98.355 Y110.131 E.02456
;WIDTH:0.496886
G1 X97.989 Y110.009 E.01382
G1 X98.355 Y109.869 E.01404
;WIDTH:0.499268
G1 X99.017 Y109.709 E.02456
;WIDTH:0.499999
G1 X99.339 Y109.473 E.01442
G1 X99.414 Y109.355 E.00503
G1 X99.479 Y109.152 E.00772
G1 X99.536 Y108.622 E.01923
G1 X99.622 Y108.06 E.02055
G1 X99.567 Y107.749 E.01141
G1 X99.411 Y107.523 E.00992
G1 X98.387 Y106.888 E.0435
G1 X98.806 Y106.862 E.01517
G1 X99.471 Y106.876 E.02401
G1 X99.841 Y106.729 E.01437
G1 X99.943 Y106.636 E.00499
G1 X100.07 Y106.426 E.00887
G1 X100.507 Y105.301 E.04357
G1 X100.478 Y105.015 E.01037
G1 X100.26 Y104.651 E.01532
G1 X99.855 Y104.294 E.0195
G1 X99.602 Y103.988 E.01432
G1 X100.433 Y104.212 E.03105
G1 X100.736 Y104.274 E.01119
G1 X101.103 Y104.181 E.01364
G1 X101.332 Y103.981 E.01099
G1 X101.627 Y103.575 E.01811
G1 X101.975 Y103.141 E.02009
G1 X102.089 Y102.836 E.01175
G1 X102.029 Y102.439 E.01449
G1 X101.674 Y101.857 E.0246
G1 X101.502 Y101.513 E.01391
G1 X101.857 Y101.674 E.01409
G1 X102.439 Y102.029 E.0246
G1 X102.837 Y102.088 E.01452
G1 X102.972 Y102.058 E.00499
G1 X103.161 Y101.96 E.00769
G1 X103.575 Y101.627 E.01919
G1 X104.033 Y101.289 E.02054
G1 X104.215 Y101.031 E.01141
G1 X104.264 Y100.761 E.00992
G1 X103.989 Y99.588 E.0435
G1 X104.303 Y99.866 E.01517
G1 X104.764 Y100.346 E.02401
G1 X105.129 Y100.504 E.01437
G1 X105.267 Y100.51 E.00499
G1 X105.497 Y100.456 E.0085
G1 X105.961 Y100.249 E.01835
G1 X106.486 Y100.044 E.02035
G1 X106.734 Y99.839 E.0116
G1 X106.851 Y99.591 E.00992
G1 X106.888 Y98.387 E.04349
G1 X107.12 Y98.737 E.01516
G1 X107.441 Y99.319 E.024
G1 X107.753 Y99.567 E.01437
G1 X107.885 Y99.608 E.00499
G1 X108.097 Y99.618 E.00768
G1 X108.622 Y99.536 E.01919
G1 X109.175 Y99.475 E.02009
G1 X109.472 Y99.34 E.01175
G1 X109.71 Y99.016 E.01452
G1 X109.871 Y98.355 E.02458
G1 X110 Y97.977 E.01441
G1 X110.129 Y98.355 E.01441
G1 X110.29 Y99.016 E.02458
G1 X110.529 Y99.34 E.01454
G1 X110.646 Y99.414 E.00499
G1 X110.849 Y99.479 E.00769
G1 X111.378 Y99.536 E.01919
G1 X111.94 Y99.622 E.02054
G1 X112.251 Y99.567 E.01141
G1 X112.477 Y99.411 E.00992
G1 X113.112 Y98.387 E.04349
G1 X113.138 Y98.806 E.01516
G1 X113.124 Y99.471 E.02401
G1 X113.271 Y99.841 E.01437
G1 X113.364 Y99.943 E.00499
G1 X113.574 Y100.07 E.00887
G1 X114.699 Y100.507 E.04357
G1 X114.985 Y100.478 E.01037
G1 X115.349 Y100.26 E.01531
G1 X115.706 Y99.855 E.0195
G1 X116.012 Y99.603 E.01432
G1 X115.788 Y100.433 E.03104
G1 X115.726 Y100.736 E.01119
G1 X115.819 Y101.103 E.01364
G1 X116.019 Y101.332 E.01099
G1 X116.425 Y101.627 E.01812
M73 P2 R6
G1 X116.859 Y101.975 E.02008
G1 X117.164 Y102.089 E.01175
G1 X117.561 Y102.028 E.01452
G1 X118.143 Y101.674 E.02458
G1 X118.487 Y101.502 E.0139
G1 X118.326 Y101.857 E.01409
G1 X117.971 Y102.439 E.02459
G1 X117.912 Y102.837 E.01454
G1 X117.942 Y102.972 E.00499
G1 X118.04 Y103.161 E.00769
G1 X118.373 Y103.575 E.01919
G1 X118.711 Y104.033 E.02055
G1 X118.969 Y104.215 E.0114
G1 X119.239 Y104.264 E.00992
G1 X120.412 Y103.989 E.0435
G1 X120.134 Y104.303 E.01516
G1 X119.654 Y104.764 E.02403
G1 X119.496 Y105.129 E.01436
G1 X119.49 Y105.267 E.00499
G1 X119.549 Y105.506 E.00887
G1 X120.035 Y106.61 E.04357
G1 X120.258 Y106.791 E.01036
G1 X120.669 Y106.895 E.01533
G1 X121.208 Y106.861 E.0195
G1 X121.603 Y106.899 E.01432
G1 X120.858 Y107.328 E.03104
G1 X120.599 Y107.498 E.01119
G1 X120.406 Y107.823 E.01366
G1 X120.386 Y108.127 E.01098
G1 X120.464 Y108.622 E.01811
G1 X120.525 Y109.175 E.02009
G1 X120.661 Y109.473 E.01181
G1 X120.983 Y109.71 E.01442
G1 X121.645 Y109.871 E.02461
G1 X122.023 Y109.999 E.01442
G1 X121.645 Y110.129 E.01445
G1 X120.983 Y110.29 E.02461
G1 X120.661 Y110.527 E.01442
G1 X120.586 Y110.645 E.00503
G1 X120.521 Y110.848 E.00772
G1 X120.464 Y111.378 E.01923
G1 X120.378 Y111.94 E.02055
G1 X120.433 Y112.251 E.01141
G1 X120.589 Y112.477 E.00992
G1 X121.613 Y113.112 E.0435
G1 X121.194 Y113.138 E.01517
G1 X120.529 Y113.124 E.02401
G1 X120.159 Y113.271 E.01437
G1 X120.057 Y113.364 E.00499
G1 X119.93 Y113.574 E.00887
G1 X119.493 Y114.699 E.04357
G1 X119.522 Y114.985 E.01037
G1 X119.74 Y115.349 E.01532
G1 X120.145 Y115.706 E.0195
G1 X120.398 Y116.012 E.01432
G1 X119.567 Y115.788 E.03105
G1 X119.264 Y115.726 E.01119
G1 X118.897 Y115.819 E.01364
G1 X118.668 Y116.019 E.01099
G1 X118.373 Y116.425 E.01811
G1 X118.025 Y116.859 E.02009
G1 X117.911 Y117.164 E.01175
G1 X117.971 Y117.561 E.01449
G1 X118.326 Y118.143 E.0246
G1 X118.498 Y118.487 E.01391
G1 X118.143 Y118.326 E.01409
G1 X117.561 Y117.971 E.0246
G1 X117.163 Y117.912 E.01452
G1 X117.028 Y117.942 E.00499
G1 X116.839 Y118.04 E.00769
G1 X116.425 Y118.373 E.01919
G1 X115.967 Y118.711 E.02054
G1 X115.785 Y118.969 E.01141
G1 X115.736 Y119.239 E.00992
G1 X116.011 Y120.412 E.0435
G1 X115.697 Y120.134 E.01517
G1 X115.236 Y119.654 E.02401
G1 X114.871 Y119.496 E.01437
G1 X114.733 Y119.49 E.00499
G1 X114.494 Y119.549 E.00887
G1 X113.437 Y120.001 E.04152
G1 X113.209 Y120.257 E.0124
G1 X113.105 Y120.669 E.01534
G1 X113.139 Y121.208 E.0195
G1 X113.101 Y121.603 E.01431
G1 X112.672 Y120.858 E.03103
G1 X112.502 Y120.599 E.01118
G1 X112.176 Y120.406 E.01367
G1 X111.873 Y120.386 E.01098
G1 X111.378 Y120.464 E.01811
G1 X110.825 Y120.525 E.02009
G1 X110.528 Y120.66 E.01175
G1 X110.29 Y120.984 E.01452
G1 X110.129 Y121.645 E.02458
G1 X110.008 Y122.01 E.01389
G1 X109.871 Y121.645 E.01408
G1 X109.71 Y120.984 E.02458
G1 X109.471 Y120.66 E.01454
G1 X109.354 Y120.586 E.00499
G1 X109.151 Y120.521 E.00769
G1 X108.622 Y120.464 E.01919
G1 X108.06 Y120.378 E.02054
G1 X107.749 Y120.433 E.01141
G1 X107.523 Y120.589 E.00992
G1 X106.888 Y121.613 E.04349
G1 X106.862 Y121.194 E.01516
G1 X106.876 Y120.529 E.02401
G1 X106.729 Y120.159 E.01437
G1 X106.636 Y120.057 E.00499
G1 X106.426 Y119.93 E.00887
G1 X105.301 Y119.493 E.04357
G1 X105.015 Y119.522 E.01038
G1 X104.651 Y119.74 E.01531
G1 X104.294 Y120.145 E.0195
G1 X103.988 Y120.397 E.01432
G1 X104.212 Y119.567 E.03104
G1 X104.274 Y119.264 E.01119
G1 X104.181 Y118.897 E.01364
G1 X103.981 Y118.668 E.01099
G1 X103.575 Y118.373 E.01812
G1 X103.141 Y118.025 E.02008
G1 X102.836 Y117.911 E.01175
G1 X102.439 Y117.972 E.01452
G1 X101.857 Y118.326 E.02458
G1 X101.513 Y118.498 E.0139
G1 X101.674 Y118.143 E.01409
G1 X102.029 Y117.561 E.02459
G1 X102.088 Y117.163 E.01454
G1 X102.058 Y117.028 E.00499
G1 X101.96 Y116.839 E.00769
G1 X101.627 Y116.425 E.01919
G1 X101.289 Y115.967 E.02055
G1 X101.031 Y115.785 E.0114
G1 X100.761 Y115.736 E.00992
G1 X99.588 Y116.011 E.0435
G1 X99.866 Y115.697 E.01516
G1 X100.346 Y115.236 E.02403
G1 X100.504 Y114.871 E.01436
G1 X100.51 Y114.733 E.00499
G1 X100.451 Y114.494 E.00887
G1 X100.051 Y113.584 E.03589
G1 X99.643 Y113.737 F30000
;TYPE:Outer wall
G1 F3600
G1 X99.541 Y113.619 E.00563
G1 X99.316 Y113.562 E.00838
G1 X98.817 Y113.595 E.01808
G1 X98.31 Y113.566 E.01831
G1 X97.484 Y113.399 E.03044
M73 P3 R6
G1 X97.445 Y113.341 E.00254
G1 X98.08 Y112.771 E.03081
G1 X98.484 Y112.494 E.01768
G1 X99.017 Y112.223 E.0216
G1 X99.133 Y112.098 E.00616
G1 X99.163 Y111.945 E.00563
G1 X99.006 Y110.85 E.03992
G1 X98.801 Y110.693 E.00934
G1 X98.267 Y110.578 E.0197
G1 X97.786 Y110.419 E.01831
G1 X97.031 Y110.044 E.03044
G1 X97.008 Y109.977 E.00254
G1 X97.769 Y109.592 E.03081
G1 X98.229 Y109.429 E.01762
G1 X98.736 Y109.33 E.01865
G1 X98.981 Y109.189 E.0102
G1 X99.029 Y109.071 E.0046
G1 X99.082 Y108.563 E.01845
G1 X99.166 Y108.025 E.01966
G1 X99.095 Y107.853 E.00669
G1 X98.093 Y107.243 E.04235
G1 X97.465 Y106.689 E.03027
G1 X97.459 Y106.607 E.00294
G1 X97.769 Y106.526 E.01159
G1 X98.31 Y106.434 E.01981
G1 X98.778 Y106.402 E.01693
G1 X99.293 Y106.438 E.01865
G1 X99.567 Y106.363 E.01025
G1 X99.642 Y106.265 E.00446
G1 X99.826 Y105.786 E.01854
G1 X100.034 Y105.319 E.01845
G1 X100.045 Y105.163 E.00563
G1 X99.927 Y104.964 E.00837
G1 X99.55 Y104.634 E.01808
G1 X99.213 Y104.256 E.01831
G1 X98.746 Y103.553 E.03044
G1 X98.76 Y103.484 E.00254
G1 X99.612 Y103.531 E.03081
G1 X100.093 Y103.621 E.01768
G1 X100.662 Y103.806 E.0216
G1 X100.833 Y103.799 E.00615
G1 X100.962 Y103.712 E.00563
G1 X101.625 Y102.827 E.03991
G1 X101.591 Y102.571 E.00935
G1 X101.295 Y102.112 E.0197
G1 X101.067 Y101.659 E.01831
G1 X100.798 Y100.86 E.03044
G1 X100.829 Y100.797 E.00254
G1 X101.64 Y101.063 E.03081
G1 X102.08 Y101.273 E.01761
G1 X102.509 Y101.562 E.01865
G1 X102.783 Y101.634 E.01025
G1 X102.9 Y101.585 E.00458
G1 X103.296 Y101.264 E.01842
G1 X103.736 Y100.942 E.01966
G1 X103.807 Y100.771 E.00669
G1 X103.53 Y99.631 E.04235
G1 X103.478 Y98.795 E.03026
G1 X103.531 Y98.733 E.00294
G1 X103.808 Y98.895 E.01159
G1 X104.255 Y99.213 E.01981
G1 X104.609 Y99.521 E.01693
G1 X104.948 Y99.91 E.01866
G1 X105.194 Y100.051 E.01025
G1 X105.317 Y100.035 E.00446
G1 X105.786 Y99.826 E.01854
G1 X106.294 Y99.629 E.01966
G1 X106.407 Y99.483 E.00669
G1 X106.434 Y98.31 E.04235
G1 X106.6 Y97.488 E.03027
G1 X106.667 Y97.443 E.00294
G1 X106.894 Y97.671 E.01159
G1 X107.243 Y98.093 E.01981
G1 X107.505 Y98.482 E.01692
G1 X107.732 Y98.947 E.01866
G1 X107.933 Y99.147 E.01025
G1 X108.059 Y99.162 E.00458
G1 X108.563 Y99.082 E.01841
G1 X109.067 Y99.029 E.01832
G1 X109.189 Y98.981 E.00471
G1 X109.307 Y98.8 E.00782
G1 X109.422 Y98.267 E.01969
G1 X109.581 Y97.786 E.01831
G1 X109.954 Y97.035 E.03026
G1 X110.031 Y97.008 E.00294
G1 X110.19 Y97.287 E.01159
