; HEADER_BLOCK_START
; generated by OrcaSlicer 2.1.1 on 2024-09-07 at 20:46:23
; total layer number: 20
; filament_density: 1.27
; filament_diameter: 1.75
; max_z_height: 4.00
; HEADER_BLOCK_END

; THUMBNAIL_BLOCK_START

;
; THUMBNAIL_BLOCK_END

; THUMBNAIL_BLOCK_START

;
; THUMBNAIL_BLOCK_END

; external perimeters extrusion width = 0.42mm
; perimeters extrusion width = 0.45mm
; infill extrusion width = 0.45mm
; solid infill extrusion width = 0.42mm
; top infill extrusion width = 0.42mm
; first layer extrusion width = 0.50mm

; EXECUTABLE_BLOCK_START
EXCLUDE_OBJECT_DEFINE NAME=motor_gear.stl_id_0_copy_0 CENTER=110,110 POLYGON=[[102.5,109.858],[103.434,106.373],[103.576,106.127],[106.127,103.576],[106.373,103.434],[109.858,102.5],[110.142,102.5],[113.627,103.434],[113.873,103.576],[116.424,106.127],[116.566,106.373],[117.5,109.858],[117.5,110.142],[116.566,113.627],[116.424,113.873],[113.873,116.424],[113.627,116.566],[110.142,117.5],[109.858,117.5],[106.373,116.566],[106.127,116.424],[103.576,113.873],[103.434,113.627],[102.5,110.142],[102.5,109.858]]
M73 P0 R4
M106 S0
M106 P2 S0
;TYPE:Custom
M140 S0
M104 S0 
START_PRINT EXTRUDER_TEMP=250 BED_TEMP=70
G90
G21
M83 ; use relative distances for extrusion
; filament start gcode
M106 S0
M106 P2 S0
;LAYER_CHANGE
;Z:0.2
;HEIGHT:0.2
;BEFORE_LAYER_CHANGE
;0.2
G92 E0

G1 E-.6 F2400
;_SET_FAN_SPEED_CHANGING_LAYER
SET_VELOCITY_LIMIT ACCEL=500 ACCEL_TO_DECEL=250
SET_VELOCITY_LIMIT SQUARE_CORNER_VELOCITY=9
EXCLUDE_OBJECT_START NAME=motor_gear.stl_id_0_copy_0
G1 Z.2 F30000
G1 X112.292 Y106.025
G1 Z.2
G1 E.6 F2400
;TYPE:Inner wall
;WIDTH:0.499999
G1 F1376
G1 X112.349 Y106.344 E.01171
G1 X112.468 Y106.553 E.00867
G1 X113.281 Y107.388 E.0421
G1 X113.655 Y107.648 E.01643
G1 X113.974 Y107.703 E.0117
G1 X113.863 Y108.007 E.0117
G1 X113.861 Y108.256 E.009
G1 X114.146 Y109.373 E.0416
G1 X114.317 Y109.757 E.01517
G1 X114.556 Y110 E.0123
G1 X114.317 Y110.243 E.0123
G1 X114.154 Y110.596 E.01403
G1 X113.894 Y111.567 E.0363
G1 X113.863 Y111.998 E.01559
G1 X113.977 Y112.296 E.01152
G1 X113.662 Y112.346 E.01152
G1 X113.304 Y112.589 E.01563
G1 X112.593 Y113.3 E.0363
G1 X112.352 Y113.655 E.01549
G1 X112.298 Y113.974 E.01169
G1 X111.994 Y113.863 E.01169
G1 X111.744 Y113.861 E.00902
G1 X110.627 Y114.146 E.0416
G1 X110.243 Y114.317 E.01519
G1 X110 Y114.556 E.0123
G1 X109.757 Y114.317 E.0123
G1 X109.448 Y114.167 E.01238
G1 X108.397 Y113.904 E.03913
G1 X107.996 Y113.87 E.01453
G1 X107.704 Y113.972 E.01118
G1 X107.655 Y113.666 E.01118
G1 X107.537 Y113.454 E.00877
G1 X107.36 Y113.255 E.00961
G1 X106.555 Y112.471 E.04057
G1 X106.345 Y112.352 E.00874
G1 X106.022 Y112.297 E.0118
G1 X106.135 Y111.99 E.0118
G1 X106.105 Y111.565 E.01537
G1 X105.861 Y110.653 E.03409
G1 X105.682 Y110.238 E.01632
G1 X105.446 Y109.998 E.01218
G1 X105.682 Y109.757 E.01218
G1 X105.846 Y109.404 E.01406
G1 X106.106 Y108.433 E.0363
G1 X106.137 Y108.002 E.01559
G1 X106.023 Y107.704 E.01152
G1 X106.338 Y107.654 E.01152
G1 X106.696 Y107.411 E.01562
G1 X107.407 Y106.7 E.0363
G1 X107.648 Y106.344 E.01552
G1 X107.703 Y106.022 E.0118
G1 X108.01 Y106.135 E.0118
G1 X108.364 Y106.121 E.0128
G1 X109.436 Y105.818 E.04021
G1 X109.803 Y105.645 E.01467
G1 X110.002 Y105.411 E.01109
G1 X110.194 Y105.651 E.01109
G1 X110.59 Y105.845 E.01593
G1 X111.562 Y106.104 E.0363
M73 P1 R4
G1 X111.987 Y106.136 E.01541
G1 X112.254 Y106.039 E.01026
G1 X112.732 Y105.934 F30000
G1 F1376
G1 X112.768 Y106.162 E.0083
G1 X112.839 Y106.287 E.0052
G1 X113.598 Y107.057 E.03904
G1 X113.836 Y107.228 E.01057
G1 X114.153 Y107.283 E.01161
G1 X114.37 Y107.25 E.00794
;WIDTH:0.467852
G1 X114.662 Y107.099 E.01101
;WIDTH:0.422878
G1 X114.953 Y106.949 E.00984
;WIDTH:0.377903
G1 X115.43 Y106.867 E.01281
G1 X115.15 Y107.205 E.01161
;WIDTH:0.406721
G1 X114.747 Y107.47 E.01387
;WIDTH:0.45336
G1 X114.6 Y107.595 E.00624
;WIDTH:0.499999
G1 X114.454 Y107.72 E.00695
G1 X114.317 Y108.059 E.01321
G1 X114.341 Y108.334 E.00996
G1 X114.635 Y109.394 E.03971
G1 X114.857 Y109.664 E.01266
G1 X115.103 Y109.786 E.00988
;WIDTH:0.480601
G1 X115.453 Y109.815 E.01217
;WIDTH:0.440247
G1 X115.804 Y109.844 E.01105
;WIDTH:0.399892
G1 X116.245 Y109.997 E.01316
G1 X116.098 Y110.068 E.00461
G1 X115.593 Y110.188 E.01462
;WIDTH:0.440247
G1 X115.339 Y110.197 E.00797
;WIDTH:0.480601
G1 X115.086 Y110.207 E.00878
;WIDTH:0.499999
G1 X114.975 Y110.252 E.00431
G1 X114.694 Y110.503 E.01361
G1 X114.596 Y110.714 E.00842
G1 X114.336 Y111.686 E.0363
G1 X114.317 Y111.944 E.00935
G1 X114.436 Y112.256 E.01208
G1 X114.538 Y112.384 E.0059
;WIDTH:0.482107
G1 X114.812 Y112.562 E.01131
;WIDTH:0.434451
G1 X115.085 Y112.739 E.01008
;WIDTH:0.386794
G1 X115.42 Y113.132 E.01401
G1 X114.885 Y113.013 E.01488
;WIDTH:0.434451
G1 X114.61 Y112.875 E.00952
;WIDTH:0.482107
G1 X114.335 Y112.737 E.01067
;WIDTH:0.499999
G1 X114.179 Y112.714 E.00569
G1 X113.842 Y112.766 E.01232
G1 X113.627 Y112.912 E.00938
G1 X113.016 Y113.523 E.03119
G1 X112.772 Y113.836 E.01434
G1 X112.717 Y114.154 E.01164
G1 X112.738 Y114.33 E.00639
;WIDTH:0.4831
G1 X112.842 Y114.537 E.00808
;WIDTH:0.447906
G1 X112.947 Y114.745 E.00744
;WIDTH:0.412712
G1 X113.052 Y114.953 E.00679
;WIDTH:0.377517
G1 X113.133 Y115.431 E.01281
G1 X112.758 Y115.11 E.01305
;WIDTH:0.412712
G1 X112.633 Y114.918 E.00669
;WIDTH:0.447906
G1 X112.508 Y114.726 E.00732
;WIDTH:0.4831
G1 X112.383 Y114.535 E.00796
;WIDTH:0.499999
G1 X112.256 Y114.436 E.0058
G1 X111.941 Y114.317 E.01215
G1 X111.666 Y114.341 E.00997
G1 X110.606 Y114.635 E.03972
G1 X110.335 Y114.858 E.01266
G1 X110.213 Y115.108 E.01007
;WIDTH:0.47886
G1 X110.185 Y115.456 E.01201
;WIDTH:0.439631
G1 X110.156 Y115.804 E.01093
;WIDTH:0.400402
G1 X110.003 Y116.245 E.01318
G1 X109.817 Y115.629 E.01817
;WIDTH:0.415672
G1 X109.809 Y115.314 E.00926
;WIDTH:0.457836
G1 X109.78 Y115.147 E.00555
;WIDTH:0.499999
G1 X109.751 Y114.981 E.00611
G1 X109.497 Y114.694 E.01383
G1 X109.312 Y114.604 E.00743
G1 X108.279 Y114.345 E.03846
G1 X108.038 Y114.325 E.00872
G1 X107.726 Y114.434 E.01195
G1 X107.569 Y114.589 E.00795
;WIDTH:0.459459
G1 X107.415 Y114.837 E.00961
;WIDTH:0.42314
G1 X107.261 Y115.085 E.00877
;WIDTH:0.38682
G1 X106.868 Y115.42 E.01401
G1 X106.987 Y114.885 E.01488
;WIDTH:0.42314
G1 X107.115 Y114.643 E.00822
;WIDTH:0.459459
G1 X107.242 Y114.401 E.00901
;WIDTH:0.499999
G1 X107.286 Y114.172 E.00842
G1 X107.235 Y113.845 E.01195
G1 X107.163 Y113.716 E.00532
G1 X106.402 Y112.943 E.03916
G1 X106.164 Y112.772 E.01059
G1 X105.848 Y112.717 E.01158
G1 X105.65 Y112.743 E.00719
;WIDTH:0.476786
G1 X105.349 Y112.897 E.01161
;WIDTH:0.427269
G1 X105.047 Y113.051 E.01028
;WIDTH:0.377751
G1 X104.57 Y113.133 E.01282
G1 X104.891 Y112.757 E.01307
;WIDTH:0.427269
G1 X105.168 Y112.576 E.01005
;WIDTH:0.476786
G1 X105.445 Y112.394 E.01134
;WIDTH:0.499999
G1 X105.558 Y112.256 E.00647
G1 X105.681 Y111.937 E.01235
G1 X105.683 Y111.787 E.00539
G1 X105.538 Y111.213 E.02137
G1 X105.364 Y110.601 E.02297
G1 X105.139 Y110.327 E.01281
G1 X104.875 Y110.208 E.01046
;WIDTH:0.472141
G1 X104.535 Y110.182 E.01153
;WIDTH:0.436297
G1 X104.196 Y110.156 E.01057
;WIDTH:0.400453
G1 X103.755 Y110.003 E.01318
G1 X104.372 Y109.817 E.01819
;WIDTH:0.412979
G1 X104.643 Y109.809 E.00793
;WIDTH:0.456489
G1 X104.822 Y109.785 E.00591
;WIDTH:0.499999
G1 X105.002 Y109.761 E.00653
G1 X105.306 Y109.498 E.01452
G1 X105.404 Y109.286 E.00844
G1 X105.664 Y108.314 E.0363
G1 X105.683 Y108.056 E.00935
G1 X105.564 Y107.744 E.01208
G1 X105.46 Y107.617 E.00591
;WIDTH:0.477691
G1 X105.187 Y107.439 E.01118
;WIDTH:0.432261
G1 X104.915 Y107.261 E.01001
;WIDTH:0.38683
G1 X104.58 Y106.868 E.01401
G1 X105.014 Y106.944 E.01197
;WIDTH:0.407637
G1 X105.458 Y107.169 E.01434
;WIDTH:0.453818
G1 X105.64 Y107.228 E.00618
;WIDTH:0.499999
G1 X105.821 Y107.286 E.00688
G1 X106.158 Y107.234 E.01232
G1 X106.373 Y107.088 E.00937
G1 X107.018 Y106.443 E.03294
G1 X107.228 Y106.163 E.01262
G1 X107.283 Y105.847 E.01159
G1 X107.264 Y105.683 E.00597
;WIDTH:0.484097
G1 X107.159 Y105.471 E.00824
;WIDTH:0.448662
G1 X107.054 Y105.259 E.00758
;WIDTH:0.413227
G1 X106.949 Y105.047 E.00692
;WIDTH:0.377792
G1 X106.867 Y104.57 E.01281
G1 X107.243 Y104.891 E.01307
;WIDTH:0.413227
G1 X107.372 Y105.084 E.0068
;WIDTH:0.448662
G1 X107.501 Y105.278 E.00745
;WIDTH:0.484097
G1 X107.629 Y105.472 E.0081
;WIDTH:0.499999
G1 X107.761 Y105.569 E.00591
G1 X108.063 Y105.681 E.01164
G1 X108.209 Y105.683 E.00524
G1 X109.224 Y105.401 E.03805
M73 P2 R4
G1 X109.538 Y105.272 E.01225
G1 X109.755 Y105.017 E.01209
G1 X109.809 Y104.817 E.00749
;WIDTH:0.457826
G1 X109.821 Y104.523 E.00964
;WIDTH:0.427424
G1 X109.833 Y104.229 E.00893
;WIDTH:0.397022
G1 X110.001 Y103.752 E.01415
G1 X110.111 Y104.01 E.00785
G1 X110.174 Y104.308 E.00852
;WIDTH:0.443005
G1 X110.197 Y104.615 E.00972
;WIDTH:0.488988
G1 X110.22 Y104.921 E.01084
;WIDTH:0.499999
G1 X110.471 Y105.287 E.01599
G1 X110.708 Y105.403 E.00956
G1 X111.68 Y105.663 E.0363
G1 X111.935 Y105.682 E.00924
G1 X112.234 Y105.573 E.01148
G1 X112.385 Y105.46 E.00681
;WIDTH:0.477663
G1 X112.573 Y105.176 E.01169
;WIDTH:0.432259
G1 X112.761 Y104.893 E.01047
;WIDTH:0.386854
G1 X113.128 Y104.578 E.01312
G1 X113.051 Y105.021 E.0122
;WIDTH:0.407629
G1 X112.833 Y105.459 E.01411
;WIDTH:0.453814
G1 X112.773 Y105.641 E.0062
;WIDTH:0.499999
G1 X112.714 Y105.822 E.0069
G1 X112.726 Y105.895 E.00265
G1 X113.168 Y105.875 F30000
;TYPE:Outer wall
G1 F1376
G1 X113.24 Y106.054 E.00697
G1 X114.017 Y106.808 E.0391
G1 X114.305 Y106.814 E.01041
G1 X114.767 Y106.599 E.01838
G1 X115.139 Y106.496 E.01394
G1 X115.648 Y106.456 E.01844
G1 X116.082 Y106.492 E.01574
G1 X115.999 Y106.688 E.00767
G1 X115.721 Y107.153 E.01956
G1 X115.392 Y107.531 E.01811
G1 X114.922 Y107.861 E.02073
G1 X114.771 Y108.111 E.01055
G1 X115.034 Y109.155 E.03889
G1 X115.124 Y109.293 E.00595
G1 X115.391 Y109.41 E.01052
G1 X115.904 Y109.443 E.01855
G1 X116.412 Y109.624 E.01945
G1 X117.021 Y109.997 E.02581
G1 X116.7 Y110.224 E.01421
G1 X116.245 Y110.451 E.01838
G1 X115.726 Y110.578 E.01929
G1 X115.33 Y110.605 E.0143
G1 X115.124 Y110.706 E.00829
G1 X115.037 Y110.833 E.00554
G1 X114.771 Y111.89 E.03937
G1 X114.901 Y112.121 E.00956
G1 X115.267 Y112.374 E.01609
G1 X115.601 Y112.697 E.01678
G1 X115.893 Y113.119 E.01854
G1 X116.079 Y113.514 E.01574
G1 X115.868 Y113.539 E.00767
G1 X115.365 Y113.531 E.01818
G1 X114.909 Y113.449 E.01672
G1 X114.39 Y113.214 E.02057
G1 X114.132 Y113.169 E.00945
G1 X113.95 Y113.235 E.00698
G1 X113.192 Y114.017 E.03934
G1 X113.185 Y114.291 E.00989
G1 X113.402 Y114.769 E.01896
G1 X113.504 Y115.139 E.01385
G1 X113.544 Y115.648 E.01845
G1 X113.508 Y116.082 E.01573
G1 X113.304 Y115.994 E.00802
G1 X112.819 Y115.696 E.02057
G1 X112.428 Y115.329 E.01934
G1 X112.125 Y114.902 E.01889
G1 X111.889 Y114.771 E.00976
G1 X110.844 Y115.034 E.03891
G1 X110.706 Y115.125 E.00595
G1 X110.591 Y115.39 E.01046
G1 X110.557 Y115.904 E.01859
G1 X110.376 Y116.412 E.01946
G1 X110.003 Y117.021 E.0258
G1 X109.776 Y116.7 E.01421
G1 X109.549 Y116.245 E.01838
G1 X109.422 Y115.725 E.01929
G1 X109.395 Y115.33 E.01431
G1 X109.294 Y115.125 E.00827
G1 X109.161 Y115.036 E.00576
G1 X108.08 Y114.78 E.0401
G1 X107.857 Y114.918 E.00946
G1 X107.625 Y115.267 E.01514
G1 X107.303 Y115.601 E.01677
G1 X106.881 Y115.894 E.01855
G1 X106.486 Y116.079 E.01573
G1 X106.461 Y115.868 E.00767
G1 X106.469 Y115.365 E.01818
G1 X106.551 Y114.909 E.01673
G1 X106.786 Y114.39 E.02056
G1 X106.831 Y114.132 E.00945
G1 X106.761 Y113.947 E.00714
G1 X105.983 Y113.192 E.03916
G1 X105.702 Y113.185 E.01015
G1 X105.232 Y113.402 E.01866
G1 X104.861 Y113.504 E.01391
G1 X104.352 Y113.544 E.01845
G1 X103.918 Y113.508 E.01574
G1 X104.001 Y113.313 E.00767
G1 X104.259 Y112.88 E.01818
G1 X104.559 Y112.526 E.01676
G1 X105.023 Y112.192 E.02065
G1 X105.186 Y111.99 E.00938
G1 X105.221 Y111.798 E.00702
G1 X104.961 Y110.826 E.03634
G1 X104.873 Y110.699 E.00557
G1 X104.611 Y110.591 E.01024
G1 X104.096 Y110.557 E.01863
G1 X103.588 Y110.376 E.01946
G1 X102.979 Y110.003 E.0258
G1 X103.3 Y109.776 E.01421
G1 X103.755 Y109.549 E.01837
G1 X104.275 Y109.422 E.01933
M73 P3 R4
G1 X104.67 Y109.394 E.01429
G1 X104.874 Y109.294 E.00821
G1 X104.963 Y109.167 E.00559
G1 X105.229 Y108.11 E.03937
G1 X105.1 Y107.88 E.00955
G1 X104.733 Y107.626 E.01611
G1 X104.399 Y107.303 E.01677
G1 X104.106 Y106.881 E.01855
G1 X103.921 Y106.486 E.01573
G1 X104.132 Y106.461 E.00767
G1 X104.635 Y106.469 E.01818
G1 X105.091 Y106.551 E.01673
G1 X105.61 Y106.786 E.02056
G1 X105.868 Y106.831 E.00945
G1 X106.05 Y106.765 E.00698
G1 X106.808 Y105.983 E.03935
G1 X106.815 Y105.713 E.00973
G1 X106.598 Y105.232 E.01905
G1 X106.496 Y104.861 E.0139
G1 X106.456 Y104.352 E.01845
G1 X106.492 Y103.918 E.01573
G1 X106.688 Y104.001 E.00768
G1 X107.153 Y104.279 E.01955
G1 X107.53 Y104.608 E.0181
G1 X107.817 Y105.036 E.01859
G1 X108.015 Y105.189 E.00903
G1 X108.209 Y105.219 E.00708
G1 X109.273 Y104.9 E.04011
G1 X109.398 Y104.672 E.0094
G1 X109.436 Y104.15 E.01889
G1 X109.603 Y103.627 E.01983
G1 X109.991 Y102.976 E.02733
G1 X110.338 Y103.508 E.02293
G1 X110.533 Y104.015 E.01962
G1 X110.59 Y104.581 E.02053
G1 X110.678 Y104.835 E.00971
G1 X110.826 Y104.961 E.00704
G1 X111.798 Y105.221 E.0363
G1 X111.982 Y105.191 E.00676
G1 X112.185 Y105.036 E.00921
G1 X112.47 Y104.608 E.01855
G1 X112.88 Y104.259 E.01946
G1 X113.508 Y103.918 E.0258
G1 X113.526 Y104.119 E.00731
G1 X113.524 Y104.654 E.0193
G1 X113.439 Y105.117 E.01702
G1 X113.209 Y105.623 E.02006
G1 X113.175 Y105.835 E.00775
;WIPE_START
G1 F3600
G1 X113.24 Y106.054 E-.06845
G1 X114.017 Y106.808 E-.32492
G1 X114.305 Y106.814 E-.08652
G1 X114.668 Y106.645 E-.12011
;WIPE_END
G1 Z.4 F30000
G1 X110.874 Y107.873 Z.4
G1 Z.2
G1 E.6 F2400
;TYPE:Inner wall
G1 F1376
G1 X111.093 Y107.973 E.0087
G1 X111.613 Y108.34 E.02299
G1 X112.025 Y108.905 E.02525
G1 X112.178 Y109.224 E.01276
G1 X112.283 Y109.728 E.01859
G1 X112.315 Y110 E.0099
G1 X112.204 Y110.672 E.02458
G1 X112.033 Y111.084 E.0161
G1 X111.637 Y111.637 E.02455
G1 X111.095 Y112.025 E.02409
G1 X110.776 Y112.178 E.01276
G1 X110.272 Y112.283 E.0186
G1 X109.855 Y112.306 E.01511
G1 X109.328 Y112.204 E.01935
G1 X108.919 Y112.034 E.01601
G1 X108.387 Y111.66 E.02348
G1 X107.974 Y111.094 E.0253
G1 X107.813 Y110.744 E.01389
G1 X107.707 Y110.223 E.01922
G1 X107.701 Y109.809 E.01494
G1 X107.813 Y109.256 E.02038
G1 X107.974 Y108.906 E.01387
G1 X108.363 Y108.363 E.02412
G1 X108.906 Y107.974 E.02415
G1 X109.224 Y107.822 E.0127
G1 X109.777 Y107.707 E.0204
G1 X110.188 Y107.701 E.01485
G1 X110.744 Y107.813 E.02047
G1 X110.837 Y107.856 E.00371
G1 X110.667 Y108.28 F30000
G1 F1376
G1 X110.839 Y108.353 E.00671
G1 X111.299 Y108.672 E.02024
G1 X111.645 Y109.159 E.02155
G1 X111.756 Y109.418 E.01016
G1 X111.852 Y109.913 E.01821
G1 X111.845 Y110.134 E.00799
G1 X111.745 Y110.626 E.01813
G1 X111.646 Y110.84 E.0085
G1 X111.453 Y111.129 E.01256
G1 X111.21 Y111.399 E.01313
G1 X110.717 Y111.714 E.02111
G1 X110.183 Y111.835 E.01977
G1 X109.864 Y111.844 E.01151
G1 X109.368 Y111.744 E.01827
G1 X109.17 Y111.653 E.00786
G1 X108.701 Y111.328 E.02064
G1 X108.354 Y110.84 E.0216
G1 X108.244 Y110.582 E.01012
G1 X108.142 Y110 E.02136
G1 X108.245 Y109.418 E.02134
G1 X108.354 Y109.16 E.01009
G1 X108.686 Y108.687 E.0209
G1 X109.16 Y108.354 E.02092
M73 P4 R4
G1 X109.418 Y108.245 E.0101
G1 X109.995 Y108.142 E.02116
G1 X110.582 Y108.245 E.02154
G1 X110.631 Y108.265 E.00189
G1 X110.459 Y108.687 F30000
;TYPE:Outer wall
G1 F1376
G1 X110.493 Y108.693 E.00124
G1 X110.925 Y108.96 E.01833
G1 X111.043 Y109.081 E.0061
G1 X111.307 Y109.507 E.0181
G1 X111.401 Y110 E.01812
G1 X111.307 Y110.493 E.01813
G1 X111.073 Y110.875 E.01616
G1 X110.956 Y111.019 E.0067
G1 X110.514 Y111.302 E.01894
G1 X110.022 Y111.4 E.01811
G1 X109.507 Y111.307 E.0189
G1 X109.075 Y111.04 E.01833
G1 X108.981 Y110.956 E.00456
G1 X108.696 Y110.508 E.01917
G1 X108.599 Y110 E.01867
G1 X108.693 Y109.507 E.01812
G1 X108.981 Y109.044 E.01968
G1 X109.414 Y108.734 E.01924
G1 X109.955 Y108.604 E.0201
G1 X110.42 Y108.681 E.017
;WIPE_START
G1 F3600
G1 X110.493 Y108.693 E-.02231
G1 X110.925 Y108.96 E-.15229
G1 X111.043 Y109.081 E-.05068
G1 X111.307 Y109.507 E-.15043
G1 X111.401 Y110 E-.15059
G1 X111.355 Y110.241 E-.07369
;WIPE_END
