; HEADER_BLOCK_START
; generated by OrcaSlicer 2.1.1 on 2024-09-05 at 19:36:50
; total layer number: 44
; filament_density: 1.24
; filament_diameter: 1.75
; max_z_height: 7.20
; HEADER_BLOCK_END

; THUMBNAIL_BLOCK_START

;
; THUMBNAIL_BLOCK_END

; THUMBNAIL_BLOCK_START

;
; THUMBNAIL_BLOCK_END

; external perimeters extrusion width = 0.42mm
; perimeters extrusion width = 0.45mm
; infill extrusion width = 0.45mm
; solid infill extrusion width = 0.42mm
; top infill extrusion width = 0.42mm
; support material extrusion width = 0.42mm
; first layer extrusion width = 0.50mm

; external perimeters extrusion width = 0.42mm
; perimeters extrusion width = 0.45mm
; infill extrusion width = 0.45mm
; solid infill extrusion width = 0.42mm
; top infill extrusion width = 0.42mm
; support material extrusion width = 0.42mm
; first layer extrusion width = 0.50mm

; external perimeters extrusion width = 0.42mm
; perimeters extrusion width = 0.45mm
; infill extrusion width = 0.45mm
; solid infill extrusion width = 0.42mm
; top infill extrusion width = 0.42mm
; support material extrusion width = 0.42mm
; first layer extrusion width = 0.50mm

; external perimeters extrusion width = 0.42mm
; perimeters extrusion width = 0.45mm
; infill extrusion width = 0.45mm
; solid infill extrusion width = 0.42mm
; top infill extrusion width = 0.42mm
; support material extrusion width = 0.42mm
; first layer extrusion width = 0.50mm

; external perimeters extrusion width = 0.42mm
; perimeters extrusion width = 0.45mm
; infill extrusion width = 0.45mm
; solid infill extrusion width = 0.42mm
; top infill extrusion width = 0.42mm
; support material extrusion width = 0.42mm
; first layer extrusion width = 0.50mm

; external perimeters extrusion width = 0.42mm
; perimeters extrusion width = 0.45mm
; infill extrusion width = 0.45mm
; solid infill extrusion width = 0.42mm
; top infill extrusion width = 0.42mm
; support material extrusion width = 0.42mm
; first layer extrusion width = 0.50mm

; external perimeters extrusion width = 0.42mm
; perimeters extrusion width = 0.45mm
; infill extrusion width = 0.45mm
; solid infill extrusion width = 0.42mm
; top infill extrusion width = 0.42mm
; support material extrusion width = 0.42mm
; first layer extrusion width = 0.50mm

; external perimeters extrusion width = 0.42mm
; perimeters extrusion width = 0.45mm
; infill extrusion width = 0.45mm
; solid infill extrusion width = 0.42mm
; top infill extrusion width = 0.42mm
; support material extrusion width = 0.42mm
; first layer extrusion width = 0.50mm

; EXECUTABLE_BLOCK_START
EXCLUDE_OBJECT_DEFINE NAME=Wheel.stl_id_0_copy_0 CENTER=136.7,133.905 POLYGON=[[126.4,133.905],[126.46,132.792],[126.641,131.691],[126.939,130.616],[127.352,129.58],[127.874,128.595],[128.5,127.672],[129.222,126.822],[130.032,126.055],[130.92,125.38],[131.875,124.805],[132.888,124.337],[133.944,123.981],[135.034,123.741],[136.142,123.62],[137.258,123.62],[138.366,123.741],[139.456,123.981],[140.512,124.337],[141.525,124.805],[142.48,125.38],[143.368,126.055],[144.178,126.822],[144.9,127.672],[145.526,128.595],[146.048,129.58],[146.461,130.616],[146.759,131.691],[146.94,132.792],[147,133.905],[146.94,135.019],[146.759,136.119],[146.461,137.194],[146.048,138.23],[145.526,139.215],[144.9,140.139],[144.178,140.989],[143.368,141.756],[142.48,142.43],[141.525,143.005],[140.512,143.474],[139.456,143.83],[138.366,144.07],[137.258,144.19],[136.142,144.19],[135.034,144.07],[133.944,143.83],[132.888,143.474],[131.875,143.005],[130.92,142.43],[130.032,141.756],[129.222,140.989],[128.5,140.139],[127.874,139.215],[127.352,138.23],[126.939,137.194],[126.641,136.119],[126.46,135.019],[126.4,133.905]]
EXCLUDE_OBJECT_DEFINE NAME=Wheel.stl_id_1_copy_0 CENTER=136.7,101.335 POLYGON=[[126.4,101.335],[126.46,100.222],[126.641,99.1213],[126.939,98.0466],[127.352,97.0106],[127.874,96.0252],[128.5,95.1022],[129.222,94.2521],[130.032,93.4852],[130.92,92.8103],[131.875,92.2353],[132.888,91.767],[133.944,91.4109],[135.034,91.1711],[136.142,91.0506],[137.258,91.0506],[138.366,91.1711],[139.456,91.4109],[140.512,91.767],[141.525,92.2353],[142.48,92.8103],[143.368,93.4852],[144.178,94.2521],[144.9,95.1022],[145.526,96.0252],[146.048,97.0106],[146.461,98.0466],[146.759,99.1213],[146.94,100.222],[147,101.335],[146.94,102.449],[146.759,103.55],[146.461,104.624],[146.048,105.66],[145.526,106.646],[144.9,107.569],[144.178,108.419],[143.368,109.186],[142.48,109.861],[141.525,110.436],[140.512,110.904],[139.456,111.26],[138.366,111.5],[137.258,111.62],[136.142,111.62],[135.034,111.5],[133.944,111.26],[132.888,110.904],[131.875,110.436],[130.92,109.861],[130.032,109.186],[129.222,108.419],[128.5,107.569],[127.874,106.646],[127.352,105.66],[126.939,104.624],[126.641,103.55],[126.46,102.449],[126.4,101.335]]
EXCLUDE_OBJECT_DEFINE NAME=Wheel.stl_id_2_copy_0 CENTER=104.1,133.905 POLYGON=[[93.8,133.905],[93.8604,132.792],[94.0408,131.691],[94.3392,130.616],[94.752,129.58],[95.2744,128.595],[95.9002,127.672],[96.6222,126.822],[97.4319,126.055],[98.3198,125.38],[99.2754,124.805],[100.288,124.337],[101.344,123.981],[102.434,123.741],[103.542,123.62],[104.658,123.62],[105.766,123.741],[106.856,123.981],[107.912,124.337],[108.925,124.805],[109.88,125.38],[110.768,126.055],[111.578,126.822],[112.3,127.672],[112.926,128.595],[113.448,129.58],[113.861,130.616],[114.159,131.691],[114.34,132.792],[114.4,133.905],[114.34,135.019],[114.159,136.119],[113.861,137.194],[113.448,138.23],[112.926,139.215],[112.3,140.139],[111.578,140.989],[110.768,141.756],[109.88,142.43],[108.925,143.005],[107.912,143.474],[106.856,143.83],[105.766,144.07],[104.658,144.19],[103.542,144.19],[102.434,144.07],[101.344,143.83],[100.288,143.474],[99.2754,143.005],[98.3198,142.43],[97.4319,141.756],[96.6222,140.989],[95.9002,140.139],[95.2744,139.215],[94.752,138.23],[94.3392,137.194],[94.0408,136.119],[93.8604,135.019],[93.8,133.905]]
EXCLUDE_OBJECT_DEFINE NAME=Wheel.stl_id_3_copy_0 CENTER=104.1,101.335 POLYGON=[[93.8,101.335],[93.8604,100.222],[94.0408,99.1213],[94.3392,98.0466],[94.752,97.0106],[95.2744,96.0252],[95.9002,95.1022],[96.6222,94.2521],[97.4319,93.4852],[98.3198,92.8103],[99.2754,92.2353],[100.288,91.767],[101.344,91.4109],[102.434,91.1711],[103.542,91.0506],[104.658,91.0506],[105.766,91.1711],[106.856,91.4109],[107.912,91.767],[108.925,92.2353],[109.88,92.8103],[110.768,93.4852],[111.578,94.2521],[112.3,95.1022],[112.926,96.0252],[113.448,97.0106],[113.861,98.0466],[114.159,99.1213],[114.34,100.222],[114.4,101.335],[114.34,102.449],[114.159,103.55],[113.861,104.624],[113.448,105.66],[112.926,106.646],[112.3,107.569],[111.578,108.419],[110.768,109.186],[109.88,109.861],[108.925,110.436],[107.912,110.904],[106.856,111.26],[105.766,111.5],[104.658,111.62],[103.542,111.62],[102.434,111.5],[101.344,111.26],[100.288,110.904],[99.2754,110.436],[98.3198,109.861],[97.4319,109.186],[96.6222,108.419],[95.9002,107.569],[95.2744,106.646],[94.752,105.66],[94.3392,104.624],[94.0408,103.55],[93.8604,102.449],[93.8,101.335]]
EXCLUDE_OBJECT_DEFINE NAME=Axle.stl_id_4_copy_0 CENTER=77.4,139.79 POLYGON=[[73,139.79],[73.0321,139.26],[73.1279,138.737],[73.2859,138.23],[73.504,137.745],[73.7789,137.291],[74.1066,136.872],[74.4823,136.497],[74.9005,136.169],[75.3552,135.894],[75.8397,135.676],[76.347,135.518],[76.8696,135.422],[77.4,135.39],[77.9304,135.422],[78.453,135.518],[78.9603,135.676],[79.4448,135.894],[79.8995,136.169],[80.3177,136.497],[80.6934,136.872],[81.0211,137.291],[81.296,137.745],[81.5141,138.23],[81.6721,138.737],[81.7679,139.26],[81.8,139.79],[81.7679,140.321],[81.6721,140.843],[81.5141,141.35],[81.296,141.835],[81.0211,142.29],[80.6934,142.708],[80.3177,143.084],[79.8995,143.411],[79.4448,143.686],[78.9603,143.904],[78.453,144.062],[77.9304,144.158],[77.4,144.19],[76.8696,144.158],[76.347,144.062],[75.8397,143.904],[75.3552,143.686],[74.9005,143.411],[74.4823,143.084],[74.1066,142.708],[73.7789,142.29],[73.504,141.835],[73.2859,141.35],[73.1279,140.843],[73.0321,140.321],[73,139.79]]
EXCLUDE_OBJECT_DEFINE NAME=Axle.stl_id_5_copy_0 CENTER=77.4,118.99 POLYGON=[[73,118.99],[73.0321,118.46],[73.1279,117.937],[73.2859,117.43],[73.504,116.945],[73.7789,116.491],[74.1066,116.072],[74.4823,115.697],[74.9005,115.369],[75.3552,115.094],[75.8397,114.876],[76.347,114.718],[76.8696,114.622],[77.4,114.59],[77.9304,114.622],[78.453,114.718],[78.9603,114.876],[79.4448,115.094],[79.8995,115.369],[80.3177,115.697],[80.6934,116.072],[81.0211,116.491],[81.296,116.945],[81.5141,117.43],[81.6721,117.937],[81.7679,118.46],[81.8,118.99],[81.7679,119.521],[81.6721,120.043],[81.5141,120.55],[81.296,121.035],[81.0211,121.49],[80.6934,121.908],[80.3177,122.284],[79.8995,122.611],[79.4448,122.886],[78.9603,123.104],[78.453,123.262],[77.9304,123.358],[77.4,123.39],[76.8696,123.358],[76.347,123.262],[75.8397,123.104],[75.3552,122.886],[74.9005,122.611],[74.4823,122.284],[74.1066,121.908],[73.7789,121.49],[73.504,121.035],[73.2859,120.55],[73.1279,120.043],[73.0321,119.521],[73,118.99]]
EXCLUDE_OBJECT_DEFINE NAME=Axle.stl_id_6_copy_0 CENTER=77.4,98.1901 POLYGON=[[73,98.1901],[73.0321,97.6598],[73.1279,97.1372],[73.2859,96.6299],[73.504,96.1454],[73.7789,95.6907],[74.1066,95.2724],[74.4823,94.8967],[74.9005,94.569],[75.3552,94.2941],[75.8397,94.0761],[76.347,93.918],[76.8696,93.8222],[77.4,93.7901],[77.9304,93.8222],[78.453,93.918],[78.9603,94.0761],[79.4448,94.2941],[79.8995,94.569],[80.3177,94.8967],[80.6934,95.2724],[81.0211,95.6907],[81.296,96.1454],[81.5141,96.6299],[81.6721,97.1372],[81.7679,97.6598],[81.8,98.1901],[81.7679,98.7205],[81.6721,99.2431],[81.5141,99.7504],[81.296,100.235],[81.0211,100.69],[80.6934,101.108],[80.3177,101.484],[79.8995,101.811],[79.4448,102.086],[78.9603,102.304],[78.453,102.462],[77.9304,102.558],[77.4,102.59],[76.8696,102.558],[76.347,102.462],[75.8397,102.304],[75.3552,102.086],[74.9005,101.811],[74.4823,101.484],[74.1066,101.108],[73.7789,100.69],[73.504,100.235],[73.2859,99.7504],[73.1279,99.2431],[73.0321,98.7205],[73,98.1901]]
EXCLUDE_OBJECT_DEFINE NAME=Axle.stl_id_7_copy_0 CENTER=120.4,80.2099 POLYGON=[[116,80.2099],[116.032,79.6795],[116.128,79.1569],[116.286,78.6496],[116.504,78.1651],[116.779,77.7104],[117.107,77.2921],[117.482,76.9164],[117.901,76.5887],[118.355,76.3139],[118.84,76.0958],[119.347,75.9377],[119.87,75.8419],[120.4,75.8099],[120.93,75.8419],[121.453,75.9377],[121.96,76.0958],[122.445,76.3139],[122.899,76.5887],[123.318,76.9164],[123.693,77.2921],[124.021,77.7104],[124.296,78.1651],[124.514,78.6496],[124.672,79.1569],[124.768,79.6795],[124.8,80.2099],[124.768,80.7402],[124.672,81.2628],[124.514,81.7701],[124.296,82.2546],[124.021,82.7093],[123.693,83.1276],[123.318,83.5033],[122.899,83.831],[122.445,84.1059],[121.96,84.3239],[121.453,84.482],[120.93,84.5778],[120.4,84.6099],[119.87,84.5778],[119.347,84.482],[118.84,84.3239],[118.355,84.1059],[117.901,83.831],[117.482,83.5033],[117.107,83.1276],[116.779,82.7093],[116.504,82.2546],[116.286,81.7701],[116.128,81.2628],[116.032,80.7402],[116,80.2099]]
M73 P0 R14
M106 S0
M106 P2 S0
;TYPE:Custom
M140 S0
M104 S0 
START_PRINT EXTRUDER_TEMP=220 BED_TEMP=55
G90
G21
M83 ; use relative distances for extrusion
; filament start gcode
M106 S0
M106 P2 S0
;LAYER_CHANGE
;Z:0.2
;HEIGHT:0.2
;BEFORE_LAYER_CHANGE
;0.2
G92 E0

G1 E-.6 F2400
;_SET_FAN_SPEED_CHANGING_LAYER
SET_VELOCITY_LIMIT ACCEL=500 ACCEL_TO_DECEL=250
SET_VELOCITY_LIMIT SQUARE_CORNER_VELOCITY=9
EXCLUDE_OBJECT_START NAME=Wheel.stl_id_0_copy_0
G1 Z.2 F30000
G1 X145.677 Y134.025
G1 Z.2
G1 E.6 F2400
;TYPE:Inner wall
;WIDTH:0.499999
G1 F3600
G1 X145.631 Y134.877 E.03177
G1 X145.474 Y135.837 E.03623
G1 X145.214 Y136.774 E.03623
G1 X144.854 Y137.677 E.03623
G1 X144.398 Y138.537 E.03623
G1 X143.852 Y139.342 E.03623
G1 X143.222 Y140.083 E.03623
G1 X142.516 Y140.752 E.03623
G1 X141.742 Y141.341 E.03623
G1 X140.908 Y141.843 E.03623
G1 X140.025 Y142.251 E.03623
G1 X139.103 Y142.562 E.03623
G1 X138.153 Y142.771 E.03623
G1 X137.186 Y142.876 E.03623
G1 X136.214 Y142.876 E.03623
G1 X135.247 Y142.771 E.03623
G1 X134.297 Y142.562 E.03623
G1 X133.375 Y142.251 E.03623
G1 X132.492 Y141.843 E.03623
G1 X131.658 Y141.341 E.03623
G1 X130.884 Y140.752 E.03623
G1 X130.178 Y140.083 E.03623
G1 X129.548 Y139.342 E.03623
G1 X129.002 Y138.537 E.03623
G1 X128.546 Y137.677 E.03623
G1 X128.186 Y136.774 E.03623
G1 X127.926 Y135.837 E.03623
G1 X127.769 Y134.877 E.03623
G1 X127.716 Y133.905 E.03623
G1 X127.769 Y132.934 E.03623
G1 X127.926 Y131.974 E.03623
G1 X128.186 Y131.037 E.03623
G1 X128.546 Y130.133 E.03623
G1 X129.002 Y129.274 E.03623
G1 X129.548 Y128.468 E.03623
G1 X130.178 Y127.727 E.03623
G1 X130.884 Y127.058 E.03623
G1 X131.658 Y126.469 E.03623
G1 X132.492 Y125.968 E.03623
G1 X133.375 Y125.559 E.03623
G1 X134.297 Y125.249 E.03623
G1 X135.247 Y125.04 E.03623
G1 X136.212 Y124.935 E.03616
G1 X137.221 Y124.938 E.03758
G1 X138.153 Y125.04 E.03495
G1 X139.103 Y125.249 E.03623
G1 X140.025 Y125.559 E.03623
G1 X140.908 Y125.968 E.03623
G1 X141.742 Y126.469 E.03623
G1 X142.516 Y127.058 E.03623
G1 X143.222 Y127.727 E.03623
G1 X143.852 Y128.468 E.03623
G1 X144.398 Y129.274 E.03623
G1 X144.854 Y130.133 E.03623
G1 X145.214 Y131.037 E.03623
G1 X145.474 Y131.974 E.03623
G1 X145.631 Y132.934 E.03623
G1 X145.676 Y133.985 E.03918
G1 X146.134 Y134.05 F30000
G1 F3600
G1 X146.086 Y134.926 E.0327
G1 X145.921 Y135.935 E.03808
G1 X145.647 Y136.92 E.03808
G1 X145.269 Y137.87 E.03808
G1 X144.79 Y138.773 E.03808
G1 X144.216 Y139.619 E.03808
G1 X143.555 Y140.398 E.03808
G1 X142.812 Y141.101 E.03808
G1 X141.999 Y141.72 E.03808
G1 X141.123 Y142.247 E.03808
G1 X140.195 Y142.676 E.03808
G1 X139.226 Y143.003 E.03808
G1 X138.228 Y143.223 E.03808
G1 X137.211 Y143.333 E.03808
G1 X136.189 Y143.333 E.03808
G1 X135.173 Y143.223 E.03808
G1 X134.174 Y143.003 E.03808
G1 X133.205 Y142.676 E.03808
G1 X132.277 Y142.247 E.03808
G1 X131.401 Y141.72 E.03808
G1 X130.588 Y141.101 E.03808
G1 X129.845 Y140.398 E.03808
G1 X129.184 Y139.619 E.03808
G1 X128.61 Y138.773 E.03808
G1 X128.131 Y137.87 E.03808
G1 X127.753 Y136.92 E.03808
G1 X127.479 Y135.935 E.03808
G1 X127.314 Y134.926 E.03808
G1 X127.258 Y133.905 E.03808
G1 X127.314 Y132.884 E.03808
G1 X127.479 Y131.876 E.03808
G1 X127.753 Y130.891 E.03808
G1 X128.131 Y129.941 E.03808
G1 X128.61 Y129.038 E.03808
G1 X129.184 Y128.191 E.03808
G1 X129.845 Y127.412 E.03808
G1 X130.588 Y126.709 E.03808
G1 X131.401 Y126.09 E.03808
G1 X132.277 Y125.563 E.03808
G1 X133.205 Y125.134 E.03808
G1 X134.174 Y124.808 E.03808
G1 X135.173 Y124.588 E.03808
G1 X136.188 Y124.478 E.03803
G1 X137.246 Y124.481 E.03943
G1 X138.227 Y124.588 E.03677
G1 X139.226 Y124.808 E.03808
G1 X140.195 Y125.134 E.03808
G1 X141.123 Y125.563 E.03808
G1 X141.999 Y126.09 E.03808
G1 X142.812 Y126.709 E.03808
G1 X143.555 Y127.412 E.03808
G1 X144.216 Y128.191 E.03808
G1 X144.79 Y129.038 E.03808
G1 X145.269 Y129.941 E.03808
G1 X145.647 Y130.89 E.03808
G1 X145.921 Y131.876 E.03808
G1 X146.086 Y132.884 E.03808
G1 X146.132 Y134.01 E.04194
G1 X146.59 Y134.074 F30000
;TYPE:Outer wall
G1 F3600
G1 X146.541 Y134.976 E.03362
G1 X146.368 Y136.033 E.03992
G1 X146.081 Y137.066 E.03992
G1 X145.684 Y138.062 E.03992
G1 X145.182 Y139.009 E.03992
G1 X144.581 Y139.896 E.03992
G1 X143.887 Y140.713 E.03992
G1 X143.109 Y141.45 E.03992
G1 X142.255 Y142.099 E.03992
G1 X141.337 Y142.651 E.03992
G1 X140.364 Y143.102 E.03992
G1 X139.348 Y143.444 E.03992
G1 X138.302 Y143.674 E.03992
G1 X137.236 Y143.79 E.03992
G1 X136.164 Y143.79 E.03992
G1 X135.098 Y143.674 E.03992
G1 X134.052 Y143.444 E.03992
G1 X133.036 Y143.102 E.03992
G1 X132.063 Y142.651 E.03992
G1 X131.145 Y142.099 E.03992
G1 X130.291 Y141.45 E.03992
G1 X129.513 Y140.713 E.03992
G1 X128.819 Y139.896 E.03992
G1 X128.218 Y139.009 E.03992
G1 X127.716 Y138.062 E.03992
G1 X127.319 Y137.066 E.03992
G1 X127.032 Y136.033 E.03992
G1 X126.859 Y134.976 E.03992
G1 X126.801 Y133.905 E.03992
G1 X126.859 Y132.835 E.03992
G1 X127.032 Y131.777 E.03992
G1 X127.319 Y130.744 E.03992
G1 X127.716 Y129.749 E.03992
G1 X128.218 Y128.802 E.03992
G1 X128.819 Y127.914 E.03992
G1 X129.513 Y127.097 E.03992
