; HEADER_BLOCK_START
; generated by OrcaSlicer 2.1.1 on 2024-09-26 at 22:04:49
; total layer number: 23
; filament_density: 1.24
; filament_diameter: 1.75
; max_z_height: 4.60
; HEADER_BLOCK_END

; THUMBNAIL_BLOCK_START

;
; THUMBNAIL_BLOCK_END

; THUMBNAIL_BLOCK_START

;
; THUMBNAIL_BLOCK_END

; external perimeters extrusion width = 0.42mm
; perimeters extrusion width = 0.45mm
; infill extrusion width = 0.45mm
; solid infill extrusion width = 0.42mm
; top infill extrusion width = 0.42mm
; first layer extrusion width = 0.50mm

; EXECUTABLE_BLOCK_START
EXCLUDE_OBJECT_DEFINE NAME=big_wheel_with_spokes.stl_id_0_copy_0 CENTER=110,109.986 POLYGON=[[92.0955,109.399],[92.4221,106.082],[93.3895,102.893],[94.9605,99.954],[97.0747,97.3779],[99.6508,95.2637],[102.59,93.6927],[103.708,93.3295],[106.897,92.3621],[110.214,92.0354],[113.53,92.3621],[116.719,93.3295],[119.658,94.9004],[122.234,97.0146],[124.349,99.5907],[125.039,100.542],[126.61,103.481],[127.578,106.67],[127.905,109.986],[127.578,113.303],[126.61,116.492],[125.039,119.431],[124.349,120.382],[122.234,122.958],[119.658,125.073],[116.719,126.643],[113.53,127.611],[110.214,127.938],[106.897,127.611],[103.708,126.643],[102.59,126.28],[99.6508,124.709],[97.0747,122.595],[94.9605,120.019],[93.3895,117.08],[92.4221,113.891],[92.0955,110.574],[92.0955,109.399]]
M73 P0 R17
M106 S0
M106 P2 S0
;TYPE:Custom
M140 S0
M104 S0 
START_PRINT EXTRUDER_TEMP=230 BED_TEMP=30
G90
G21
M83 ; use relative distances for extrusion
; filament start gcode
M106 S0
M106 P2 S0
;LAYER_CHANGE
;Z:0.2
;HEIGHT:0.2
;BEFORE_LAYER_CHANGE
;0.2
G92 E0

G1 E-.4 F2400
;_SET_FAN_SPEED_CHANGING_LAYER
SET_VELOCITY_LIMIT ACCEL=500 ACCEL_TO_DECEL=250
SET_VELOCITY_LIMIT SQUARE_CORNER_VELOCITY=9
EXCLUDE_OBJECT_START NAME=big_wheel_with_spokes.stl_id_0_copy_0
G1 Z.2 F30000
G1 X115.199 Y109.636
G1 Z.2
G1 E.4 F2400
;TYPE:Inner wall
;WIDTH:0.499999
G1 F2297.196
G1 X115.172 Y109.826 E.00732
G1 X115.189 Y110.344 E.01969
G1 X115.342 Y110.747 E.01638
G1 X115.565 Y111.009 E.01308
G1 X115.962 Y111.233 E.01731
G1 X124.902 Y114.138 E.35726
G1 X125.528 Y114.173 E.02384
G1 X124.873 Y115.755 E.06508
G1 X124.478 Y115.443 E.01912
G1 X115.538 Y112.538 E.35726
G1 X115.085 Y112.486 E.01731
G1 X114.751 Y112.568 E.01308
G1 X114.429 Y112.768 E.0144
G1 X114.26 Y112.953 E.00953
G1 X113.955 Y113.413 E.02098
G1 X113.865 Y113.724 E.01231
G1 X113.858 Y113.979 E.00967
G1 X113.918 Y114.262 E.011
G1 X114.072 Y114.556 E.01261
G1 X119.597 Y122.16 E.35726
G1 X120.02 Y122.438 E.01921
G1 X118.663 Y123.479 E.06501
G1 X118.487 Y122.967 E.02059
G1 X112.962 Y115.362 E.35726
G1 X112.73 Y115.125 E.01261
G1 X112.387 Y114.946 E.0147
G1 X111.926 Y114.896 E.01763
G1 X111.38 Y115.046 E.02152
G1 X111.056 Y115.212 E.01386
G1 X110.814 Y115.453 E.01295
G1 X110.638 Y115.805 E.01498
G1 X110.59 Y116.132 E.01257
G1 X110.59 Y125.533 E.35726
G1 X110.776 Y126.046 E.02076
G1 X109.905 Y126.161 E.03343
G1 X109.033 Y126.046 E.03343
G1 X109.219 Y125.533 E.02076
G1 X109.219 Y116.132 E.35726
G1 X109.171 Y115.805 E.01257
G1 X109.057 Y115.546 E.01076
G1 X108.753 Y115.212 E.01714
G1 X108.429 Y115.046 E.01386
G1 X107.883 Y114.896 E.02152
G1 X107.422 Y114.946 E.01763
G1 X107.079 Y115.125 E.0147
G1 X106.847 Y115.362 E.01261
G1 X101.322 Y122.967 E.35726
G1 X101.146 Y123.479 E.02059
G1 X99.789 Y122.438 E.06501
G1 X100.212 Y122.16 E.01921
G1 X105.737 Y114.556 E.35726
G1 X105.891 Y114.262 E.01261
G1 X105.951 Y113.984 E.01078
G1 X105.944 Y113.724 E.00989
G1 X105.854 Y113.413 E.01231
G1 X105.466 Y112.852 E.02591
G1 X105.058 Y112.568 E.01892
G1 X104.724 Y112.486 E.01308
G1 X104.271 Y112.538 E.01731
G1 X95.331 Y115.443 E.35726
G1 X94.936 Y115.755 E.01912
G1 X94.29 Y114.163 E.06528
G1 X94.907 Y114.138 E.02347
G1 X103.847 Y111.233 E.35726
G1 X104.244 Y111.009 E.01731
G1 X104.467 Y110.747 E.01308
G1 X104.592 Y110.465 E.01174
G1 X104.637 Y110.147 E.0122
G1 X104.592 Y109.508 E.02432
G1 X104.467 Y109.226 E.01174
G1 X104.244 Y108.964 E.01308
G1 X103.847 Y108.74 E.01731
G1 X94.907 Y105.835 E.35726
G1 X94.281 Y105.8 E.02384
G1 X94.936 Y104.218 E.06508
G1 X95.331 Y104.53 E.01912
G1 X104.271 Y107.435 E.35726
G1 X104.724 Y107.487 E.01731
G1 X105.058 Y107.405 E.01308
G1 X105.38 Y107.205 E.0144
G1 X105.549 Y107.02 E.00953
G1 X105.875 Y106.509 E.02305
G1 X105.944 Y106.249 E.01023
G1 X105.951 Y105.994 E.00967
G1 X105.891 Y105.711 E.011
G1 X105.737 Y105.417 E.01261
G1 X100.212 Y97.813 E.35726
G1 X99.789 Y97.535 E.01921
G1 X101.146 Y96.494 E.06501
G1 X101.322 Y97.006 E.02059
G1 X106.847 Y104.611 E.35726
G1 X107.079 Y104.848 E.01261
G1 X107.422 Y105.027 E.0147
G1 X107.883 Y105.077 E.01764
G1 X108.429 Y104.927 E.02151
G1 X108.76 Y104.756 E.01415
G1 X108.995 Y104.52 E.01266
G1 X109.171 Y104.168 E.01498
G1 X109.219 Y103.84 E.01257
G1 X109.219 Y94.44 E.35726
G1 X109.033 Y93.927 E.02076
G1 X109.905 Y93.812 E.03343
G1 X110.776 Y93.927 E.03343
G1 X110.59 Y94.44 E.02076
G1 X110.59 Y103.84 E.35726
G1 X110.638 Y104.168 E.01257
G1 X110.752 Y104.427 E.01076
G1 X111.056 Y104.761 E.01714
G1 X111.38 Y104.927 E.01386
G1 X111.926 Y105.077 E.02152
G1 X112.387 Y105.027 E.01763
G1 X112.73 Y104.848 E.0147
G1 X112.962 Y104.611 E.01261
G1 X118.487 Y97.006 E.35726
G1 X118.663 Y96.494 E.02059
G1 X120.02 Y97.535 E.06501
G1 X119.597 Y97.813 E.01921
G1 X114.072 Y105.417 E.35726
G1 X113.918 Y105.711 E.01261
G1 X113.858 Y105.989 E.01078
G1 X113.865 Y106.249 E.00989
G1 X113.934 Y106.509 E.01023
G1 X114.053 Y106.733 E.00966
G1 X114.343 Y107.121 E.01838
G1 X114.751 Y107.405 E.01892
G1 X115.085 Y107.487 E.01308
G1 X115.538 Y107.435 E.01731
G1 X124.478 Y104.53 E.35726
G1 X124.873 Y104.218 E.01912
G1 X125.519 Y105.81 E.06528
G1 X124.902 Y105.835 E.02347
G1 X115.962 Y108.74 E.35726
G1 X115.565 Y108.964 E.01731
G1 X115.342 Y109.226 E.01308
G1 X115.217 Y109.508 E.01174
G1 X115.205 Y109.596 E.00336
;WIPE_START
G1 X115.172 Y109.826 E-.04652
G1 X115.189 Y110.344 E-.10361
G1 X115.342 Y110.747 E-.08618
G1 X115.565 Y111.009 E-.06885
G1 X115.962 Y111.233 E-.09109
G1 X115.979 Y111.239 E-.00375
;WIPE_END
G1 Z.4 F30000
G1 X126.398 Y108.475 Z.4
G1 Z.2
G1 E.4 F2400
;WIDTH:0.406229
G1 F2890.102
G1 X126.586 Y109.98 E.04583
G1 X126.178 Y113.254 E.09966
;WIDTH:0.410591
G1 F2855.814
G1 X126.11 Y113.6 E.01078
;WIDTH:0.455295
G1 F2546.226
G1 X126.042 Y113.946 E.01209
;WIDTH:0.499999
G1 F2297.196
G1 X125.973 Y114.292 E.0134
G1 X125.21 Y116.134 E.07576
G1 X125.12 Y116.414 E.01121
;WIDTH:0.452578
G1 F2563.118
G1 X125.029 Y116.695 E.01005
;WIDTH:0.405156
G1 F2898.666
G1 X124.939 Y116.976 E.00888
;WIDTH:0.405046
G1 F2899.547
G1 X124.635 Y117.646 E.02215
;WIDTH:0.452357
G1 F2564.497
G1 X124.331 Y118.316 E.02504
G1 X123.993 Y118.789 E.01981
;WIDTH:0.416567
G1 F2810.144
G1 X123.654 Y119.262 E.01807
;WIDTH:0.380776
G1 F3107.836
G1 X123.315 Y119.734 E.01634
;WIDTH:0.393055
G1 F2998.843
G1 X122.502 Y120.751 E.03789
;WIDTH:0.441125
G1 F2636.833
G1 X121.69 Y121.768 E.04309
G1 X121.399 Y122.011 E.01254
;WIDTH:0.411033
G1 F2852.389
G1 X121.109 Y122.254 E.01159
;WIDTH:0.420627
G1 F2779.938
G1 X120.9 Y122.389 E.0078
;WIDTH:0.460313
G1 F2515.617
G1 X120.691 Y122.524 E.00862
;WIDTH:0.499999
G1 F2297.196
G1 X120.483 Y122.659 E.00944
G1 X118.556 Y124.154 E.09269
;WIDTH:0.472731
G1 F2442.937
G1 X118.256 Y124.402 E.01393
;WIDTH:0.445462
G1 F2608.424
G1 X117.965 Y124.552 E.01096
;WIDTH:0.403685
G1 F2910.482
G1 X115.043 Y125.785 E.09512
;WIDTH:0.402232
G1 F2922.255
G1 X114.617 Y125.936 E.01349
;WIDTH:0.441123
G1 F2636.846
G1 X114.192 Y126.087 E.01495
G1 X113.025 Y126.264 E.03908
;WIDTH:0.395835
G1 F2975.221
G1 X111.858 Y126.441 E.03463
;WIDTH:0.400365
M73 P1 R17
G1 F2937.52
G1 X111.575 Y126.453 E.00842
;WIDTH:0.450182
G1 F2578.195
G1 X111.292 Y126.465 E.00959
;WIDTH:0.499999
G1 F2297.196
G1 X111.009 Y126.477 E.01076
G1 X109.905 Y126.622 E.04236
G1 X108.8 Y126.477 E.04236
;WIDTH:0.541846
G1 F2104.524
G1 X108.627 Y126.433 E.00739
;WIDTH:0.583692
G1 F1941.67
G1 X108.454 Y126.389 E.00801
;WIDTH:0.625538
G1 F1802.211
G1 X108.282 Y126.345 E.00863
;WIDTH:0.667384
G1 F1681.442
G1 X108.109 Y126.301 E.00925
G1 X108.047 Y126.315 E.0033
;WIDTH:0.623385
G1 F1808.897
G1 X107.985 Y126.329 E.00307
;WIDTH:0.579385
G1 F1957.259
G1 X107.923 Y126.343 E.00284
;WIDTH:0.535385
G1 F2132.132
G1 X107.861 Y126.357 E.00261
;WIDTH:0.491386
G1 F2341.319
G1 X107.798 Y126.371 E.00237
;WIDTH:0.447386
G1 F2596.019
G1 X107.736 Y126.385 E.00214
;WIDTH:0.403386
G1 F2912.899
G1 X107.674 Y126.399 E.00191
;WIDTH:0.400254
G1 F2938.427
G1 X106.634 Y126.242 E.03126
;WIDTH:0.441122
G1 F2636.853
G1 X105.594 Y126.084 E.03483
G1 X105.139 Y125.917 E.01605
;WIDTH:0.402231
G1 F2922.264
G1 X104.684 Y125.75 E.01448
;WIDTH:0.403684
G1 F2910.49
G1 X101.844 Y124.552 E.09245
;WIDTH:0.437293
G1 F2662.457
G1 X101.703 Y124.472 E.00533
;WIDTH:0.470901
G1 F2453.38
G1 X101.561 Y124.392 E.00579
;WIDTH:0.499999
G1 F2297.196
G1 X99.326 Y122.659 E.10749
G1 X99.08 Y122.493 E.01129
;WIDTH:0.46255
G1 F2502.206
G1 X98.833 Y122.328 E.01036
;WIDTH:0.425101
G1 F2747.394
G1 X98.587 Y122.162 E.00944
;WIDTH:0.414388
G1 F2826.627
G1 X98.346 Y121.956 E.0098
;WIDTH:0.441124
G1 F2636.839
G1 X98.104 Y121.75 E.0105
G1 X97.299 Y120.742 E.04271
;WIDTH:0.392014
G1 F3007.786
G1 X96.494 Y119.734 E.03744
;WIDTH:0.379388
G1 F3120.653
G1 X96.155 Y119.262 E.01628
;WIDTH:0.415872
G1 F2815.376
G1 X95.817 Y118.789 E.01804
;WIDTH:0.452356
G1 F2564.504
G1 X95.478 Y118.316 E.01981
G1 X95.156 Y117.606 E.02654
;WIDTH:0.405045
G1 F2899.551
G1 X94.834 Y116.896 E.02347
;WIDTH:0.405156
G1 F2898.666
G1 X94.756 Y116.642 E.00801
;WIDTH:0.452578
G1 F2563.118
G1 X94.677 Y116.388 E.00906
;WIDTH:0.499999
G1 F2297.196
G1 X94.599 Y116.134 E.01011
G1 X93.828 Y114.231 E.07801
G1 X93.758 Y113.872 E.0139
;WIDTH:0.455296
G1 F2546.222
G1 X93.688 Y113.513 E.01254
;WIDTH:0.410593
G1 F2855.803
G1 X93.618 Y113.154 E.01118
;WIDTH:0.406231
G1 F2890.086
G1 X93.236 Y110.096 E.0931
G1 X93.236 Y109.877 E.00661
G1 X93.621 Y106.8 E.09369
;WIDTH:0.410595
G1 F2855.783
G1 X93.695 Y106.421 E.0118
;WIDTH:0.455297
G1 F2546.214
G1 X93.769 Y106.042 E.01324
;WIDTH:0.499999
G1 F2297.196
G1 X93.843 Y105.663 E.01467
G1 X94.599 Y103.839 E.07503
G1 X94.689 Y103.559 E.01121
;WIDTH:0.452579
G1 F2563.111
G1 X94.78 Y103.278 E.01005
;WIDTH:0.405158
G1 F2898.649
G1 X94.87 Y102.997 E.00888
;WIDTH:0.405048
G1 F2899.531
G1 X95.174 Y102.327 E.02215
;WIDTH:0.452358
G1 F2564.491
G1 X95.478 Y101.657 E.02504
G1 X95.817 Y101.184 E.01981
;WIDTH:0.416567
G1 F2810.144
G1 X96.155 Y100.711 E.01807
;WIDTH:0.380775
G1 F3107.845
G1 X96.494 Y100.238 E.01634
;WIDTH:0.393058
G1 F2998.818
G1 X97.307 Y99.222 E.03789
;WIDTH:0.441133
G1 F2636.78
G1 X98.119 Y98.205 E.04309
G1 X98.41 Y97.962 E.01254
;WIDTH:0.411041
G1 F2852.323
G1 X98.701 Y97.719 E.0116
;WIDTH:0.420633
G1 F2779.893
G1 X98.909 Y97.584 E.0078
;WIDTH:0.460316
G1 F2515.599
G1 X99.118 Y97.449 E.00862
;WIDTH:0.499999
G1 F2297.196
G1 X99.326 Y97.314 E.00944
G1 X100.952 Y96.067 E.07788
G1 X101.227 Y95.836 E.01363
;WIDTH:0.467595
G1 F2472.479
G1 X101.501 Y95.605 E.01267
;WIDTH:0.435191
G1 F2676.721
G1 X101.844 Y95.421 E.01271
;WIDTH:0.403685
G1 F2910.482
G1 X104.766 Y94.188 E.09512
;WIDTH:0.402231
G1 F2922.26
G1 X105.192 Y94.037 E.01349
;WIDTH:0.441123
G1 F2636.846
G1 X105.617 Y93.886 E.01495
G1 X106.784 Y93.709 E.03908
;WIDTH:0.395835
G1 F2975.221
G1 X107.951 Y93.532 E.03463
;WIDTH:0.400365
G1 F2937.52
G1 X108.234 Y93.52 E.00842
;WIDTH:0.450182
G1 F2578.195
G1 X108.517 Y93.508 E.00959
;WIDTH:0.499999
G1 F2297.196
G1 X108.8 Y93.496 E.01076
G1 X109.905 Y93.351 E.04236
G1 X111.009 Y93.496 E.04236
G1 X111.31 Y93.511 E.01145
;WIDTH:0.450184
G1 F2578.182
G1 X111.611 Y93.525 E.0102
;WIDTH:0.400369
G1 F2937.488
G1 X111.912 Y93.54 E.00895
;WIDTH:0.395839
G1 F2975.191
G1 X113.063 Y93.715 E.03417
;WIDTH:0.441124
G1 F2636.839
G1 X114.215 Y93.889 E.03856
G1 X114.67 Y94.056 E.01605
;WIDTH:0.402233
G1 F2922.247
G1 X115.125 Y94.223 E.01448
;WIDTH:0.403684
G1 F2910.49
G1 X117.965 Y95.421 E.09245
;WIDTH:0.435188
G1 F2676.741
G1 X118.308 Y95.605 E.01271
;WIDTH:0.467594
G1 F2472.488
G1 X118.582 Y95.836 E.01267
;WIDTH:0.499999
G1 F2297.196
G1 X118.857 Y96.067 E.01363
G1 X120.483 Y97.314 E.07789
G1 X120.729 Y97.48 E.01129
;WIDTH:0.46255
G1 F2502.204
G1 X120.976 Y97.645 E.01036
;WIDTH:0.425101
G1 F2747.39
G1 X121.222 Y97.811 E.00944
;WIDTH:0.414388
G1 F2826.623
G1 X121.463 Y98.017 E.0098
;WIDTH:0.441124
G1 F2636.839
G1 X121.705 Y98.223 E.0105
G1 X122.51 Y99.231 E.04271
;WIDTH:0.392014
G1 F3007.79
G1 X123.315 Y100.238 E.03744
;WIDTH:0.379387
G1 F3120.662
G1 X123.654 Y100.711 E.01628
;WIDTH:0.415871
G1 F2815.383
G1 X123.992 Y101.184 E.01804
;WIDTH:0.452355
G1 F2564.509
G1 X124.331 Y101.657 E.01981
G1 X124.67 Y102.405 E.02796
;WIDTH:0.405044
G1 F2899.563
G1 X125.009 Y103.153 E.02473
;WIDTH:0.405155
G1 F2898.676
G1 X125.076 Y103.382 E.00718
;WIDTH:0.452577
G1 F2563.122
G1 X125.143 Y103.61 E.00812
;WIDTH:0.499999
G1 F2297.196
G1 X125.21 Y103.839 E.00906
G1 X125.981 Y105.742 E.07801
G1 X126.05 Y106.094 E.01366
;WIDTH:0.455251
G1 F2546.5
G1 X126.119 Y106.447 E.01232
;WIDTH:0.410503
G1 F2856.503
G1 X126.188 Y106.8 E.01098
;WIDTH:0.406229
G1 F2890.102
G1 X126.393 Y108.435 E.0498
;WIPE_START
G1 X126.586 Y109.98 E-.31142
G1 X126.531 Y110.42 E-.08858
;WIPE_END
G1 Z.4 F30000
G1 X115.647 Y109.699 Z.4
G1 Z.2
G1 E.4 F2400
;WIDTH:0.499999
G1 F2297.196
G1 X115.656 Y109.636 E.00244
G1 X115.731 Y109.466 E.00704
G1 X115.865 Y109.309 E.00785
G1 X116.103 Y109.174 E.01039
G1 X125.043 Y106.269 E.35726
G1 X125.413 Y106.254 E.01408
G1 X125.565 Y106.45 E.00941
;WIDTH:0.455296
G1 F2546.224
G1 X125.716 Y106.646 E.00849
;WIDTH:0.410592
G1 F2855.809
G1 X125.868 Y106.841 E.00757
;WIDTH:0.406229
G1 F2890.102
G1 X126.22 Y109.986 E.09561
G1 X125.87 Y113.116 E.09513
;WIDTH:0.371661
G1 F3194.004
G1 X125.848 Y113.238 E.00338
;WIDTH:0.414441
G1 F2826.225
G1 X125.703 Y113.398 E.00667
;WIDTH:0.45722
G1 F2534.397
G1 X125.558 Y113.558 E.00744
;WIDTH:0.499999
G1 F2297.196
G1 X125.413 Y113.719 E.00821
G1 X125.043 Y113.704 E.01408
G1 X116.103 Y110.799 E.35726
G1 X115.865 Y110.664 E.01039
G1 X115.731 Y110.507 E.00785
M73 P1 R16
G1 X115.639 Y110.265 E.00983
G1 X115.629 Y109.826 E.01668
G1 X115.642 Y109.739 E.00336
G1 X116.095 Y109.763 F30000
;TYPE:Outer wall
G1 F2297.196
G1 X116.18 Y109.63 E.006
G1 X125.043 Y106.75 E.35418
G1 X125.308 Y106.699 E.01024
G1 X125.482 Y106.898 E.01004
G1 X125.807 Y109.986 E.11804
G1 X125.482 Y113.075 E.11804
G1 X125.308 Y113.274 E.01004
G1 X125.043 Y113.223 E.01024
G1 X116.244 Y110.364 E.35162
G1 X116.12 Y110.267 E.00599
G1 X116.086 Y110.147 E.00474
G1 X116.094 Y109.803 E.01308
;WIPE_START
G1 X116.18 Y109.63 E-.03864
G1 X117.899 Y109.071 E-.36136
;WIPE_END
G1 Z.4 F30000
G1 X114.341 Y113.779 Z.4
G1 Z.2
G1 E.4 F2400
;TYPE:Inner wall
G1 F2297.196
G1 X114.372 Y113.601 E.00685
G1 X114.679 Y113.161 E.02041
G1 X114.924 Y112.99 E.01135
G1 X115.125 Y112.942 E.00785
G1 X115.397 Y112.973 E.01039
G1 X124.337 Y115.877 E.35726
G1 X124.71 Y116.173 E.01809
G1 X124.704 Y116.373 E.00762
;WIDTH:0.452578
G1 F2563.118
G1 X124.697 Y116.573 E.00683
;WIDTH:0.405156
G1 F2898.666
G1 X124.691 Y116.774 E.00604
;WIDTH:0.405046
G1 F2899.547
G1 X124.333 Y117.442 E.02282
;WIDTH:0.452357
G1 F2564.497
G1 X123.976 Y118.111 E.0258
G1 X123.676 Y118.592 E.01931
;WIDTH:0.415873
G1 F2815.373
G1 X123.377 Y119.074 E.01759
;WIDTH:0.379388
G1 F3120.657
G1 X123.077 Y119.556 E.01587
;WIDTH:0.392014
G1 F3007.786
G1 X122.238 Y120.525 E.03723
;WIDTH:0.441125
G1 F2636.833
G1 X121.399 Y121.495 E.04247
G1 X121.194 Y121.703 E.00964
;WIDTH:0.41439
G1 F2826.612
G1 X120.989 Y121.91 E.009
;WIDTH:0.387654
G1 F3045.827
G1 X120.903 Y121.985 E.00329
;WIDTH:0.420627
G1 F2779.938
G1 X120.726 Y122.043 E.00584
;WIDTH:0.460313
G1 F2515.617
G1 X120.549 Y122.1 E.00645
;WIDTH:0.499999
G1 F2297.196
G1 X120.372 Y122.158 E.00707
G1 X119.967 Y121.892 E.01842
G1 X114.442 Y114.287 E.35726
G1 X114.313 Y113.944 E.01391
G1 X114.335 Y113.819 E.00484
G1 X114.77 Y113.852 F30000
;TYPE:Outer wall
G1 F2297.196
G1 X115.016 Y113.47 E.01726
G1 X115.098 Y113.413 E.00378
G1 X115.255 Y113.407 E.00599
G1 X124.195 Y116.312 E.35726
G1 X124.32 Y116.411 E.00603
G1 X124.323 Y116.644 E.00887
G1 X122.77 Y119.334 E.11804
