; HEADER_BLOCK_START
; generated by OrcaSlicer 2.1.1 on 2024-09-26 at 23:10:11
; total layer number: 18
; filament_density: 1.24
; filament_diameter: 1.75
; max_z_height: 3.60
; HEADER_BLOCK_END

; THUMBNAIL_BLOCK_START

;
; THUMBNAIL_BLOCK_END

; THUMBNAIL_BLOCK_START

;
; THUMBNAIL_BLOCK_END

; external perimeters extrusion width = 0.42mm
; perimeters extrusion width = 0.45mm
; infill extrusion width = 0.45mm
; solid infill extrusion width = 0.42mm
; top infill extrusion width = 0.42mm
; first layer extrusion width = 0.50mm

; external perimeters extrusion width = 0.42mm
; perimeters extrusion width = 0.45mm
; infill extrusion width = 0.45mm
; solid infill extrusion width = 0.42mm
; top infill extrusion width = 0.42mm
; first layer extrusion width = 0.50mm

; EXECUTABLE_BLOCK_START
EXCLUDE_OBJECT_DEFINE NAME=big_wheel_spokes.stl_id_0_copy_0 CENTER=110,110 POLYGON=[[92.0955,109.412],[92.4221,106.096],[93.3895,102.907],[94.9605,99.9675],[97.0747,97.3914],[99.6508,95.2772],[102.59,93.7063],[103.708,93.343],[106.897,92.3756],[110.214,92.0489],[113.53,92.3756],[116.719,93.343],[119.658,94.914],[122.234,97.0281],[124.349,99.6042],[125.039,100.555],[126.61,103.494],[127.578,106.683],[127.905,110],[127.578,113.317],[126.61,116.506],[125.039,119.445],[124.349,120.396],[122.234,122.972],[119.658,125.086],[116.719,126.657],[113.53,127.624],[110.214,127.951],[106.897,127.624],[103.708,126.657],[102.59,126.294],[99.6508,124.723],[97.0747,122.609],[94.9605,120.032],[93.3895,117.093],[92.4221,113.904],[92.0955,110.588],[92.0955,109.412]]
EXCLUDE_OBJECT_DEFINE NAME=big_wheel_spokes.stl_id_1_copy_0 CENTER=146.809,110 POLYGON=[[128.905,109.412],[129.231,106.096],[130.199,102.907],[131.77,99.9675],[133.884,97.3914],[136.46,95.2772],[139.399,93.7063],[140.517,93.343],[143.706,92.3756],[147.023,92.0489],[150.339,92.3756],[153.528,93.343],[156.467,94.914],[159.043,97.0281],[161.158,99.6042],[161.849,100.555],[163.419,103.494],[164.387,106.683],[164.714,110],[164.387,113.317],[163.419,116.506],[161.849,119.445],[161.158,120.396],[159.043,122.972],[156.467,125.086],[153.528,126.657],[150.339,127.624],[147.023,127.951],[143.706,127.624],[140.517,126.657],[139.399,126.294],[136.46,124.723],[133.884,122.609],[131.77,120.032],[130.199,117.093],[129.231,113.904],[128.905,110.588],[128.905,109.412]]
M73 P0 R20
M106 S0
M106 P2 S0
;TYPE:Custom
M140 S0
M104 S0 
START_PRINT EXTRUDER_TEMP=230 BED_TEMP=30
G90
G21
M83 ; use relative distances for extrusion
; filament start gcode
M106 S0
M106 P2 S0
;LAYER_CHANGE
;Z:0.2
;HEIGHT:0.2
;BEFORE_LAYER_CHANGE
;0.2
G92 E0

G1 E-.4 F2400
;_SET_FAN_SPEED_CHANGING_LAYER
SET_VELOCITY_LIMIT ACCEL=500 ACCEL_TO_DECEL=250
SET_VELOCITY_LIMIT SQUARE_CORNER_VELOCITY=9
EXCLUDE_OBJECT_START NAME=big_wheel_spokes.stl_id_1_copy_0
G1 Z.2 F30000
G1 X140.351 Y110
G1 Z.2
G1 E.4 F2400
;TYPE:Inner wall
;WIDTH:0.499999
G1 F2297.196
G1 X140.406 Y109.88 E.00503
G1 X140.561 Y109.375 E.02005
G1 X140.684 Y108.777 E.02322
G1 X140.722 Y108.354 E.01612
G1 X140.82 Y107.845 E.0197
G1 X140.84 Y107.567 E.0106
G1 X140.897 Y107.52 E.00282
G1 X141.239 Y107.011 E.02331
G1 X141.585 Y106.601 E.02038
G1 X141.922 Y106.091 E.02322
G1 X142.215 Y105.501 E.02504
G1 X142.339 Y105.455 E.00503
G1 X142.911 Y105.145 E.02473
G1 X143.393 Y104.814 E.02223
G1 X143.797 Y104.48 E.01991
G1 X144.268 Y104.15 E.02186
G1 X144.956 Y104.016 E.02665
G1 X145.53 Y103.963 E.0219
G1 X146.175 Y103.821 E.0251
G1 X146.714 Y103.638 E.02162
G1 X146.834 Y103.692 E.00503
G1 X147.458 Y103.878 E.02473
G1 X148.033 Y103.985 E.02223
G1 X148.554 Y104.035 E.01991
G1 X149.12 Y104.135 E.02186
G1 X149.702 Y104.526 E.02665
G1 X150.145 Y104.894 E.0219
G1 X150.622 Y105.208 E.02169
G1 X151.212 Y105.501 E.02504
G1 X151.361 Y105.819 E.01335
G1 X151.652 Y106.32 E.02198
G1 X152.121 Y106.935 E.0294
G1 X152.405 Y107.356 E.01931
G1 X152.587 Y107.567 E.0106
G1 X152.58 Y107.641 E.00282
G1 X152.698 Y108.243 E.02331
G1 X152.743 Y108.777 E.02038
G1 X152.866 Y109.375 E.02322
G1 X153.076 Y110 E.02504
G1 X153.021 Y110.12 E.00503
G1 X152.866 Y110.625 E.02005
G1 X152.743 Y111.223 E.02322
G1 X152.705 Y111.646 E.01612
G1 X152.607 Y112.155 E.0197
G1 X152.587 Y112.433 E.0106
G1 X152.53 Y112.48 E.00282
G1 X152.188 Y112.989 E.02331
G1 X151.842 Y113.399 E.02038
G1 X151.437 Y114.038 E.02878
G1 X151.212 Y114.499 E.01947
G1 X151.087 Y114.546 E.00511
G1 X150.532 Y114.843 E.02391
G1 X150.021 Y115.197 E.02362
G1 X149.629 Y115.521 E.01932
G1 X149.159 Y115.85 E.0218
G1 X148.472 Y115.983 E.02659
G1 X147.904 Y116.035 E.02169
G1 X147.252 Y116.179 E.02536
G1 X146.714 Y116.362 E.02163
G1 X146.593 Y116.308 E.00503
G1 X145.969 Y116.122 E.02473
G1 X145.394 Y116.015 E.02223
G1 X144.873 Y115.965 E.01991
G1 X144.307 Y115.865 E.02186
G1 X143.725 Y115.474 E.02665
G1 X143.282 Y115.106 E.0219
G1 X142.805 Y114.792 E.02169
G1 X142.215 Y114.499 E.02504
G1 X142.168 Y114.375 E.00503
G1 X141.922 Y113.909 E.02005
G1 X141.585 Y113.399 E.02322
G1 X141.306 Y113.065 E.01652
G1 X141.022 Y112.644 E.01931
G1 X140.84 Y112.433 E.0106
G1 X140.847 Y112.359 E.00282
G1 X140.729 Y111.757 E.02331
G1 X140.684 Y111.223 E.02038
G1 X140.561 Y110.625 E.02322
G1 X140.364 Y110.038 E.02352
G1 X139.723 Y110 F30000
G1 F2297.196
G1 X139.898 Y109.903 E.00758
G1 X139.969 Y109.745 E.00659
G1 X140.143 Y109.169 E.02286
G1 X140.266 Y108.323 E.03249
G1 X140.374 Y107.744 E.02239
G1 X140.372 Y107.43 E.01192
G1 X140.305 Y107.346 E.00409
G1 X140.412 Y107.333 E.00409
G1 X140.56 Y107.211 E.00729
G1 X140.871 Y106.738 E.02153
G1 X141.206 Y106.345 E.0196
G1 X141.518 Y105.878 E.02135
G1 X141.825 Y105.249 E.0266
G1 X141.783 Y105.069 E.00704
G1 X141.963 Y105.112 E.00704
G1 X142.125 Y105.051 E.00659
G1 X142.608 Y104.795 E.02076
G1 X143.059 Y104.493 E.02064
G1 X143.451 Y104.158 E.0196
G1 X143.945 Y103.827 E.0226
G1 X144.071 Y103.619 E.00922
G1 X144.104 Y103.647 E.00166
G1 X144.39 Y103.672 E.01091
G1 X144.889 Y103.562 E.01943
G1 X145.443 Y103.514 E.02112
G1 X146.04 Y103.385 E.02323
G1 X146.616 Y103.184 E.02318
G1 X146.714 Y103.027 E.00704
G1 X146.811 Y103.184 E.00704
G1 X146.969 Y103.256 E.00659
G1 X147.473 Y103.411 E.02005
G1 X148.024 Y103.522 E.02135
G1 X148.538 Y103.562 E.0196
G1 X149.121 Y103.677 E.0226
G1 X149.357 Y103.619 E.00922
G1 X149.361 Y103.663 E.00167
G1 X149.545 Y103.883 E.01091
G1 X149.976 Y104.158 E.01943
G1 X150.401 Y104.515 E.02112
G1 X150.836 Y104.804 E.01982
G1 X151.464 Y105.112 E.0266
G1 X151.645 Y105.069 E.00704
G1 X151.602 Y105.249 E.00704
G1 X151.766 Y105.606 E.01491
G1 X152.03 Y106.064 E.02011
G1 X152.466 Y106.634 E.02727
G1 X152.792 Y107.113 E.022
G1 X153.015 Y107.333 E.01192
G1 X153.122 Y107.346 E.00409
G1 X153.055 Y107.43 E.00409
G1 X153.037 Y107.621 E.00729
G1 X153.151 Y108.176 E.02153
G1 X153.192 Y108.69 E.0196
G1 X153.352 Y109.4 E.02767
G1 X153.529 Y109.903 E.02026
G1 X153.687 Y110 E.00704
G1 X153.529 Y110.097 E.00704
G1 X153.458 Y110.255 E.00659
G1 X153.284 Y110.831 E.02286
G1 X153.161 Y111.677 E.03249
G1 X153.053 Y112.256 E.02239
G1 X153.055 Y112.57 E.01192
G1 X153.131 Y112.658 E.00444
G1 X153.015 Y112.667 E.00444
G1 X152.867 Y112.789 E.00729
G1 X152.556 Y113.262 E.02153
G1 X152.221 Y113.655 E.0196
G1 X151.841 Y114.252 E.02691
G1 X151.601 Y114.756 E.02123
G1 X151.654 Y114.94 E.00728
G1 X151.47 Y114.887 E.00728
G1 X151.298 Y114.951 E.00696
G1 X150.834 Y115.194 E.01991
G1 X150.392 Y115.487 E.02016
G1 X149.976 Y115.843 E.02078
G1 X149.482 Y116.173 E.02261
G1 X149.358 Y116.385 E.00933
G1 X149.323 Y116.353 E.00182
G1 X149.037 Y116.328 E.01091
G1 X148.538 Y116.436 E.01939
G1 X147.991 Y116.483 E.02086
G1 X147.387 Y116.615 E.02352
G1 X146.811 Y116.816 E.0232
G1 X146.714 Y116.99 E.00757
G1 X146.616 Y116.816 E.00757
G1 X146.458 Y116.744 E.0066
G1 X145.936 Y116.584 E.02076
G1 X145.404 Y116.478 E.02064
G1 X144.889 Y116.438 E.0196
G1 X144.306 Y116.323 E.0226
G1 X144.069 Y116.385 E.00932
G1 X144.067 Y116.337 E.00182
G1 X143.882 Y116.117 E.01091
G1 X143.451 Y115.842 E.01943
G1 X143.026 Y115.485 E.02112
G1 X142.591 Y115.196 E.01982
G1 X141.963 Y114.888 E.0266
G1 X141.771 Y114.943 E.00758
G1 X141.825 Y114.751 E.00758
G1 X141.764 Y114.589 E.00659
G1 X141.48 Y114.059 E.02286
G1 X140.962 Y113.366 E.03288
G1 X140.635 Y112.887 E.022
G1 X140.412 Y112.667 E.01192
G1 X140.296 Y112.658 E.00444
G1 X140.372 Y112.57 E.00444
G1 X140.39 Y112.379 E.00729
G1 X140.276 Y111.824 E.02153
G1 X140.235 Y111.31 E.0196
G1 X140.075 Y110.6 E.02767
G1 X139.898 Y110.097 E.02026
G1 X139.758 Y110.019 E.00606
;WIPE_START
G1 X139.898 Y109.903 E-.03634
G1 X139.969 Y109.745 E-.03468
G1 X140.143 Y109.169 E-.12028
G1 X140.266 Y108.323 E-.17099
G1 X140.3 Y108.138 E-.03771
;WIPE_END
G1 Z.4 F30000
G1 X149.436 Y112.98 Z.4
G1 Z.2
G1 E.4 F2400
G1 F2297.196
G1 X149.062 Y113.313 E.01901
G1 X148.529 Y113.623 E.02344
G1 X148.164 Y113.793 E.01531
G1 X147.615 Y113.96 E.02177
G1 X146.975 Y114.045 E.02454
G1 X146.452 Y114.045 E.01989
G1 X145.926 Y113.988 E.02009
G1 X145.435 Y113.845 E.01945
G1 X145.057 Y113.708 E.0153
G1 X144.544 Y113.434 E.02207
G1 X144.017 Y113.028 E.0253
G1 X143.795 Y112.784 E.01251
G1 X143.641 Y112.45 E.01401
G1 X143.599 Y111.547 E.03434
G1 X143.599 Y107.856 E.1403
G1 X143.641 Y107.55 E.01172
G1 X143.795 Y107.216 E.01401
G1 X144.038 Y106.955 E.01355
G1 X144.45 Y106.623 E.02009
G1 X144.899 Y106.377 E.01945
G1 X145.264 Y106.207 E.0153
G1 X145.819 Y106.038 E.02207
G1 X146.512 Y105.949 E.02654
G1 X146.915 Y105.949 E.01532
G1 X147.501 Y106.012 E.02238
G1 X147.992 Y106.155 E.01945
G1 X148.371 Y106.292 E.0153
G1 X148.876 Y106.562 E.02177
G1 X149.389 Y106.955 E.02455
G1 X149.632 Y107.216 E.01355
G1 X149.786 Y107.55 E.01401
G1 X149.828 Y108.1 E.02094
G1 X149.828 Y112.144 E.15372
G1 X149.786 Y112.45 E.01172
G1 X149.588 Y112.845 E.01681
G1 X149.465 Y112.954 E.00622
G1 X149.19 Y112.589 F30000
G1 F2297.196
G1 X149.12 Y112.674 E.00419
G1 X148.72 Y112.998 E.01955
G1 X148.155 Y113.305 E.02444
G1 X147.561 Y113.498 E.02375
G1 X146.93 Y113.59 E.02422
G1 X146.497 Y113.59 E.01648
G1 X145.944 Y113.522 E.02115
G1 X145.396 Y113.356 E.02177
G1 X144.84 Y113.073 E.02371
G1 X144.307 Y112.674 E.0253
G1 X144.136 Y112.465 E.01028
G1 X144.064 Y112.245 E.00878
G1 X144.056 Y107.856 E.16683
G1 X144.116 Y107.576 E.01088
G1 X144.307 Y107.326 E.01196
G1 X144.706 Y107.002 E.01952
G1 X145.272 Y106.695 E.02446
G1 X145.865 Y106.502 E.02371
G1 X146.557 Y106.404 E.02654
G1 X147.108 Y106.428 E.02096
G1 X147.562 Y106.502 E.01749
G1 X148.072 Y106.658 E.02028
G1 X148.587 Y106.927 E.02207
G1 X149.099 Y107.308 E.02425
G1 X149.291 Y107.535 E.01131
G1 X149.37 Y107.838 E.01192
G1 X149.371 Y112.144 E.16365
G1 X149.291 Y112.465 E.01255
G1 X149.215 Y112.558 E.00456
G1 X148.838 Y112.311 F30000
;TYPE:Outer wall
G1 F2297.196
G1 X148.465 Y112.619 E.01837
G1 X147.94 Y112.901 E.02266
G1 X147.428 Y113.061 E.02036
G1 X146.886 Y113.135 E.02082
G1 X146.364 Y113.118 E.01983
G1 X145.998 Y113.061 E.01409
G1 X145.515 Y112.914 E.01918
G1 X145.055 Y112.67 E.01977
G1 X144.597 Y112.321 E.0219
G1 X144.516 Y112.178 E.00625
G1 X144.514 Y107.856 E.16427
G1 X144.572 Y107.703 E.00621
G1 X144.962 Y107.381 E.01923
G1 X145.487 Y107.099 E.02267
G1 X145.998 Y106.939 E.02032
G1 X146.602 Y106.859 E.02315
G1 X147.306 Y106.906 E.02684
G1 X147.898 Y107.081 E.02347
G1 X148.372 Y107.33 E.02032
G1 X148.809 Y107.662 E.02085
G1 X148.905 Y107.795 E.00625
G1 X148.914 Y108.453 E.02502
G1 X148.914 Y112.144 E.1403
G1 X148.861 Y112.281 E.00555
;WIPE_START
G1 X148.465 Y112.619 E-.10426
G1 X147.94 Y112.901 E-.11926
G1 X147.428 Y113.061 E-.10714
G1 X147.085 Y113.108 E-.06935
;WIPE_END
G1 Z.4 F30000
G1 X141.857 Y115.333 Z.4
G1 Z.2
G1 E.4 F2400
G1 F2297.196
G1 X142.378 Y115.6 E.02223
G1 X142.803 Y115.886 E.01948
G1 X143.663 Y116.551 E.04132
G1 X143.672 Y116.746 E.00741
;WIDTH:0.506812
G1 F2263.458
G1 X140.23 Y125.046 E.3466
G1 X140.086 Y125.175 E.00747
;WIDTH:0.499999
G1 F2297.196
G1 X139.843 Y125.18 E.00922
;WIDTH:0.498745
G1 F2303.515
G1 X138.353 Y124.532 E.0616
;WIDTH:0.503532
G1 F2279.576
G1 X138.098 Y124.348 E.01203
G1 X137.543 Y123.765 E.03083
;WIDTH:0.499999
G1 F2297.196
G1 X137.398 Y123.55 E.00984
G1 X137.055 Y123.573 E.01307
;WIDTH:0.494083
G1 F2327.319
G1 X135.532 Y122.452 E.07096
;WIDTH:0.498908
G1 F2302.692
G1 X135.344 Y122.238 E.01081
;WIDTH:0.499999
G1 F2297.196
G1 X135.356 Y122.07 E.0064
G1 X135.295 Y121.842 E.00895
;WIDTH:0.504024
G1 F2277.143
G1 X135.358 Y121.686 E.00647
G1 X141.643 Y115.394 E.34098
;WIDTH:0.499999
G1 F2297.196
G1 X141.819 Y115.344 E.00695
;WIPE_START
G1 X142.378 Y115.6 E-.12295
G1 X142.803 Y115.886 E-.1025
G1 X143.493 Y116.42 E-.17454
;WIPE_END
G1 Z.4 F30000
G1 X160.381 Y119.112 Z.4
G1 Z.2
G1 E.4 F2400
G1 F2297.196
G1 X160.269 Y119.803 E.02658
;WIDTH:0.496608
G1 F2314.366
G1 X159.297 Y120.939 E.05641
;WIDTH:0.504422
G1 F2275.18
G1 X158.968 Y121.318 E.01926
G1 X158.833 Y121.422 E.00655
;WIDTH:0.502656
G1 F2283.92
G1 X158.559 Y121.475 E.01064
;WIDTH:0.504746
G1 F2273.583
G1 X158.452 Y121.415 E.00472
G1 X152.108 Y115.071 E.34453
;WIDTH:0.499999
G1 F2297.196
G1 X152.046 Y114.858 E.00842
G1 X152.314 Y114.336 E.0223
G1 X152.599 Y113.91 E.01948
G1 X153.016 Y113.39 E.02533
G1 X153.253 Y113.058 E.01552
G1 X153.46 Y113.042 E.00788
;WIDTH:0.506245
G1 F2266.228
G1 X161.735 Y116.474 E.34515
G1 X161.864 Y116.615 E.00737
;WIDTH:0.499999
G1 F2297.196
G1 X161.85 Y117.077 E.01757
;WIDTH:0.519924
G1 F2201.24
G1 X161.186 Y118.358 E.05722
G1 X160.904 Y118.818 E.02139
;WIDTH:0.499999
G1 F2297.196
G1 X160.606 Y119.004 E.01338
G1 X160.417 Y119.095 E.00795
;WIPE_START
G1 X160.269 Y119.803 E-.14459
G1 X159.439 Y120.773 E-.25541
;WIPE_END
G1 Z.4 F30000
G1 X152.047 Y105.144 Z.4
G1 Z.2
G1 E.4 F2400
G1 F2297.196
G1 X152.108 Y104.929 E.00848
;WIDTH:0.504786
G1 F2273.387
G1 X158.452 Y98.585 E.34457
G1 X158.636 Y98.521 E.00749
;WIDTH:0.506569
G1 F2264.644
G1 X158.935 Y98.643 E.01245
G1 X159.297 Y99.061 E.02133
;WIDTH:0.496554
G1 F2314.641
G1 X160.212 Y100.131 E.05313
;WIDTH:0.475155
G1 F2429.234
G1 X160.273 Y100.235 E.00433
;WIDTH:0.499999
G1 F2297.196
G1 X160.381 Y100.888 E.02513
G1 X160.806 Y101.092 E.01794
;WIDTH:0.519924
G1 F2201.24
G1 X161.064 Y101.408 E.01619
G1 X161.674 Y102.584 E.05251
;WIDTH:0.489699
G1 F2350.155
G1 X161.851 Y102.967 E.01568
;WIDTH:0.499999
G1 F2297.196
G1 X161.864 Y103.385 E.01589
;WIDTH:0.506288
G1 F2266.018
G1 X161.735 Y103.526 E.00737
G1 X153.46 Y106.958 E.34519
;WIDTH:0.499999
G1 F2297.196
G1 X153.253 Y106.942 E.00788
G1 X152.924 Y106.464 E.02207
G1 X152.409 Y105.808 E.0317
G1 X152.067 Y105.198 E.02658
G1 X152.061 Y105.181 E.00068
;WIPE_START
G1 X152.108 Y104.929 E-.05126
G1 X153.341 Y103.696 E-.34874
;WIPE_END
G1 Z.4 F30000
G1 X163.634 Y109.671 Z.4
G1 Z.2
G1 E.4 F2400
;TYPE:Inner wall
;WIDTH:0.36446
G1 F3265.535
G1 X163.798 Y110.002 E.00989
G1 X163.653 Y110.253 E.00773
G1 X163.338 Y110 E.0108
G1 X163.522 Y109.867 E.00607
G1 X163.614 Y109.706 E.00496
;WIPE_START
G1 X163.798 Y110.002 E-.09599
G1 X163.653 Y110.253 E-.07948
G1 X163.338 Y110 E-.11107
G1 X163.522 Y109.867 E-.06243
G1 X163.614 Y109.706 E-.05104
;WIPE_END
G1 Z.4 F30000
G1 X162.103 Y103.964 Z.4
G1 Z.2
G1 E.4 F2400
;TYPE:Outer wall
;WIDTH:0.499999
G1 F2297.196
G1 X162.298 Y104.073 E.00847
;WIDTH:0.515105
M73 P1 R20
G1 F2223.705
G1 X162.971 Y106.035 E.08146
;WIDTH:0.499571
G1 F2299.349
G1 X162.962 Y106.17 E.00515
G1 X162.928 Y106.217 E.0022
;WIDTH:0.499999
G1 F2297.196
G1 X162.947 Y106.738 E.0198
G1 X162.937 Y107.09 E.0134
G1 X163.103 Y107.199 E.00754
G1 X163.177 Y107.341 E.00611
;WIDTH:0.499564
G1 F2299.384
G1 X163.395 Y109.251 E.07297
;WIDTH:0.502368
G1 F2285.351
G1 X163.406 Y109.366 E.00442
G1 X163.266 Y109.565 E.0093
;WIDTH:0.499999
G1 F2297.196
G1 X163.148 Y109.615 E.00485
;WIDTH:0.501384
G1 F2290.256
G1 X163.058 Y109.735 E.00576
;WIDTH:0.504424
G1 F2275.17
G1 X162.94 Y109.769 E.00468
G1 X154.113 Y109.771 E.33874
;WIDTH:0.499999
G1 F2297.196
G1 X153.919 Y109.663 E.00847
G1 X153.739 Y109.106 E.02223
G1 X153.641 Y108.603 E.01948
G1 X153.564 Y107.931 E.02572
G1 X153.5 Y107.538 E.01513
G1 X153.634 Y107.381 E.00788
;WIDTH:0.506289
G1 F2266.013
G1 X161.913 Y103.954 E.3452
G1 X162.063 Y103.962 E.0058
;WIPE_START
G1 X162.298 Y104.073 E-.05188
G1 X162.863 Y105.719 E-.34812
;WIPE_END
G1 Z.4 F30000
