; HEADER_BLOCK_START
; generated by OrcaSlicer 2.1.1 on 2024-09-26 at 21:13:58
; total layer number: 23
; filament_density: 1.24
; filament_diameter: 1.75
; max_z_height: 4.60
; HEADER_BLOCK_END

; THUMBNAIL_BLOCK_START

;
; THUMBNAIL_BLOCK_END

; THUMBNAIL_BLOCK_START

;
; THUMBNAIL_BLOCK_END

; external perimeters extrusion width = 0.42mm
; perimeters extrusion width = 0.45mm
; infill extrusion width = 0.45mm
; solid infill extrusion width = 0.42mm
; top infill extrusion width = 0.42mm
; first layer extrusion width = 0.50mm

; EXECUTABLE_BLOCK_START
EXCLUDE_OBJECT_DEFINE NAME=big_wheel.stl_id_0_copy_0 CENTER=110,110 POLYGON=[[92.5,110],[93.0963,105.471],[94.8446,101.25],[97.6256,97.6256],[101.25,94.8446],[105.471,93.0963],[110,92.5],[114.529,93.0963],[118.75,94.8446],[122.374,97.6256],[125.155,101.25],[126.904,105.471],[127.5,110],[126.904,114.529],[125.155,118.75],[122.374,122.374],[118.75,125.155],[114.529,126.904],[110,127.5],[105.471,126.904],[101.25,125.155],[97.6256,122.374],[94.8446,118.75],[93.0963,114.529],[92.5,110]]
M73 P0 R10
M106 S0
M106 P2 S0
;TYPE:Custom
M140 S0
M104 S0 
START_PRINT EXTRUDER_TEMP=230 BED_TEMP=30
G90
G21
M83 ; use relative distances for extrusion
; filament start gcode
M106 S0
M106 P2 S0
;LAYER_CHANGE
;Z:0.2
;HEIGHT:0.2
;BEFORE_LAYER_CHANGE
;0.2
G92 E0

G1 E-.4 F2400
;_SET_FAN_SPEED_CHANGING_LAYER
SET_VELOCITY_LIMIT ACCEL=500 ACCEL_TO_DECEL=250
SET_VELOCITY_LIMIT SQUARE_CORNER_VELOCITY=9
EXCLUDE_OBJECT_START NAME=big_wheel.stl_id_0_copy_0
G1 Z.2 F30000
G1 X121.437 Y121.437
G1 Z.2
G1 E.4 F2400
;TYPE:Inner wall
;WIDTH:0.499999
G1 F2297.196
G1 X118.087 Y124.008 E.16048
G1 X114.186 Y125.623 E.16048
G1 X110 Y126.175 E.16048
G1 X105.814 Y125.623 E.16048
G1 X101.913 Y124.008 E.16048
G1 X98.563 Y121.437 E.16048
G1 X95.992 Y118.087 E.16048
G1 X94.377 Y114.186 E.16048
G1 X93.825 Y110 E.16048
G1 X94.377 Y105.814 E.16048
G1 X95.992 Y101.913 E.16048
G1 X98.563 Y98.563 E.16048
G1 X101.913 Y95.992 E.16048
G1 X105.814 Y94.377 E.16048
G1 X110 Y93.825 E.16048
G1 X114.186 Y94.377 E.16048
G1 X118.087 Y95.992 E.16048
G1 X121.437 Y98.563 E.16048
G1 X124.008 Y101.913 E.16048
G1 X125.623 Y105.814 E.16048
G1 X126.175 Y110 E.16048
G1 X125.623 Y114.186 E.16048
G1 X124.008 Y118.087 E.16048
G1 X121.461 Y121.405 E.15896
G1 X121.763 Y121.763 F30000
G1 F2297.196
G1 X118.318 Y124.407 E.16505
G1 X114.306 Y126.069 E.16505
G1 X110 Y126.636 E.16505
G1 X105.694 Y126.069 E.16505
G1 X101.682 Y124.407 E.16505
G1 X98.237 Y121.763 E.16505
G1 X95.593 Y118.318 E.16505
G1 X93.931 Y114.306 E.16505
G1 X93.364 Y110 E.16505
G1 X93.931 Y105.694 E.16505
G1 X95.593 Y101.682 E.16505
G1 X98.237 Y98.237 E.16505
G1 X101.682 Y95.593 E.16505
G1 X105.694 Y93.931 E.16505
G1 X110 Y93.364 E.16505
G1 X114.306 Y93.931 E.16505
G1 X118.318 Y95.593 E.16505
G1 X121.763 Y98.237 E.16505
G1 X124.407 Y101.682 E.16505
G1 X126.069 Y105.694 E.16505
G1 X126.636 Y110 E.16505
G1 X126.069 Y114.306 E.16505
M73 P1 R10
G1 X124.407 Y118.318 E.16505
G1 X121.787 Y121.731 E.16353
G1 X122.089 Y122.089 F30000
;TYPE:Outer wall
G1 F2297.196
G1 X118.548 Y124.806 E.16963
G1 X114.425 Y126.514 E.16963
G1 X110 Y127.097 E.16963
G1 X105.575 Y126.514 E.16963
G1 X101.452 Y124.806 E.16963
G1 X97.911 Y122.089 E.16963
G1 X95.194 Y118.548 E.16963
G1 X93.486 Y114.425 E.16963
G1 X92.903 Y110 E.16963
G1 X93.486 Y105.575 E.16963
G1 X95.194 Y101.452 E.16963
G1 X97.911 Y97.911 E.16963
G1 X101.452 Y95.194 E.16963
G1 X105.575 Y93.486 E.16963
G1 X110 Y92.903 E.16963
G1 X114.425 Y93.486 E.16963
G1 X118.548 Y95.194 E.16963
G1 X122.089 Y97.911 E.16963
G1 X124.806 Y101.452 E.16963
G1 X126.514 Y105.575 E.16963
G1 X127.097 Y110 E.16963
G1 X126.514 Y114.425 E.16963
G1 X124.806 Y118.548 E.16963
G1 X122.113 Y122.057 E.16811
;WIPE_START
G1 X120.53 Y123.279 E-.4
;WIPE_END
G1 Z.4 F30000
G1 X112.666 Y112.896 Z.4
G1 Z.2
G1 E.4 F2400
;TYPE:Inner wall
G1 F2297.196
G1 X112.293 Y113.23 E.01903
G1 X111.619 Y113.615 E.02951
G1 X110.882 Y113.862 E.02951
G1 X110.112 Y113.959 E.02951
G1 X109.337 Y113.905 E.02951
G1 X108.588 Y113.701 E.02951
G1 X107.893 Y113.354 E.02951
G1 X107.354 Y112.94 E.02587
G1 X107.093 Y112.635 E.01524
G1 X106.936 Y112.21 E.01724
G1 X106.936 Y107.943 E.16214
G1 X106.954 Y107.742 E.00769
G1 X107.093 Y107.365 E.01527
G1 X107.354 Y107.06 E.01524
G1 X107.794 Y106.705 E.02149
G1 X108.382 Y106.385 E.02545
G1 X109.134 Y106.136 E.03012
G1 X109.888 Y106.041 E.02888
G1 X110.663 Y106.095 E.02951
G1 X111.412 Y106.299 E.02951
G1 X112.107 Y106.646 E.02951
G1 X112.646 Y107.06 E.02587
G1 X112.907 Y107.365 E.01524
G1 X113.064 Y107.79 E.01724
G1 X113.064 Y112.057 E.16214
G1 X113.015 Y112.388 E.01272
G1 X112.828 Y112.752 E.01558
G1 X112.696 Y112.87 E.00671
G1 X112.429 Y112.49 F30000
G1 F2297.196
G1 X112.356 Y112.587 E.0046
G1 X111.951 Y112.915 E.01984
G1 X111.403 Y113.212 E.02367
G1 X110.75 Y113.424 E.02612
G1 X110.067 Y113.505 E.02612
G1 X109.382 Y113.45 E.02612
G1 X108.721 Y113.264 E.02612
G1 X108.109 Y112.951 E.02612
G1 X107.644 Y112.587 E.02247
G1 X107.45 Y112.331 E.0122
G1 X107.393 Y112.057 E.01064
G1 X107.404 Y107.822 E.16092
G1 X107.533 Y107.528 E.01224
G1 X107.997 Y107.123 E.02338
G1 X108.597 Y106.788 E.02613
G1 X109.265 Y106.574 E.02666
G1 X109.933 Y106.495 E.02555
G1 X110.618 Y106.55 E.02612
G1 X111.279 Y106.736 E.02612
G1 X111.891 Y107.049 E.02612
G1 X112.356 Y107.413 E.02247
G1 X112.55 Y107.669 E.0122
G1 X112.607 Y107.943 E.01064
G1 X112.607 Y112.057 E.15632
G1 X112.55 Y112.331 E.01064
G1 X112.454 Y112.458 E.00608
G1 X112.069 Y112.23 F30000
;TYPE:Outer wall
G1 F2297.196
G1 X111.696 Y112.536 E.01836
G1 X111.188 Y112.809 E.02191
G1 X110.617 Y112.987 E.02272
G1 X110.022 Y113.05 E.02272
G1 X109.427 Y112.995 E.02272
G1 X108.854 Y112.826 E.02272
G1 X108.324 Y112.548 E.02272
G1 X107.934 Y112.233 E.01907
G1 X107.85 Y112.091 E.00628
G1 X107.85 Y107.943 E.15762
G1 X107.934 Y107.767 E.00743
G1 X108.323 Y107.453 E.01901
G1 X108.813 Y107.191 E.0211
G1 X109.396 Y107.012 E.02319
G1 X109.978 Y106.95 E.02223
G1 X110.573 Y107.005 E.02272
G1 X111.146 Y107.174 E.02272
G1 X111.676 Y107.452 E.02272
G1 X112.066 Y107.767 E.01907
G1 X112.15 Y107.909 E.00628
G1 X112.15 Y112.057 E.15762
G1 X112.092 Y112.199 E.00583
;WIPE_START
G1 X111.696 Y112.536 E-.10416
G1 X111.188 Y112.809 E-.11529
G1 X110.617 Y112.987 E-.11957
G1 X110.314 Y113.019 E-.06097
;WIPE_END
G1 Z.4 F30000
G1 X117.731 Y95.993 Z.4
G1 Z.2
G1 E.4 F2400
;TYPE:Bottom surface
;WIDTH:0.501755
G1 F2288.404
G1 X123.328 Y101.59 E.30196
M73 P2 R10
G1 X123.708 Y102.086 E.02384
G1 X124.085 Y102.996 E.03761
G1 X117.004 Y95.915 E.3821
G1 X115.896 Y95.456 E.04574
G1 X124.544 Y104.104 E.46663
G1 X125.003 Y105.212 E.04574
G1 X114.788 Y94.997 E.55115
G1 X114.097 Y94.711 E.02855
G1 X113.816 Y94.674 E.01081
G1 X125.326 Y106.184 E.62105
G1 X125.425 Y106.931 E.02876
G1 X113.069 Y94.575 E.66668
G1 X112.321 Y94.477 E.02876
G1 X125.523 Y107.679 E.71231
G1 X125.622 Y108.426 E.02876
G1 X111.574 Y94.378 E.75794
G1 X110.827 Y94.28 E.02876
G1 X125.72 Y109.173 E.80356
G1 X125.818 Y109.92 E.02876
G1 X110.08 Y94.182 E.84919
G1 X110 Y94.171 E.00306
G1 X109.488 Y94.239 E.01972
G1 X125.761 Y110.512 E.87805
G1 X125.686 Y111.086 E.02207
G1 X108.914 Y94.314 E.90492
G1 X108.341 Y94.39 E.02207
G1 X125.61 Y111.659 E.93178
M73 P3 R10
G1 X125.535 Y112.233 E.02207
G1 X107.767 Y94.465 E.95865
G1 X107.194 Y94.541 E.02207
G1 X125.459 Y112.806 E.98551
G1 X125.384 Y113.379 E.02207
G1 X106.621 Y94.616 E1.01238
G1 X106.047 Y94.692 E.02207
G1 X125.308 Y113.953 E1.03924
G1 X125.289 Y114.097 E.00554
G1 X125.147 Y114.44 E.01419
G1 X105.56 Y94.853 E1.05685
G1 X105.101 Y95.043 E.01895
G1 X124.957 Y114.899 E1.07135
G1 X124.767 Y115.358 E.01895
G1 X104.642 Y95.233 E1.08585
G1 X104.183 Y95.423 E.01895
G1 X124.577 Y115.817 E1.10036
M73 P4 R10
G1 X124.387 Y116.276 E.01895
G1 X103.724 Y95.613 E1.11486
G1 X103.265 Y95.803 E.01895
G1 X124.197 Y116.735 E1.12936
G1 X124.007 Y117.193 E.01895
G1 X102.807 Y95.993 E1.14386
G1 X102.348 Y96.183 E.01895
G1 X123.817 Y117.652 E1.15836
G1 X123.708 Y117.914 E.01083
G1 X123.587 Y118.072 E.00757
G1 X113.402 Y107.887 E.54953
G1 X113.384 Y107.683 E.00781
G1 X113.343 Y107.511 E.00675
G1 X113.239 Y107.257 E.01049
G1 X113.102 Y107.041 E.00975
G1 X112.869 Y106.799 E.01283
G1 X112.397 Y106.42 E.02308
G1 X111.649 Y106.02 E.03236
G1 X111.483 Y105.968 E.00663
G1 X101.928 Y96.413 E.51555
G1 X101.561 Y96.694 E.01766
G1 X110.613 Y105.746 E.48838
G1 X110.14 Y105.699 E.01812
G1 X109.917 Y105.699 E.00853
G1 X101.194 Y96.976 E.47063
G1 X100.827 Y97.258 E.01766
G1 X109.325 Y105.756 E.45854
G1 X109.175 Y105.773 E.00576
G1 X108.801 Y105.881 E.01487
G1 X100.46 Y97.54 E.45005
M73 P5 R10
G1 X100.092 Y97.821 E.01766
G1 X108.314 Y106.043 E.4436
G1 X107.884 Y106.262 E.01841
G1 X99.725 Y98.103 E.44021
G1 X99.358 Y98.385 E.01766
G1 X107.483 Y106.51 E.43841
G1 X107.132 Y106.807 E.01757
G1 X98.991 Y98.667 E.43924
G1 X98.807 Y98.807 E.00883
G1 X98.667 Y98.991 E.00883
G1 X106.827 Y107.152 E.44032
G1 X106.761 Y107.257 E.00473
G1 X106.656 Y107.514 E.01061
G1 X106.638 Y107.612 E.00378
G1 X98.385 Y99.358 E.44532
G1 X98.103 Y99.725 E.01766
G1 X106.595 Y108.218 E.45821
G1 X106.595 Y108.866 E.02474
G1 X97.821 Y100.092 E.47339
G1 X97.54 Y100.46 E.01766
G1 X106.595 Y109.515 E.48857
G1 X106.594 Y110.163 E.02474
G1 X97.258 Y100.827 E.50375
G1 X96.976 Y101.194 E.01766
G1 X106.594 Y110.812 E.51893
G1 X106.593 Y111.46 E.02474
G1 X96.548 Y101.414 E.54202
;WIPE_START
G1 X97.962 Y102.829 E-.4
;WIPE_END
G1 Z.4 F30000
G1 X113.201 Y108.334 Z.4
G1 Z.2
G1 E.4 F2400
G1 F2288.404
G1 X123.306 Y118.439 E.5452
G1 X123.024 Y118.806 E.01766
G1 X113.406 Y109.188 E.51893
G1 X113.406 Y109.837 E.02474
G1 X122.742 Y119.173 E.50375
M73 P6 R10
G1 X122.46 Y119.54 E.01766
G1 X113.405 Y110.485 E.48857
G1 X113.405 Y111.134 E.02474
G1 X122.179 Y119.908 E.47339
G1 X121.897 Y120.275 E.01766
G1 X113.405 Y111.782 E.45821
G1 X113.404 Y112.152 E.01411
G1 X113.362 Y112.388 E.00916
G1 X121.615 Y120.642 E.44532
G1 X121.333 Y121.009 E.01766
G1 X113.173 Y112.848 E.44032
G1 X112.984 Y113.095 E.01183
G1 X112.868 Y113.193 E.0058
G1 X121.009 Y121.333 E.43924
G1 X120.642 Y121.615 E.01766
G1 X112.516 Y113.49 E.43841
G1 X112.282 Y113.649 E.01082
G1 X112.116 Y113.738 E.00719
G1 X120.275 Y121.897 E.44021
G1 X119.908 Y122.179 E.01766
G1 X111.686 Y113.957 E.44359
G1 X111.516 Y114.028 E.00702
G1 X111.2 Y114.12 E.01257
G1 X119.54 Y122.46 E.45001
G1 X119.173 Y122.742 E.01766
G1 X110.673 Y114.242 E.45861
G1 X110.082 Y114.3 E.02266
G1 X118.806 Y123.024 E.47069
G1 X118.439 Y123.306 E.01766
G1 X109.138 Y114.004 E.50185
;WIPE_START
G1 X110.552 Y115.419 E-.4
;WIPE_END
G1 Z.4 F30000
G1 X118.218 Y123.734 Z.4
G1 Z.2
G1 E.4 F2400
G1 F2288.404
G1 X108.524 Y114.039 E.52309
G1 X108.224 Y113.92 E.0123
G1 X107.603 Y113.58 E.02704
G1 X107.131 Y113.201 E.02306
G1 X106.898 Y112.959 E.01283
G1 X106.761 Y112.743 E.00975
G1 X106.657 Y112.489 E.01049
G1 X106.616 Y112.317 E.00675
G1 X106.598 Y112.113 E.0078
G1 X96.413 Y101.928 E.54953
M73 P7 R10
G1 X96.292 Y102.086 E.00757
G1 X96.183 Y102.348 E.01083
G1 X117.652 Y123.817 E1.15836
M73 P7 R9
G1 X117.193 Y124.007 E.01895
G1 X95.993 Y102.807 E1.14386
G1 X95.803 Y103.265 E.01895
G1 X116.735 Y124.197 E1.12936
G1 X116.276 Y124.387 E.01895
G1 X95.613 Y103.724 E1.11486
G1 X95.423 Y104.183 E.01895
G1 X115.817 Y124.577 E1.10035
G1 X115.358 Y124.767 E.01895
G1 X95.233 Y104.642 E1.08585
G1 X95.043 Y105.101 E.01895
G1 X114.899 Y124.957 E1.07135
G1 X114.44 Y125.147 E.01895
G1 X94.853 Y105.56 E1.05685
M73 P8 R9
G1 X94.711 Y105.903 E.01419
G1 X94.692 Y106.047 E.00554
G1 X113.953 Y125.308 E1.03924
G1 X113.379 Y125.384 E.02207
G1 X94.616 Y106.621 E1.01238
G1 X94.541 Y107.194 E.02207
G1 X112.806 Y125.459 E.98551
G1 X112.233 Y125.535 E.02207
G1 X94.465 Y107.767 E.95865
G1 X94.39 Y108.341 E.02207
G1 X111.659 Y125.61 E.93178
G1 X111.086 Y125.686 E.02207
G1 X94.314 Y108.914 E.90492
G1 X94.239 Y109.488 E.02207
G1 X110.512 Y125.761 E.87805
G1 X110 Y125.829 E.01971
G1 X109.92 Y125.818 E.00306
G1 X94.182 Y110.08 E.84919
G1 X94.28 Y110.827 E.02876
M73 P9 R9
G1 X109.173 Y125.72 E.80356
G1 X108.426 Y125.621 E.02876
G1 X94.379 Y111.574 E.75793
G1 X94.477 Y112.321 E.02876
G1 X107.679 Y125.523 E.7123
G1 X106.931 Y125.425 E.02876
G1 X94.575 Y113.069 E.66668
G1 X94.674 Y113.816 E.02876
G1 X106.184 Y125.326 E.62105
G1 X105.903 Y125.289 E.01081
G1 X105.212 Y125.003 E.02855
G1 X94.997 Y114.788 E.55114
G1 X95.456 Y115.896 E.04574
G1 X104.104 Y124.544 E.46662
G1 X102.996 Y124.085 E.04574
G1 X95.915 Y117.004 E.38209
G1 X96.292 Y117.914 E.03761
G1 X96.673 Y118.41 E.02385
G1 X102.269 Y124.007 E.30194
M106 S255
M106 P2 S178
;LAYER_CHANGE
;Z:0.4
;HEIGHT:0.2
;BEFORE_LAYER_CHANGE
;0.4
G92 E0

;WIPE_START
G1 F2288.404
G1 X100.854 Y122.592 E-.4
;WIPE_END
EXCLUDE_OBJECT_END NAME=big_wheel.stl_id_0_copy_0
;_SET_FAN_SPEED_CHANGING_LAYER
SET_VELOCITY_LIMIT ACCEL=12000 ACCEL_TO_DECEL=6000
M140 S30 ; set bed temperature
SET_VELOCITY_LIMIT SQUARE_CORNER_VELOCITY=12
EXCLUDE_OBJECT_START NAME=big_wheel.stl_id_0_copy_0
G1 Z.4 F30000
G1 X121.655 Y121.655 Z.4
G1 E.4 F2400
SET_VELOCITY_LIMIT ACCEL=5000 ACCEL_TO_DECEL=2500 SQUARE_CORNER_VELOCITY=7
;TYPE:Inner wall
;WIDTH:0.449999
G1 F2579.352
G1 X118.241 Y124.274 E.14564
G1 X114.266 Y125.921 E.14564
G1 X110 Y126.482 E.14564
G1 X105.734 Y125.921 E.14564
G1 X101.759 Y124.274 E.14564
G1 X98.345 Y121.655 E.14564
G1 X95.726 Y118.241 E.14564
G1 X94.079 Y114.266 E.14564
G1 X93.518 Y110 E.14564
G1 X94.079 Y105.734 E.14564
G1 X95.726 Y101.759 E.14564
G1 X98.345 Y98.345 E.14564
G1 X101.759 Y95.726 E.14564
G1 X105.734 Y94.079 E.14564
G1 X110 Y93.518 E.14564
G1 X114.266 Y94.079 E.14564
G1 X118.241 Y95.726 E.14564
G1 X121.655 Y98.345 E.14564
G1 X124.274 Y101.759 E.14564
G1 X125.921 Y105.734 E.14564
M73 P10 R9
G1 X126.482 Y110 E.14564
G1 X125.921 Y114.266 E.14564
G1 X124.274 Y118.241 E.14564
G1 X121.679 Y121.623 E.14429
SET_VELOCITY_LIMIT ACCEL=12000 ACCEL_TO_DECEL=6000 SQUARE_CORNER_VELOCITY=12
G1 X121.945 Y121.945 F30000
SET_VELOCITY_LIMIT ACCEL=5000 ACCEL_TO_DECEL=2500 SQUARE_CORNER_VELOCITY=7
G1 F2579.352
G1 X118.446 Y124.63 E.14927
G1 X114.372 Y126.317 E.14927
G1 X110 Y126.893 E.14927
G1 X105.628 Y126.317 E.14927
G1 X101.554 Y124.63 E.14927
G1 X98.055 Y121.945 E.14927
G1 X95.37 Y118.446 E.14927
G1 X93.683 Y114.372 E.14927
G1 X93.107 Y110 E.14927
G1 X93.683 Y105.628 E.14927
G1 X95.37 Y101.554 E.14927
G1 X98.055 Y98.055 E.14927
G1 X101.554 Y95.37 E.14927
G1 X105.628 Y93.683 E.14927
G1 X110 Y93.107 E.14927
G1 X114.372 Y93.683 E.14927
G1 X118.446 Y95.37 E.14927
G1 X121.945 Y98.055 E.14927
G1 X124.63 Y101.554 E.14927
G1 X126.317 Y105.628 E.14927
G1 X126.893 Y110 E.14927
G1 X126.317 Y114.372 E.14927
G1 X124.63 Y118.446 E.14927
G1 X121.969 Y121.913 E.14792
SET_VELOCITY_LIMIT ACCEL=12000 ACCEL_TO_DECEL=6000 SQUARE_CORNER_VELOCITY=12
G1 X122.227 Y122.222 F30000
SET_VELOCITY_LIMIT ACCEL=5000 ACCEL_TO_DECEL=2500 SQUARE_CORNER_VELOCITY=7
;TYPE:Outer wall
;WIDTH:0.419999
G1 F2784.562
G1 X122.225 Y122.225 E.00011
G1 X118.644 Y124.972 E.14151
G1 X114.475 Y126.699 E.14151
G1 X110 Y127.288 E.14151
G1 X105.525 Y126.699 E.14151
G1 X101.356 Y124.972 E.14151
G1 X97.775 Y122.225 E.14151
G1 X95.028 Y118.644 E.14151
G1 X93.301 Y114.475 E.14151
G1 X92.712 Y110 E.14151
G1 X93.301 Y105.525 E.14151
G1 X95.028 Y101.356 E.14151
G1 X97.775 Y97.775 E.14151
G1 X101.356 Y95.028 E.14151
G1 X105.525 Y93.301 E.14151
G1 X110 Y92.712 E.14151
G1 X114.475 Y93.301 E.14151
G1 X118.644 Y95.028 E.14151
G1 X122.225 Y97.775 E.14151
G1 X124.972 Y101.356 E.14151
G1 X126.699 Y105.525 E.14151
G1 X127.288 Y110 E.14151
G1 X126.699 Y114.475 E.14151
G1 X124.972 Y118.644 E.14151
G1 X122.251 Y122.19 E.14014
SET_VELOCITY_LIMIT ACCEL=12000 ACCEL_TO_DECEL=6000 SQUARE_CORNER_VELOCITY=12
;WIPE_START
G1 X122.225 Y122.225 E-.00871
G1 X120.672 Y123.416 E-.39129
;WIPE_END
G1 Z.6 F30000
G1 X112.554 Y112.563 Z.6
G1 Z.4
G1 E.4 F2400
SET_VELOCITY_LIMIT ACCEL=5000 ACCEL_TO_DECEL=2500 SQUARE_CORNER_VELOCITY=7
;TYPE:Inner wall
;WIDTH:0.449999
G1 F2579.352
G1 X112.484 Y112.67 E.00431
G1 X112.086 Y113.005 E.01763
G1 X111.488 Y113.339 E.02318
G1 X110.808 Y113.565 E.02426
G1 X110.097 Y113.655 E.02426
G1 X109.382 Y113.603 E.02426
