; HEADER_BLOCK_START
; generated by OrcaSlicer 2.1.1 on 2024-10-01 at 21:02:19
; total layer number: 110
; filament_density: 1.27
; filament_diameter: 1.75
; max_z_height: 22.00
; HEADER_BLOCK_END

; THUMBNAIL_BLOCK_START

;
; THUMBNAIL_BLOCK_END

; THUMBNAIL_BLOCK_START

;
; THUMBNAIL_BLOCK_END

; external perimeters extrusion width = 0.42mm
; perimeters extrusion width = 0.45mm
; infill extrusion width = 0.45mm
; solid infill extrusion width = 0.42mm
; top infill extrusion width = 0.42mm
; first layer extrusion width = 0.50mm

; EXECUTABLE_BLOCK_START
EXCLUDE_OBJECT_DEFINE NAME=frame.stl_id_0_copy_0 CENTER=110,110 POLYGON=[[65,99],[155,99],[155,121],[65,121],[65,99]]
M73 P0 R24
M106 S0
M106 P2 S0
;TYPE:Custom
M140 S0
M104 S0 
START_PRINT EXTRUDER_TEMP=250 BED_TEMP=70
G90
G21
M83 ; use relative distances for extrusion
; filament start gcode
M106 S0
M106 P2 S0
;LAYER_CHANGE
;Z:0.2
;HEIGHT:0.2
;BEFORE_LAYER_CHANGE
;0.2
G92 E0

G1 E-.6 F2400
;_SET_FAN_SPEED_CHANGING_LAYER
SET_VELOCITY_LIMIT ACCEL=500 ACCEL_TO_DECEL=250
SET_VELOCITY_LIMIT SQUARE_CORNER_VELOCITY=9
EXCLUDE_OBJECT_START NAME=frame.stl_id_0_copy_0
G1 Z.2 F30000
G1 X62.419 Y95.386
G1 Z.2
G1 E.6 F2400
;TYPE:Brim
;WIDTH:0.5
G1 F3600
G1 X62.964 Y95.053 E.02308
G1 X63.75 Y94.742 E.03052
G1 X64.43 Y94.596 E.0251
G1 X65.008 Y94.558 E.02091
G1 X154.992 Y94.558 E3.24896
G1 X155.64 Y94.606 E.02348
G1 X156.263 Y94.746 E.02304
G1 X157.106 Y95.103 E.03307
G1 X157.724 Y95.5 E.02653
G1 X158.203 Y95.926 E.02313
G1 X158.614 Y96.419 E.02317
G1 X158.947 Y96.964 E.02305
G1 X159.273 Y97.802 E.03248
G1 X159.404 Y98.429 E.02313
G1 X159.442 Y99.008 E.02093
G1 X159.442 Y120.992 E.79375
G1 X159.394 Y121.64 E.02348
G1 X159.254 Y122.263 E.02304
G1 X158.897 Y123.106 E.03307
G1 X158.5 Y123.724 E.02653
G1 X158.074 Y124.203 E.02313
G1 X157.581 Y124.614 E.02317
G1 X157.036 Y124.947 E.02308
G1 X156.25 Y125.258 E.03052
G1 X155.57 Y125.404 E.0251
G1 X154.992 Y125.442 E.02091
G1 X65.008 Y125.442 E3.24896
G1 X64.36 Y125.394 E.02348
G1 X63.737 Y125.254 E.02304
G1 X62.894 Y124.897 E.03307
G1 X62.276 Y124.5 E.02653
G1 X61.797 Y124.074 E.02313
G1 X61.386 Y123.581 E.02317
G1 X61.053 Y123.036 E.02308
G1 X60.742 Y122.25 E.03052
G1 X60.596 Y121.57 E.0251
G1 X60.558 Y120.992 E.02091
G1 X60.558 Y99.008 E.79376
G1 X60.606 Y98.36 E.02348
G1 X60.746 Y97.737 E.02304
G1 X61.103 Y96.894 E.03307
G1 X61.5 Y96.276 E.02653
G1 X61.926 Y95.797 E.02313
G1 X62.388 Y95.411 E.02173
G1 X62.681 Y95.764 F30000
G1 F3600
G1 X62.694 Y95.753 E.00063
G1 X63.18 Y95.459 E.02049
G1 X63.894 Y95.179 E.02772
G1 X64.483 Y95.052 E.02176
G1 X65.027 Y95.015 E.01968
G1 X154.98 Y95.015 E3.24783
G1 X155.562 Y95.058 E.02109
G1 X156.11 Y95.18 E.02026
G1 X156.881 Y95.505 E.0302
G1 X157.438 Y95.86 E.02385
G1 X157.866 Y96.238 E.02063
G1 X158.247 Y96.694 E.02145
G1 X158.54 Y97.178 E.02043
G1 X158.836 Y97.944 E.02962
G1 X158.948 Y98.482 E.01985
G1 X158.985 Y99.018 E.01941
G1 X158.985 Y120.97 E.79258
G1 X158.942 Y121.562 E.02146
G1 X158.812 Y122.133 E.02114
G1 X158.495 Y122.881 E.02932
G1 X158.127 Y123.455 E.02463
G1 X157.747 Y123.88 E.02058
G1 X157.306 Y124.247 E.02072
G1 X156.82 Y124.541 E.02049
G1 X156.106 Y124.821 E.02772
G1 X155.517 Y124.948 E.02176
G1 X154.973 Y124.985 E.01968
G1 X65.03 Y124.985 E3.24746
G1 X64.438 Y124.942 E.02146
G1 X63.867 Y124.812 E.02114
G1 X63.119 Y124.495 E.02932
G1 X62.562 Y124.14 E.02385
G1 X62.134 Y123.762 E.02063
G1 X61.753 Y123.306 E.02145
G1 X61.459 Y122.82 E.02049
G1 X61.179 Y122.106 E.02772
G1 X61.052 Y121.517 E.02176
G1 X61.015 Y120.973 E.01968
G1 X61.015 Y99.03 E.79225
G1 X61.058 Y98.438 E.02146
G1 X61.188 Y97.867 E.02114
G1 X61.505 Y97.119 E.02932
G1 X61.873 Y96.545 E.02463
G1 X62.253 Y96.12 E.02058
G1 X62.65 Y95.79 E.01865
G1 X62.942 Y96.143 F30000
G1 F3600
G1 X62.969 Y96.121 E.00126
G1 X63.394 Y95.866 E.0179
G1 X64.038 Y95.615 E.02494
G1 X64.538 Y95.508 E.01847
G1 X65.047 Y95.472 E.01845
G1 X154.958 Y95.472 E3.2463
G1 X155.485 Y95.511 E.0191
G1 X155.982 Y95.622 E.01837
G1 X156.678 Y95.917 E.02729
G1 X157.153 Y96.22 E.02035
G1 X157.53 Y96.551 E.01809
G1 X157.867 Y96.952 E.01894
G1 X158.132 Y97.392 E.01853
G1 X158.398 Y98.085 E.02679
G1 X158.495 Y98.554 E.0173
G1 X158.527 Y99.029 E.0172
G1 X158.528 Y120.948 E.7914
G1 X158.489 Y121.484 E.01942
G1 X158.371 Y122.004 E.01924
G1 X158.094 Y122.656 E.02559
G1 X157.755 Y123.186 E.02271
G1 X157.421 Y123.557 E.018
G1 X157.031 Y123.879 E.01827
G1 X156.606 Y124.134 E.0179
G1 X155.962 Y124.385 E.02494
G1 X155.462 Y124.492 E.01847
G1 X154.953 Y124.528 E.01845
G1 X65.052 Y124.528 E3.24594
G1 X64.516 Y124.489 E.01942
G1 X63.996 Y124.371 E.01924
G1 X63.343 Y124.094 E.02562
G1 X62.847 Y123.78 E.02119
G1 X62.456 Y123.435 E.01883
G1 X62.121 Y123.031 E.01895
G1 X61.866 Y122.606 E.01787
G1 X61.615 Y121.962 E.02494
G1 X61.508 Y121.462 E.01847
G1 X61.472 Y120.953 E.01845
G1 X61.472 Y99.052 E.79073
G1 X61.511 Y98.516 E.01942
G1 X61.629 Y97.996 E.01924
G1 X61.906 Y97.344 E.02559
G1 X62.245 Y96.814 E.02271
G1 X62.579 Y96.443 E.018
G1 X62.911 Y96.169 E.01557
G1 X63.202 Y96.523 F30000
G1 F3600
G1 X63.242 Y96.49 E.00189
G1 X63.607 Y96.274 E.01531
G1 X64.18 Y96.052 E.0222
G1 X64.612 Y95.961 E.01592
G1 X65.068 Y95.929 E.01652
G1 X154.936 Y95.929 E3.24476
M73 P1 R24
G1 X155.408 Y95.964 E.0171
G1 X155.853 Y96.064 E.01647
G1 X156.474 Y96.329 E.02439
G1 X156.869 Y96.581 E.0169
G1 X157.194 Y96.864 E.01557
G1 X157.487 Y97.211 E.01639
G1 X157.724 Y97.605 E.0166
G1 X157.96 Y98.224 E.02394
G1 X158.042 Y98.625 E.01477
G1 X158.07 Y99.049 E.01535
G1 X158.071 Y120.926 E.78988
G1 X158.036 Y121.406 E.01737
G1 X157.929 Y121.874 E.01733
G1 X157.693 Y122.432 E.02188
G1 X157.383 Y122.917 E.02078
G1 X157.097 Y123.232 E.01538
G1 X156.758 Y123.51 E.01581
G1 X156.393 Y123.726 E.01531
G1 X155.82 Y123.948 E.0222
G1 X155.388 Y124.039 E.01592
G1 X154.932 Y124.071 E.01652
G1 X65.074 Y124.071 E3.24441
G1 X64.573 Y124.033 E.01812
G1 X64.126 Y123.929 E.01658
G1 X63.566 Y123.692 E.02197
G1 X63.131 Y123.419 E.01852
G1 X62.778 Y123.107 E.01701
G1 X62.489 Y122.757 E.0164
G1 X62.274 Y122.393 E.01526
G1 X62.052 Y121.82 E.0222
G1 X61.961 Y121.388 E.01592
G1 X61.929 Y120.932 E.01652
G1 X61.929 Y99.074 E.7892
G1 X61.964 Y98.594 E.01737
G1 X62.071 Y98.126 E.01733
G1 X62.307 Y97.568 E.02188
G1 X62.617 Y97.083 E.02078
G1 X62.903 Y96.768 E.01538
G1 X63.171 Y96.549 E.01247
G1 X63.46 Y96.905 F30000
G1 F3600
G1 X63.514 Y96.86 E.00252
G1 X63.818 Y96.682 E.01272
G1 X64.322 Y96.489 E.01948
G1 X64.685 Y96.414 E.01339
G1 X65.089 Y96.386 E.01463
G1 X154.914 Y96.386 E3.24324
G1 X155.331 Y96.416 E.01507
G1 X155.723 Y96.506 E.01454
G1 X156.27 Y96.741 E.02149
G1 X156.586 Y96.942 E.01353
G1 X156.86 Y97.179 E.01307
G1 X157.12 Y97.487 E.01458
G1 X157.316 Y97.817 E.01384
G1 X157.522 Y98.363 E.02108
G1 X157.588 Y98.696 E.01224
G1 X157.613 Y99.07 E.01354
G1 X157.614 Y120.905 E.78838
G1 X157.584 Y121.328 E.01531
G1 X157.488 Y121.744 E.01541
G1 X157.292 Y122.207 E.01819
G1 X157.011 Y122.647 E.01882
G1 X156.773 Y122.907 E.01272
G1 X156.486 Y123.14 E.01334
G1 X156.182 Y123.318 E.01272
G1 X155.678 Y123.511 E.01948
G1 X155.315 Y123.586 E.01339
G1 X154.911 Y123.614 E.01463
G1 X65.096 Y123.614 E3.24286
G1 X64.653 Y123.581 E.01604
G1 X64.257 Y123.488 E.01468
G1 X63.788 Y123.29 E.01841
G1 X63.415 Y123.058 E.01584
G1 X63.116 Y122.796 E.01436
G1 X62.859 Y122.484 E.01459
G1 X62.682 Y122.182 E.01264
G1 X62.489 Y121.678 E.01948
G1 X62.414 Y121.315 E.01339
G1 X62.386 Y120.911 E.01463
G1 X62.386 Y99.095 E.78768
M73 P1 R23
G1 X62.416 Y98.672 E.01531
G1 X62.512 Y98.256 E.01541
G1 X62.708 Y97.793 E.01819
G1 X62.989 Y97.353 E.01882
G1 X63.227 Y97.093 E.01272
G1 X63.429 Y96.93 E.00937
G1 X63.733 Y97.298 F30000
G1 F3600
G1 X63.842 Y97.208 E.00507
G1 X64.185 Y97.023 E.01408
G1 X64.553 Y96.904 E.01396
G1 X65.036 Y96.843 E.0176
G1 X154.96 Y96.843 E3.24679
G1 X155.587 Y96.942 E.02292
G1 X155.822 Y97.026 E.00899
G1 X156.124 Y97.189 E.01241
G1 X156.486 Y97.475 E.01668
G1 X156.687 Y97.693 E.01069
G1 X156.862 Y97.954 E.01136
G1 X157.016 Y98.28 E.013
G1 X157.1 Y98.564 E.01071
G1 X157.153 Y98.968 E.01468
G1 X157.157 Y120.96 E.79405
G1 X157.058 Y121.587 E.02292
G1 X156.974 Y121.822 E.00899
G1 X156.811 Y122.124 E.01241
G1 X156.525 Y122.486 E.01668
G1 X156.308 Y122.686 E.01065
G1 X155.96 Y122.909 E.0149
G1 X155.638 Y123.045 E.01263
G1 X155.354 Y123.115 E.01056
G1 X154.965 Y123.157 E.01413
G1 X65.04 Y123.157 E3.24684
G1 X64.413 Y123.058 E.02292
G1 X64.178 Y122.974 E.00899
G1 X63.876 Y122.811 E.01241
G1 X63.514 Y122.525 E.01668
G1 X63.313 Y122.307 E.01069
G1 X63.138 Y122.046 E.01136
G1 X62.984 Y121.72 E.013
G1 X62.9 Y121.436 E.01071
G1 X62.847 Y121.032 E.01468
G1 X62.843 Y99.041 E.79403
G1 X62.899 Y98.592 E.01635
G1 X63.003 Y98.233 E.01348
G1 X63.198 Y97.862 E.01514
G1 X63.48 Y97.508 E.01633
G1 X63.703 Y97.323 E.01044
G1 X63.981 Y97.679 F30000
G1 F3600
G1 X64.131 Y97.562 E.00686
G1 X64.398 Y97.427 E.01083
G1 X64.692 Y97.339 E.01107
G1 X65.027 Y97.3 E.01218
G1 X154.971 Y97.3 E3.24749
M73 P2 R23
G1 X155.432 Y97.372 E.01685
G1 X155.615 Y97.433 E.00697
G1 X155.831 Y97.54 E.00871
G1 X156.211 Y97.84 E.0175
G1 X156.302 Y97.938 E.00481
G1 X156.488 Y98.217 E.01211
G1 X156.602 Y98.473 E.0101
G1 X156.661 Y98.69 E.00814
G1 X156.7 Y99.027 E.01225
G1 X156.7 Y120.971 E.79228
G1 X156.628 Y121.432 E.01685
G1 X156.567 Y121.615 E.00697
G1 X156.46 Y121.831 E.00871
G1 X156.16 Y122.211 E.0175
G1 X156.062 Y122.302 E.00481
G1 X155.783 Y122.488 E.01211
G1 X155.527 Y122.602 E.0101
G1 X155.31 Y122.661 E.00814
G1 X154.973 Y122.7 E.01225
G1 X65.029 Y122.7 E3.24749
G1 X64.568 Y122.628 E.01685
G1 X64.385 Y122.567 E.00697
G1 X64.169 Y122.46 E.00871
G1 X63.789 Y122.16 E.0175
G1 X63.698 Y122.062 E.00481
G1 X63.512 Y121.783 E.01211
G1 X63.398 Y121.527 E.0101
G1 X63.339 Y121.31 E.00814
G1 X63.3 Y120.973 E.01225
G1 X63.3 Y99.032 E.79218
G1 X63.353 Y98.644 E.01413
G1 X63.443 Y98.358 E.01082
G1 X63.6 Y98.078 E.01162
G1 X63.839 Y97.791 E.01348
G1 X63.95 Y97.704 E.00508
G1 X64.207 Y98.068 F30000
G1 F3600
G1 X64.403 Y97.929 E.00866
G1 X64.6 Y97.837 E.00786
G1 X64.742 Y97.794 E.00534
G1 X65.019 Y97.757 E.01012
G1 X154.981 Y97.757 E3.24816
G1 X155.275 Y97.801 E.01072
G1 X155.478 Y97.869 E.00773
G1 X155.626 Y97.948 E.00607
G1 X155.924 Y98.196 E.01401
G1 X156.071 Y98.403 E.00915
G1 X156.163 Y98.6 E.00786
G1 X156.206 Y98.742 E.00534
G1 X156.243 Y99.019 E.01012
G1 X156.243 Y120.981 E.79295
G1 X156.199 Y121.275 E.01072
G1 X156.131 Y121.478 E.00773
G1 X156.052 Y121.626 E.00607
G1 X155.804 Y121.924 E.01401
G1 X155.597 Y122.071 E.00915
G1 X155.4 Y122.163 E.00786
G1 X155.258 Y122.206 E.00534
G1 X154.981 Y122.243 E.01012
G1 X65.019 Y122.243 E3.24816
G1 X64.725 Y122.199 E.01072
G1 X64.522 Y122.131 E.00773
G1 X64.374 Y122.052 E.00607
G1 X64.076 Y121.804 E.01401
G1 X63.929 Y121.597 E.00915
G1 X63.837 Y121.4 E.00786
G1 X63.794 Y121.258 E.00534
G1 X63.757 Y120.981 E.01012
G1 X63.757 Y99.023 E.7928
G1 X63.806 Y98.705 E.01162
G1 X63.878 Y98.497 E.00794
G1 X63.944 Y98.379 E.00489
G1 X64.179 Y98.096 E.01328
G1 X64.473 Y98.439 F30000
G1 F3600
G1 X64.586 Y98.348 E.00525
G1 X64.803 Y98.246 E.00865
G1 X65.011 Y98.214 E.00758
G1 X154.991 Y98.214 E3.24885
G1 X155.118 Y98.23 E.0046
G1 X155.343 Y98.306 E.00857
G1 X155.561 Y98.473 E.00992
G1 X155.652 Y98.586 E.00525
G1 X155.754 Y98.803 E.00865
G1 X155.786 Y99.011 E.00758
G1 X155.786 Y120.991 E.79364
G1 X155.77 Y121.118 E.0046
G1 X155.694 Y121.343 E.00857
G1 X155.527 Y121.561 E.00992
G1 X155.414 Y121.652 E.00525
G1 X155.197 Y121.754 E.00865
G1 X154.989 Y121.786 E.00758
G1 X65.009 Y121.786 E3.24885
G1 X64.882 Y121.77 E.0046
G1 X64.657 Y121.694 E.00857
G1 X64.439 Y121.527 E.00992
G1 X64.348 Y121.414 E.00525
G1 X64.246 Y121.197 E.00865
G1 X64.214 Y120.989 E.00758
G1 X64.214 Y99.012 E.7935
G1 X64.257 Y98.779 E.00857
G1 X64.304 Y98.66 E.0046
G1 X64.448 Y98.471 E.00861
G1 X64.747 Y98.805 F30000
G1 F3600
G1 X64.884 Y98.696 E.00632
G1 X65 Y98.671 E.00429
G1 X155 Y98.671 E3.24954
G1 X155.111 Y98.7 E.00413
G1 X155.195 Y98.747 E.0035
G1 X155.304 Y98.884 E.00632
G1 X155.329 Y99 E.00429
G1 X155.329 Y121 E.79433
G1 X155.3 Y121.111 E.00413
G1 X155.253 Y121.195 E.0035
G1 X155.116 Y121.304 E.00632
G1 X155 Y121.329 E.00429
G1 X65 Y121.329 E3.24954
M73 P3 R23
G1 X64.889 Y121.3 E.00413
G1 X64.805 Y121.253 E.0035
G1 X64.696 Y121.116 E.00632
G1 X64.671 Y121 E.00429
G1 X64.671 Y99 E.79433
G1 X64.7 Y98.889 E.00413
G1 X64.728 Y98.84 E.00205
;WIPE_START
G1 X64.884 Y98.696 E-.06373
G1 X65 Y98.671 E-.03563
G1 X66.669 Y98.671 E-.50064
;WIPE_END
G1 Z.4 F30000
G1 X154.6 Y99.4 Z.4
G1 Z.2
G1 E.6 F2400
;TYPE:Outer wall
;WIDTH:0.499999
G1 F3600
G1 X154.6 Y99.849 E.01622
;WIDTH:0.540486
G1 X154.58 Y100.009 E.00633
;WIDTH:0.580973
G1 X154.56 Y100.169 E.00684
;WIDTH:0.621459
G1 X154.539 Y100.329 E.00736
G1 X154.539 Y119.739 E.88707
;WIDTH:0.67109
G1 X154.514 Y120.114 E.01866
;WIDTH:0.720721
G1 X154.49 Y120.49 E.02014
G1 X154.081 Y120.514 E.02194
;WIDTH:0.671091
G1 X153.671 Y120.539 E.02034
;WIDTH:0.62146
G1 X66.329 Y120.539 E3.99162
;WIDTH:0.671091
G1 X65.919 Y120.514 E.02034
;WIDTH:0.720721
G1 X65.51 Y120.49 E.02194
G1 X65.486 Y120.081 E.02194
;WIDTH:0.671091
G1 X65.461 Y119.671 E.02034
;WIDTH:0.62146
G1 X65.461 Y100.329 E.88398
;WIDTH:0.671091
G1 X65.486 Y99.919 E.02034
;WIDTH:0.720721
G1 X65.51 Y99.51 E.02194
G1 X65.919 Y99.486 E.02194
;WIDTH:0.671091
G1 X66.329 Y99.461 E.02034
;WIDTH:0.62146
G1 X153.671 Y99.461 E3.99162
G1 X153.831 Y99.44 E.00736
;WIDTH:0.580973
G1 X153.991 Y99.42 E.00684
;WIDTH:0.540486
G1 X154.151 Y99.4 E.00633
;WIDTH:0.499999
G1 X154.56 Y99.4 E.01478
;WIPE_START
G1 X154.6 Y99.849 E-.13531
G1 X154.58 Y100.009 E-.04831
G1 X154.56 Y100.169 E-.04831
G1 X154.539 Y100.329 E-.04831
G1 X154.539 Y101.394 E-.31976
;WIPE_END
G1 Z.4 F30000
G1 X66.388 Y100.039 Z.4
G1 Z.2
G1 E.6 F2400
;WIDTH:0.62146
G1 F3600
G1 X153.671 Y100.039 E3.98889
G1 X153.961 Y100.329 E.0187
G1 X153.961 Y119.671 E.88398
;WIDTH:0.67109
G1 X153.936 Y119.791 E.00607
;WIDTH:0.720721
G1 X153.911 Y119.911 E.00655
G1 X153.791 Y119.936 E.00655
;WIDTH:0.671091
G1 X153.671 Y119.961 E.00607
;WIDTH:0.62146
G1 X66.329 Y119.961 E3.99162
;WIDTH:0.671091
G1 X66.209 Y119.936 E.00607
;WIDTH:0.720721
G1 X66.089 Y119.911 E.00655
G1 X66.064 Y119.791 E.00655
;WIDTH:0.671091
G1 X66.039 Y119.671 E.00607
;WIDTH:0.62146
G1 X66.039 Y100.329 E.88398
;WIDTH:0.671091
G1 X66.064 Y100.209 E.00607
;WIDTH:0.720721
G1 X66.089 Y100.089 E.00655
G1 X66.209 Y100.064 E.00655
;WIDTH:0.671091
G1 X66.329 Y100.039 E.00607
;WIDTH:0.62146
G1 X66.348 Y100.039 E.0009
;WIPE_START
G1 X68.348 Y100.039 E-.6
;WIPE_END
G1 Z.4 F30000
G1 X154.178 Y99.801 Z.4
G1 Z.2
G1 E.6 F2400
;TYPE:Inner wall
;WIDTH:0.484364
G1 F3600
G1 X154.123 Y99.801 E.00192
G1 X154.096 Y99.849 E.00192
G1 X154.123 Y99.897 E.00192
G1 X154.178 Y99.897 E.00192
G1 X154.206 Y99.849 E.00192
;LAYER_CHANGE
;Z:0.4
;HEIGHT:0.2
;BEFORE_LAYER_CHANGE
;0.4
G92 E0

G1 E-.41607 F2400
;WIPE_START
G1 F3600
G1 X154.178 Y99.897 E-.03679
G1 X154.123 Y99.897 E-.03679
G1 X154.096 Y99.849 E-.03679
G1 X154.123 Y99.801 E-.03679
G1 X154.178 Y99.801 E-.03679
;WIPE_END
EXCLUDE_OBJECT_END NAME=frame.stl_id_0_copy_0
;_SET_FAN_SPEED_CHANGING_LAYER
SET_VELOCITY_LIMIT ACCEL=12000 ACCEL_TO_DECEL=6000
M140 S70 ; set bed temperature
SET_VELOCITY_LIMIT SQUARE_CORNER_VELOCITY=12
EXCLUDE_OBJECT_START NAME=frame.stl_id_0_copy_0
G1 Z.4 F30000
G1 X66.405 Y99.582 Z.4
G1 E.6 F2400
SET_VELOCITY_LIMIT ACCEL=5000 ACCEL_TO_DECEL=2500 SQUARE_CORNER_VELOCITY=7
;WIDTH:0.436047
G1 F4669
G1 X66.479 Y99.574 E.00229
;WIDTH:0.394381
G1 X153.521 Y99.574 E2.41656
;WIDTH:0.436047
G1 X153.802 Y99.595 E.00874
;WIDTH:0.477713
G1 X154.083 Y99.616 E.00966
;WIDTH:0.519379
G1 X154.363 Y99.637 E.01059
G1 X154.363 Y99.875 E.00897
G1 X154.384 Y100.076 E.00761
;WIDTH:0.477713
G1 X154.405 Y100.277 E.00695
;WIDTH:0.436047
G1 X154.426 Y100.479 E.00628
;WIDTH:0.394381
G1 X154.426 Y119.615 E.53129
;WIDTH:0.436047
G1 X154.405 Y119.865 E.00777
;WIDTH:0.477713
G1 X154.384 Y120.114 E.00859
;WIDTH:0.519379
G1 X154.363 Y120.363 E.00942
G1 X153.924 Y120.384 E.01656
;WIDTH:0.477713
G1 X153.723 Y120.405 E.00695
;WIDTH:0.436047
G1 X153.521 Y120.426 E.00628
;WIDTH:0.394381
G1 X66.479 Y120.426 E2.41656
